(G-CODE GENERATED BY FLATCAM v8.994 - www.flatcam.org - Version Date: 2020/11/7)

(Name: Zoetrope Carusel V4 - External Power Switch_V1-F_Cu.gbr_iso_combined_cnc)
(Type: G-code from Geometry)
(Units: MM)

(Created on Saturday, 07 March 2026 at 16:46)

(This preprocessor is the default preprocessor used by FlatCAM.)
(It is made to work with MACH3 compatible motion controllers.)

(TOOL DIAMETER: 0.1176 mm)
(Feedrate_XY: 120.0 mm/min)
(Feedrate_Z: 60.0 mm/min)
(Feedrate rapids 1500.0 mm/min)

(Z_Cut: -0.0499 mm)
(Z_Move: 2.0 mm)
(Z Start: None mm)
(Z End: 20.0 mm)
(X,Y End: None mm)
(Steps per circle: 64)
(Preprocessor Geometry: default)

(X range:    0.3582 ...   20.2275  mm)
(Y range:    0.5654 ...   29.9346  mm)

(Spindle Speed: 10000.0 RPM)
G21
G90
G94

G01 F120.00

M5
G00 Z15.0000
G00 X0.0000 Y0.0000
T2
M6    
(MSG, Change to Tool Dia = 0.1176)
M0
G00 Z15.0000

M03 S10000.0
G01 F120.00
G00 X9.8559 Y3.6193
G01 F60.00
G01 Z-0.0499
G01 F120.00
G01 X10.0097 Y3.5683
G01 X10.1030 Y3.5588
G01 X10.3912 Y3.5588
G01 X10.3912 Y3.9412
G01 X10.1486 Y3.9412
G01 X10.1197 Y3.9427
G01 X10.0869 Y3.9478
G01 X10.0604 Y3.9545
G01 X10.0318 Y3.9647
G01 X10.0044 Y3.9777
G01 X9.9809 Y3.9917
G01 X9.9541 Y4.0113
G01 X9.9337 Y4.0297
G01 X9.9297 Y4.0337
G01 X9.9095 Y4.0564
G01 X9.8932 Y4.0784
G01 X9.8791 Y4.1019
G01 X9.8647 Y4.1318
G01 X9.8545 Y4.1604
G01 X9.8478 Y4.1869
G01 X9.8466 Y4.1926
G01 X9.8425 Y4.2226
G01 X9.8412 Y4.2500
G01 X9.8412 Y5.1912
G01 X9.4588 Y5.1912
G01 X9.4588 Y4.2030
G01 X9.4683 Y4.1097
G01 X9.5193 Y3.9559
G01 X9.6041 Y3.8184
G01 X9.7184 Y3.7041
G01 X9.8559 Y3.6193
G00 Z2.0000
G00 X9.8959 Y3.7051
G01 F60.00
G01 Z-0.0499
G01 F120.00
G01 X10.0295 Y3.6609
G01 X10.1078 Y3.6529
G01 X10.2971 Y3.6529
G01 X10.2971 Y3.8471
G01 X10.1500 Y3.8471
G01 X10.1105 Y3.8491
G01 X10.0714 Y3.8549
G01 X10.0403 Y3.8625
G01 X10.0259 Y3.8668
G01 X9.9958 Y3.8778
G01 X9.9601 Y3.8947
G01 X9.9325 Y3.9110
G01 X9.9200 Y3.9193
G01 X9.8973 Y3.9362
G01 X9.8887 Y3.9435
G01 X9.8651 Y3.9651
G01 X9.8386 Y3.9944
G01 X9.8150 Y4.0262
G01 X9.7984 Y4.0536
G01 X9.7913 Y4.0668
G01 X9.7778 Y4.0958
G01 X9.7645 Y4.1331
G01 X9.7549 Y4.1714
G01 X9.7500 Y4.2031
G01 X9.7485 Y4.2180
G01 X9.7471 Y4.2500
G01 X9.7471 Y5.0971
G01 X9.5529 Y5.0971
G01 X9.5529 Y4.2078
G01 X9.5609 Y4.1295
G01 X9.6051 Y3.9959
G01 X9.6784 Y3.8771
G01 X9.7771 Y3.7784
G01 X9.8959 Y3.7051
G00 Z2.0000
G00 X9.9360 Y3.7910
G01 F60.00
G01 Z-0.0499
G01 F120.00
G01 X10.0493 Y3.7534
G01 X10.1126 Y3.7470
G01 X10.2030 Y3.7470
G01 X10.2030 Y3.7530
G01 X10.1439 Y3.7531
G01 X10.1013 Y3.7554
G01 X10.0650 Y3.7605
G01 X10.0530 Y3.7626
G01 X10.0174 Y3.7712
G01 X10.0057 Y3.7744
G01 X9.9942 Y3.7782
G01 X9.9654 Y3.7886
G01 X9.9543 Y3.7933
G01 X9.9157 Y3.8117
G01 X9.8841 Y3.8303
G01 X9.8739 Y3.8368
G01 X9.8640 Y3.8438
G01 X9.8395 Y3.8621
G01 X9.8301 Y3.8697
G01 X9.7986 Y3.8986
G01 X9.7697 Y3.9301
G01 X9.7621 Y3.9395
G01 X9.7438 Y3.9640
G01 X9.7368 Y3.9739
G01 X9.7303 Y3.9841
G01 X9.7117 Y4.0157
G01 X9.6933 Y4.0543
G01 X9.6865 Y4.0711
G01 X9.6744 Y4.1057
G01 X9.6638 Y4.1471
G01 X9.6605 Y4.1650
G01 X9.6561 Y4.1953
G01 X9.6549 Y4.2073
G01 X9.6533 Y4.2379
G01 X9.6530 Y4.2500
G01 X9.6530 Y5.0030
G01 X9.6470 Y5.0030
G01 X9.6470 Y4.2126
G01 X9.6534 Y4.1493
G01 X9.6910 Y4.0360
G01 X9.7527 Y3.9359
G01 X9.8359 Y3.8527
G01 X9.9360 Y3.7910
G00 Z2.0000
G00 X11.0088 Y3.9412
G01 F60.00
G01 Z-0.0499
G01 F120.00
G01 X11.0088 Y3.5588
G01 X11.2970 Y3.5588
G01 X11.3903 Y3.5683
G01 X11.5441 Y3.6193
G01 X11.6816 Y3.7041
G01 X11.7959 Y3.8184
G01 X11.8807 Y3.9559
G01 X11.9317 Y4.1097
G01 X11.9412 Y4.2030
G01 X11.9412 Y4.7612
G01 X11.9420 Y4.7710
G01 X11.9436 Y4.7778
G01 X11.9637 Y4.8462
G01 X11.9670 Y4.8544
G01 X11.9723 Y4.8631
G01 X11.9760 Y4.8676
G01 X11.9801 Y4.8717
G01 X12.0362 Y4.9203
G01 X12.0422 Y4.9245
G01 X12.0474 Y4.9272
G01 X12.0542 Y4.9299
G01 X12.0612 Y4.9317
G01 X12.1347 Y4.9424
G01 X12.1435 Y4.9427
G01 X12.1507 Y4.9421
G01 X12.1579 Y4.9405
G01 X12.1647 Y4.9381
G01 X12.2335 Y4.9065
G01 X12.2407 Y4.9019
G01 X12.2471 Y4.8962
G01 X12.2753 Y4.8633
G01 X12.2796 Y4.8572
G01 X12.3037 Y4.8181
G01 X12.4181 Y4.7037
G01 X12.5557 Y4.6188
G01 X12.7096 Y4.5678
G01 X12.8030 Y4.5583
G01 X13.3970 Y4.5583
G01 X13.4904 Y4.5678
G01 X13.6443 Y4.6188
G01 X13.7819 Y4.7037
G01 X13.8963 Y4.8181
G01 X13.9444 Y4.8961
G01 X13.9484 Y4.9018
G01 X13.9551 Y4.9090
G01 X14.0093 Y4.9576
G01 X14.0140 Y4.9610
G01 X14.0203 Y4.9647
G01 X14.0257 Y4.9670
G01 X14.0327 Y4.9691
G01 X14.1059 Y4.9812
G01 X14.1161 Y4.9820
G01 X14.1263 Y4.9810
G01 X14.1319 Y4.9796
G01 X14.1375 Y4.9777
G01 X14.2042 Y4.9487
G01 X14.2119 Y4.9444
G01 X14.2188 Y4.9391
G01 X14.2239 Y4.9339
G01 X14.2533 Y4.8995
G01 X14.3037 Y4.8181
G01 X14.4181 Y4.7037
G01 X14.5557 Y4.6188
G01 X14.7096 Y4.5678
G01 X14.8030 Y4.5583
G01 X15.3970 Y4.5583
G01 X15.4904 Y4.5678
G01 X15.6443 Y4.6188
G01 X15.7819 Y4.7037
G01 X15.8963 Y4.8181
G01 X15.9212 Y4.8584
G01 X15.9244 Y4.8629
G01 X15.9281 Y4.8671
G01 X15.9831 Y4.9168
G01 X15.9876 Y4.9205
G01 X15.9925 Y4.9237
G01 X15.9977 Y4.9264
G01 X16.0045 Y4.9291
G01 X16.0101 Y4.9306
G01 X16.0834 Y4.9425
G01 X16.0892 Y4.9430
G01 X16.0950 Y4.9430
G01 X16.1051 Y4.9415
G01 X16.1135 Y4.9388
G01 X16.1802 Y4.9098
G01 X16.1866 Y4.9063
G01 X16.1926 Y4.9020
G01 X16.1989 Y4.8960
G01 X16.2035 Y4.8903
G01 X16.2432 Y4.8311
G01 X16.2474 Y4.8236
G01 X16.2509 Y4.8143
G01 X16.2524 Y4.8073
G01 X16.2581 Y4.7701
G01 X16.2588 Y4.7627
G01 X16.2588 Y4.2030
G01 X16.2683 Y4.1097
G01 X16.3193 Y3.9559
G01 X16.4041 Y3.8184
G01 X16.5184 Y3.7041
G01 X16.6559 Y3.6193
G01 X16.8097 Y3.5683
G01 X16.9030 Y3.5588
G01 X17.1912 Y3.5588
G01 X17.1912 Y3.9412
G01 X16.9500 Y3.9412
G01 X16.9212 Y3.9426
G01 X16.8898 Y3.9471
G01 X16.8631 Y3.9537
G01 X16.8345 Y3.9637
G01 X16.8292 Y3.9659
G01 X16.8044 Y3.9777
G01 X16.7809 Y3.9917
G01 X16.7564 Y4.0095
G01 X16.7316 Y4.0316
G01 X16.7113 Y4.0541
G01 X16.6917 Y4.0809
G01 X16.6777 Y4.1044
G01 X16.6659 Y4.1292
G01 X16.6545 Y4.1604
G01 X16.6469 Y4.1912
G01 X16.6427 Y4.2197
G01 X16.6412 Y4.2500
G01 X16.6412 Y6.7500
G01 X16.6430 Y6.7831
G01 X16.6471 Y6.8102
G01 X16.6537 Y6.8369
G01 X16.6647 Y6.8682
G01 X16.6791 Y6.8981
G01 X16.6932 Y6.9216
G01 X16.7095 Y6.9436
G01 X16.7316 Y6.9684
G01 X16.7564 Y6.9905
G01 X16.7784 Y7.0068
G01 X16.8032 Y7.0216
G01 X16.8318 Y7.0353
G01 X16.8604 Y7.0455
G01 X16.8898 Y7.0529
G01 X16.9197 Y7.0573
G01 X16.9500 Y7.0588
G01 X17.1912 Y7.0588
G01 X17.1912 Y7.4412
G01 X16.9030 Y7.4412
G01 X16.8097 Y7.4317
G01 X16.6559 Y7.3807
G01 X16.5184 Y7.2959
G01 X16.4041 Y7.1816
G01 X16.3793 Y7.1415
G01 X16.3752 Y7.1358
G01 X16.3714 Y7.1317
G01 X16.3140 Y7.0803
G01 X16.3093 Y7.0769
G01 X16.3028 Y7.0735
G01 X16.2974 Y7.0713
G01 X16.2918 Y7.0696
G01 X16.2171 Y7.0573
G01 X16.2098 Y7.0568
G01 X16.2026 Y7.0571
G01 X16.1940 Y7.0588
G01 X16.1870 Y7.0611
G01 X16.1203 Y7.0901
G01 X16.1139 Y7.0936
G01 X16.1091 Y7.0969
G01 X16.1036 Y7.1017
G01 X16.0987 Y7.1072
G01 X16.0565 Y7.1700
G01 X16.0537 Y7.1750
G01 X16.0514 Y7.1802
G01 X16.0496 Y7.1856
G01 X16.0483 Y7.1912
G01 X16.0422 Y7.2312
G01 X16.0417 Y7.2386
G01 X16.0417 Y10.2970
G01 X16.0320 Y10.3918
G01 X16.0299 Y10.4057
G01 X16.0302 Y10.4161
G01 X16.0282 Y10.4738
G01 X16.0289 Y10.4837
G01 X16.0313 Y10.4933
G01 X16.0352 Y10.5023
G01 X16.0691 Y10.5616
G01 X16.0731 Y10.5675
G01 X16.0778 Y10.5729
G01 X18.7344 Y13.2294
G01 X18.8238 Y13.3631
G01 X18.8853 Y13.5118
G01 X18.9167 Y13.6696
G01 X18.9167 Y21.7304
G01 X18.8853 Y21.8882
G01 X18.8238 Y22.0368
G01 X18.7344 Y22.1706
G01 X15.9122 Y24.9927
G01 X15.9085 Y24.9969
G01 X15.9051 Y25.0014
G01 X15.9022 Y25.0061
G01 X15.8668 Y25.0714
G01 X15.8646 Y25.0769
G01 X15.8627 Y25.0839
G01 X15.8618 Y25.0897
G01 X15.8615 Y25.0956
G01 X15.8629 Y25.1555
G01 X15.8635 Y25.1625
G01 X15.8649 Y25.1693
G01 X15.8979 Y25.2924
G01 X15.9292 Y25.5301
G01 X15.9292 Y25.7699
G01 X15.8979 Y26.0076
G01 X15.8358 Y26.2392
G01 X15.7441 Y26.4608
G01 X15.6242 Y26.6684
G01 X15.4782 Y26.8587
G01 X15.3087 Y27.0282
G01 X15.1184 Y27.1742
G01 X14.9108 Y27.2941
G01 X14.6892 Y27.3858
G01 X14.4576 Y27.4479
G01 X14.2199 Y27.4792
G01 X13.9801 Y27.4792
G01 X13.7424 Y27.4479
G01 X13.5108 Y27.3858
G01 X13.2892 Y27.2941
G01 X13.0816 Y27.1742
G01 X12.8913 Y27.0282
G01 X12.7218 Y26.8587
G01 X12.5758 Y26.6684
G01 X12.4559 Y26.4608
G01 X12.3642 Y26.2392
G01 X12.3021 Y26.0076
G01 X12.2708 Y25.7699
G01 X12.2708 Y25.5301
G01 X12.3021 Y25.2924
G01 X12.3642 Y25.0608
G01 X12.4559 Y24.8392
G01 X12.5758 Y24.6316
G01 X12.7218 Y24.4413
G01 X12.8913 Y24.2718
G01 X13.0816 Y24.1258
G01 X13.2892 Y24.0059
G01 X13.5108 Y23.9142
G01 X13.7424 Y23.8521
G01 X13.9801 Y23.8208
G01 X14.2199 Y23.8208
G01 X14.4576 Y23.8521
G01 X14.5820 Y23.8854
G01 X14.5889 Y23.8867
G01 X14.5959 Y23.8871
G01 X14.6686 Y23.8853
G01 X14.6744 Y23.8848
G01 X14.6816 Y23.8832
G01 X14.6885 Y23.8808
G01 X14.6951 Y23.8776
G01 X14.7486 Y23.8449
G01 X14.7531 Y23.8415
G01 X14.7573 Y23.8378
G01 X17.2298 Y21.3653
G01 X17.2353 Y21.3589
G01 X17.2391 Y21.3531
G01 X17.2752 Y21.2867
G01 X17.2782 Y21.2785
G01 X17.2798 Y21.2715
G01 X17.2830 Y21.2423
G01 X17.2833 Y21.2360
G01 X17.2833 Y14.1640
G01 X17.2827 Y14.1556
G01 X17.2809 Y14.1474
G01 X17.2612 Y14.0804
G01 X17.2588 Y14.0736
G01 X17.2555 Y14.0672
G01 X17.2524 Y14.0624
G01 X17.2340 Y14.0394
G01 X17.2298 Y14.0347
G01 X14.4656 Y11.2706
G01 X14.3763 Y11.1369
G01 X14.3147 Y10.9882
G01 X14.2833 Y10.8304
G01 X14.2833 Y10.6992
G01 X14.2821 Y10.6889
G01 X14.2787 Y10.6764
G01 X14.2789 Y10.6660
G01 X14.2782 Y10.6586
G01 X14.2765 Y10.6514
G01 X14.2746 Y10.6458
G01 X14.2581 Y10.6083
G01 X14.2524 Y10.5992
G01 X14.2459 Y10.5919
G01 X14.1918 Y10.5433
G01 X14.1859 Y10.5389
G01 X14.1796 Y10.5353
G01 X14.1715 Y10.5320
G01 X14.1630 Y10.5300
G01 X14.0926 Y10.5186
G01 X14.0867 Y10.5181
G01 X14.0795 Y10.5182
G01 X14.0708 Y10.5197
G01 X14.0625 Y10.5223
G01 X13.9957 Y10.5514
G01 X13.9906 Y10.5541
G01 X13.9857 Y10.5573
G01 X13.9812 Y10.5610
G01 X13.9770 Y10.5651
G01 X13.9483 Y10.5983
G01 X13.9444 Y10.6038
G01 X13.9411 Y10.6098
G01 X13.9383 Y10.6167
G01 X13.9356 Y10.6259
G01 X13.9291 Y10.6364
G01 X13.9254 Y10.6459
G01 X13.9240 Y10.6515
G01 X13.9231 Y10.6573
G01 X13.9227 Y10.6713
G01 X13.9185 Y10.6860
G01 X13.9174 Y10.6918
G01 X13.9167 Y10.7007
G01 X13.9167 Y11.8304
G01 X13.8853 Y11.9882
G01 X13.8238 Y12.1368
G01 X13.7344 Y12.2706
G01 X11.4702 Y14.5347
G01 X11.4656 Y14.5400
G01 X11.4609 Y14.5469
G01 X11.4254 Y14.6120
G01 X11.4222 Y14.6201
G01 X11.4202 Y14.6285
G01 X11.4170 Y14.6577
G01 X11.4167 Y14.6640
G01 X11.4167 Y17.3360
G01 X11.4171 Y17.3430
G01 X11.4187 Y17.3512
G01 X11.4392 Y17.4210
G01 X11.4431 Y17.4303
G01 X11.4485 Y17.4388
G01 X11.4660 Y17.4606
G01 X11.4702 Y17.4652
G01 X12.7309 Y18.7259
G01 X12.7365 Y18.7308
G01 X12.7414 Y18.7343
G01 X12.7982 Y18.7675
G01 X12.8050 Y18.7707
G01 X12.8107 Y18.7726
G01 X14.0286 Y19.1147
G01 X14.0674 Y19.1202
G01 X14.0741 Y19.1208
G01 X14.2199 Y19.1208
G01 X14.4576 Y19.1521
G01 X14.6892 Y19.2142
G01 X14.9108 Y19.3059
G01 X15.1184 Y19.4258
G01 X15.3087 Y19.5718
G01 X15.4782 Y19.7413
G01 X15.6242 Y19.9316
G01 X15.7441 Y20.1392
G01 X15.8358 Y20.3608
G01 X15.8979 Y20.5924
G01 X15.9292 Y20.8301
G01 X15.9292 Y21.0699
G01 X15.8979 Y21.3076
G01 X15.8358 Y21.5392
G01 X15.7441 Y21.7608
G01 X15.6242 Y21.9684
G01 X15.5778 Y22.0289
G01 X15.4782 Y22.1587
G01 X15.3087 Y22.3282
G01 X15.1184 Y22.4742
G01 X14.9108 Y22.5941
G01 X14.6892 Y22.6858
G01 X14.4576 Y22.7479
G01 X14.2199 Y22.7792
G01 X13.9801 Y22.7792
G01 X13.7424 Y22.7479
G01 X13.5108 Y22.6858
G01 X13.2892 Y22.5941
G01 X13.0816 Y22.4742
G01 X12.8913 Y22.3282
G01 X12.7218 Y22.1587
G01 X12.5758 Y21.9684
G01 X12.4559 Y21.7608
G01 X12.3642 Y21.5392
G01 X12.3021 Y21.3076
G01 X12.2974 Y21.2721
G01 X12.2961 Y21.2652
G01 X12.2831 Y21.2227
G01 X12.2800 Y21.2148
G01 X11.6504 Y19.9683
G01 X11.6465 Y19.9616
G01 X11.6226 Y19.9286
G01 X11.6165 Y19.9215
G01 X9.9656 Y18.2706
G01 X9.8763 Y18.1369
G01 X9.8147 Y17.9882
G01 X9.7833 Y17.8304
G01 X9.7833 Y14.1696
G01 X9.8147 Y14.0118
G01 X9.8762 Y13.8632
G01 X9.9656 Y13.7294
G01 X12.2307 Y11.4643
G01 X12.2353 Y11.4589
G01 X12.2391 Y11.4531
G01 X12.2733 Y11.3905
G01 X12.2758 Y11.3853
G01 X12.2782 Y11.3785
G01 X12.2798 Y11.3715
G01 X12.2831 Y11.3407
G01 X12.2833 Y10.7007
G01 X12.2828 Y10.6933
G01 X12.2811 Y10.6846
G01 X12.2612 Y10.6153
G01 X12.2568 Y10.6060
G01 X12.2188 Y10.5443
G01 X12.1678 Y10.3904
G01 X12.1583 Y10.2970
G01 X12.1583 Y7.2386
G01 X12.1579 Y7.2316
G01 X12.1563 Y7.2234
G01 X12.1358 Y7.1536
G01 X12.1331 Y7.1468
G01 X12.1297 Y7.1404
G01 X12.1254 Y7.1345
G01 X12.1205 Y7.1291
G01 X12.0644 Y7.0804
G01 X12.0585 Y7.0762
G01 X12.0534 Y7.0733
G01 X12.0453 Y7.0700
G01 X12.0368 Y7.0679
G01 X11.9648 Y7.0575
G01 X11.9546 Y7.0572
G01 X11.9488 Y7.0578
G01 X11.9430 Y7.0590
G01 X11.9334 Y7.0624
G01 X11.8699 Y7.0914
G01 X11.8636 Y7.0948
G01 X11.8577 Y7.0989
G01 X11.8504 Y7.1057
G01 X11.8233 Y7.1378
G01 X11.8199 Y7.1427
G01 X11.7959 Y7.1816
G01 X11.6816 Y7.2959
G01 X11.5441 Y7.3807
G01 X11.3903 Y7.4317
G01 X11.2970 Y7.4412
G01 X11.0088 Y7.4412
G01 X11.0088 Y7.0588
G01 X11.2500 Y7.0588
G01 X11.2788 Y7.0574
G01 X11.3102 Y7.0529
G01 X11.3369 Y7.0463
G01 X11.3655 Y7.0363
G01 X11.3708 Y7.0341
G01 X11.3956 Y7.0223
G01 X11.4191 Y7.0083
G01 X11.4436 Y6.9905
G01 X11.4684 Y6.9684
G01 X11.4887 Y6.9459
G01 X11.5083 Y6.9191
G01 X11.5223 Y6.8956
G01 X11.5341 Y6.8708
G01 X11.5455 Y6.8396
G01 X11.5531 Y6.8088
G01 X11.5573 Y6.7803
G01 X11.5588 Y6.7500
G01 X11.5588 Y4.2500
G01 X11.5570 Y4.2169
G01 X11.5529 Y4.1898
G01 X11.5463 Y4.1631
G01 X11.5353 Y4.1318
G01 X11.5209 Y4.1019
G01 X11.5068 Y4.0784
G01 X11.4905 Y4.0564
G01 X11.4684 Y4.0316
G01 X11.4436 Y4.0095
G01 X11.4216 Y3.9932
G01 X11.3968 Y3.9784
G01 X11.3682 Y3.9647
G01 X11.3396 Y3.9545
G01 X11.3102 Y3.9471
G01 X11.2803 Y3.9427
G01 X11.2500 Y3.9412
G01 X11.0088 Y3.9412
G00 Z2.0000
G00 X11.1029 Y3.8471
G01 F60.00
G01 Z-0.0499
G01 F120.00
G01 X11.1029 Y3.6529
G01 X11.2922 Y3.6529
G01 X11.3705 Y3.6609
G01 X11.5041 Y3.7051
G01 X11.6229 Y3.7784
G01 X11.7216 Y3.8771
G01 X11.7949 Y3.9959
G01 X11.8391 Y4.1295
G01 X11.8471 Y4.2078
G01 X11.8471 Y4.7612
G01 X11.8475 Y4.7721
G01 X11.8487 Y4.7830
G01 X11.8506 Y4.7937
G01 X11.8523 Y4.8008
G01 X11.8730 Y4.8713
G01 X11.8780 Y4.8857
G01 X11.8827 Y4.8961
G01 X11.8881 Y4.9061
G01 X11.8942 Y4.9157
G01 X11.9011 Y4.9248
G01 X11.9086 Y4.9333
G01 X11.9167 Y4.9413
G01 X11.9724 Y4.9896
G01 X11.9812 Y4.9967
G01 X11.9939 Y5.0051
G01 X12.0073 Y5.0123
G01 X12.0213 Y5.0181
G01 X12.0358 Y5.0225
G01 X12.0507 Y5.0254
G01 X12.1274 Y5.0362
G01 X12.1426 Y5.0369
G01 X12.1502 Y5.0366
G01 X12.1615 Y5.0356
G01 X12.1690 Y5.0344
G01 X12.1801 Y5.0319
G01 X12.1910 Y5.0287
G01 X12.1982 Y5.0260
G01 X12.2754 Y4.9908
G01 X12.2851 Y4.9853
G01 X12.2974 Y4.9769
G01 X12.3088 Y4.9674
G01 X12.3167 Y4.9595
G01 X12.3460 Y4.9254
G01 X12.3532 Y4.9162
G01 X12.3597 Y4.9066
G01 X12.3780 Y4.8768
G01 X12.4768 Y4.7780
G01 X12.5957 Y4.7047
G01 X12.7294 Y4.6604
G01 X12.8078 Y4.6524
G01 X13.3922 Y4.6524
G01 X13.4706 Y4.6604
G01 X13.6043 Y4.7047
G01 X13.7232 Y4.7780
G01 X13.8220 Y4.8768
G01 X13.8663 Y4.9486
G01 X13.8726 Y4.9575
G01 X13.8819 Y4.9687
G01 X13.8922 Y4.9789
G01 X13.9442 Y5.0256
G01 X13.9529 Y5.0329
G01 X13.9622 Y5.0396
G01 X13.9752 Y5.0473
G01 X13.9855 Y5.0522
G01 X13.9961 Y5.0563
G01 X14.0107 Y5.0606
G01 X14.0219 Y5.0629
G01 X14.0946 Y5.0746
G01 X14.1059 Y5.0758
G01 X14.1173 Y5.0761
G01 X14.1324 Y5.0751
G01 X14.1437 Y5.0734
G01 X14.1548 Y5.0709
G01 X14.1693 Y5.0663
G01 X14.2473 Y5.0324
G01 X14.2605 Y5.0250
G01 X14.2730 Y5.0163
G01 X14.2817 Y5.0090
G01 X14.2925 Y4.9983
G01 X14.3211 Y4.9654
G01 X14.3277 Y4.9571
G01 X14.3357 Y4.9455
G01 X14.3780 Y4.8768
G01 X14.4768 Y4.7780
G01 X14.5957 Y4.7047
G01 X14.7294 Y4.6604
G01 X14.8078 Y4.6524
G01 X15.3922 Y4.6524
G01 X15.4706 Y4.6604
G01 X15.6043 Y4.7047
G01 X15.7232 Y4.7780
G01 X15.8220 Y4.8768
G01 X15.8443 Y4.9127
G01 X15.8508 Y4.9215
G01 X15.8604 Y4.9324
G01 X15.8682 Y4.9400
G01 X15.9230 Y4.9892
G01 X15.9319 Y4.9963
G01 X15.9382 Y5.0006
G01 X15.9479 Y5.0066
G01 X15.9615 Y5.0133
G01 X15.9721 Y5.0174
G01 X15.9867 Y5.0217
G01 X15.9979 Y5.0240
G01 X16.0706 Y5.0357
G01 X16.0819 Y5.0369
G01 X16.0971 Y5.0371
G01 X16.1084 Y5.0362
G01 X16.1234 Y5.0338
G01 X16.1345 Y5.0310
G01 X16.1488 Y5.0260
G01 X16.2233 Y4.9935
G01 X16.2365 Y4.9861
G01 X16.2490 Y4.9774
G01 X16.2577 Y4.9701
G01 X16.2659 Y4.9622
G01 X16.2735 Y4.9536
G01 X16.2804 Y4.9446
G01 X16.3253 Y4.8771
G01 X16.3290 Y4.8707
G01 X16.3339 Y4.8606
G01 X16.3393 Y4.8468
G01 X16.3433 Y4.8325
G01 X16.3454 Y4.8215
G01 X16.3517 Y4.7806
G01 X16.3528 Y4.7651
G01 X16.3529 Y4.2078
G01 X16.3609 Y4.1295
G01 X16.4051 Y3.9959
G01 X16.4784 Y3.8771
G01 X16.5771 Y3.7784
G01 X16.6959 Y3.7051
G01 X16.8295 Y3.6609
G01 X16.9078 Y3.6529
G01 X17.0971 Y3.6529
G01 X17.0971 Y3.8471
G01 X16.9462 Y3.8472
G01 X16.9105 Y3.8491
G01 X16.8751 Y3.8542
G01 X16.8641 Y3.8565
G01 X16.8331 Y3.8645
G01 X16.7993 Y3.8764
G01 X16.7890 Y3.8808
G01 X16.7634 Y3.8930
G01 X16.7536 Y3.8984
G01 X16.7325 Y3.9110
G01 X16.7200 Y3.9193
G01 X16.6944 Y3.9386
G01 X16.6651 Y3.9651
G01 X16.6386 Y3.9944
G01 X16.6150 Y4.0262
G01 X16.5947 Y4.0601
G01 X16.5778 Y4.0958
G01 X16.5645 Y4.1331
G01 X16.5565 Y4.1641
G01 X16.5542 Y4.1751
G01 X16.5491 Y4.2105
G01 X16.5471 Y4.2500
G01 X16.5471 Y6.7500
G01 X16.5491 Y6.7895
G01 X16.5536 Y6.8212
G01 X16.5565 Y6.8359
G01 X16.5645 Y6.8669
G01 X16.5751 Y6.8972
G01 X16.5808 Y6.9110
G01 X16.5947 Y6.9399
G01 X16.6150 Y6.9738
G01 X16.6340 Y6.9997
G01 X16.6435 Y7.0113
G01 X16.6625 Y7.0322
G01 X16.6706 Y7.0401
G01 X16.6944 Y7.0614
G01 X16.7200 Y7.0807
G01 X16.7325 Y7.0890
G01 X16.7601 Y7.1053
G01 X16.7958 Y7.1222
G01 X16.8331 Y7.1355
G01 X16.8714 Y7.1451
G01 X16.9105 Y7.1509
G01 X16.9462 Y7.1528
G01 X17.0971 Y7.1529
G01 X17.0971 Y7.3471
G01 X16.9078 Y7.3471
G01 X16.8295 Y7.3391
G01 X16.6959 Y7.2949
G01 X16.5771 Y7.2216
G01 X16.4784 Y7.1229
G01 X16.4562 Y7.0872
G01 X16.4474 Y7.0756
G01 X16.4401 Y7.0674
G01 X16.4323 Y7.0599
G01 X16.3746 Y7.0082
G01 X16.3655 Y7.0013
G01 X16.3591 Y6.9972
G01 X16.3492 Y6.9915
G01 X16.3424 Y6.9881
G01 X16.3319 Y6.9837
G01 X16.3211 Y6.9801
G01 X16.3101 Y6.9773
G01 X16.3026 Y6.9759
G01 X16.2262 Y6.9637
G01 X16.2148 Y6.9628
G01 X16.2072 Y6.9627
G01 X16.1996 Y6.9630
G01 X16.1883 Y6.9641
G01 X16.1771 Y6.9661
G01 X16.1697 Y6.9679
G01 X16.1552 Y6.9725
G01 X16.0772 Y7.0064
G01 X16.0672 Y7.0118
G01 X16.0608 Y7.0159
G01 X16.0485 Y7.0248
G01 X16.0373 Y7.0350
G01 X16.0320 Y7.0405
G01 X16.0247 Y7.0492
G01 X16.0180 Y7.0584
G01 X15.9771 Y7.1196
G01 X15.9698 Y7.1325
G01 X15.9651 Y7.1426
G01 X15.9624 Y7.1496
G01 X15.9590 Y7.1602
G01 X15.9557 Y7.1747
G01 X15.9488 Y7.2193
G01 X15.9481 Y7.2270
G01 X15.9476 Y7.2386
G01 X15.9476 Y10.2922
G01 X15.9388 Y10.3781
G01 X15.9368 Y10.3911
G01 X15.9359 Y10.4020
G01 X15.9341 Y10.4745
G01 X15.9345 Y10.4858
G01 X15.9364 Y10.5007
G01 X15.9388 Y10.5118
G01 X15.9432 Y10.5262
G01 X15.9474 Y10.5367
G01 X15.9524 Y10.5469
G01 X15.9905 Y10.6134
G01 X15.9946 Y10.6195
G01 X16.0013 Y10.6284
G01 X16.0113 Y10.6394
G01 X18.6613 Y13.2894
G01 X18.7404 Y13.4077
G01 X18.7949 Y13.5392
G01 X18.8226 Y13.6788
G01 X18.8226 Y21.7212
G01 X18.7949 Y21.8608
G01 X18.7404 Y21.9923
G01 X18.6613 Y22.1106
G01 X15.8457 Y24.9262
G01 X15.8359 Y24.9370
G01 X15.8272 Y24.9486
G01 X15.8196 Y24.9611
G01 X15.7862 Y25.0224
G01 X15.7795 Y25.0361
G01 X15.7743 Y25.0504
G01 X15.7713 Y25.0615
G01 X15.7687 Y25.0765
G01 X15.7675 Y25.0917
G01 X15.7689 Y25.1577
G01 X15.7695 Y25.1686
G01 X15.7704 Y25.1759
G01 X15.7716 Y25.1830
G01 X15.7741 Y25.1937
G01 X15.8054 Y25.3108
G01 X15.8351 Y25.5363
G01 X15.8351 Y25.7637
G01 X15.8054 Y25.9892
G01 X15.7466 Y26.2089
G01 X15.6595 Y26.4191
G01 X15.5458 Y26.6160
G01 X15.4073 Y26.7965
G01 X15.2465 Y26.9573
G01 X15.0661 Y27.0958
G01 X14.8691 Y27.2095
G01 X14.6589 Y27.2966
G01 X14.4392 Y27.3554
G01 X14.2137 Y27.3851
G01 X13.9863 Y27.3851
G01 X13.7608 Y27.3554
G01 X13.5411 Y27.2966
G01 X13.3309 Y27.2095
G01 X13.1340 Y27.0958
G01 X12.9535 Y26.9573
G01 X12.7927 Y26.7965
G01 X12.6542 Y26.6161
G01 X12.5405 Y26.4191
G01 X12.4534 Y26.2089
G01 X12.3946 Y25.9892
G01 X12.3649 Y25.7637
G01 X12.3649 Y25.5363
G01 X12.3946 Y25.3108
G01 X12.4534 Y25.0911
G01 X12.5405 Y24.8809
G01 X12.6542 Y24.6840
G01 X12.7927 Y24.5035
G01 X12.9535 Y24.3427
G01 X13.1340 Y24.2042
G01 X13.3309 Y24.0905
G01 X13.5411 Y24.0034
G01 X13.7608 Y23.9446
G01 X13.9863 Y23.9149
G01 X14.2137 Y23.9149
G01 X14.4392 Y23.9446
G01 X14.5599 Y23.9768
G01 X14.5670 Y23.9784
G01 X14.5778 Y23.9801
G01 X14.5886 Y23.9810
G01 X14.5959 Y23.9812
G01 X14.6770 Y23.9791
G01 X14.6846 Y23.9783
G01 X14.6959 Y23.9765
G01 X14.7106 Y23.9728
G01 X14.7250 Y23.9676
G01 X14.7319 Y23.9644
G01 X14.7420 Y23.9591
G01 X14.7983 Y23.9248
G01 X14.8102 Y23.9164
G01 X14.8185 Y23.9093
G01 X14.8238 Y23.9043
G01 X17.2963 Y21.4318
G01 X17.3013 Y21.4265
G01 X17.3084 Y21.4182
G01 X17.3148 Y21.4094
G01 X17.3187 Y21.4032
G01 X17.3558 Y21.3356
G01 X17.3609 Y21.3256
G01 X17.3651 Y21.3151
G01 X17.3676 Y21.3080
G01 X17.3705 Y21.2972
G01 X17.3721 Y21.2898
G01 X17.3737 Y21.2787
G01 X17.3765 Y21.2523
G01 X17.3774 Y21.2360
G01 X17.3774 Y14.1640
G01 X17.3770 Y14.1531
G01 X17.3758 Y14.1422
G01 X17.3739 Y14.1315
G01 X17.3722 Y14.1244
G01 X17.3515 Y14.0539
G01 X17.3479 Y14.0432
G01 X17.3436 Y14.0328
G01 X17.3366 Y14.0195
G01 X17.3284 Y14.0070
G01 X17.3072 Y13.9804
G01 X17.2991 Y13.9712
G01 X14.5387 Y11.2106
G01 X14.4596 Y11.0923
G01 X14.4052 Y10.9608
G01 X14.3774 Y10.8212
G01 X14.3773 Y10.6968
G01 X14.3762 Y10.6815
G01 X14.3750 Y10.6739
G01 X14.3729 Y10.6640
G01 X14.3725 Y10.6553
G01 X14.3711 Y10.6438
G01 X14.3679 Y10.6287
G01 X14.3632 Y10.6141
G01 X14.3447 Y10.5712
G01 X14.3380 Y10.5583
G01 X14.3316 Y10.5483
G01 X14.3252 Y10.5395
G01 X14.3181 Y10.5312
G01 X14.3104 Y10.5235
G01 X14.2500 Y10.4694
G01 X14.2377 Y10.4604
G01 X14.2247 Y10.4527
G01 X14.2144 Y10.4478
G01 X14.2038 Y10.4436
G01 X14.1929 Y10.4403
G01 X14.1818 Y10.4378
G01 X14.1053 Y10.4254
G01 X14.0902 Y10.4240
G01 X14.0750 Y10.4242
G01 X14.0637 Y10.4254
G01 X14.0525 Y10.4273
G01 X14.0378 Y10.4313
G01 X14.0271 Y10.4351
G01 X13.9527 Y10.4677
G01 X13.9460 Y10.4712
G01 X13.9362 Y10.4771
G01 X13.9270 Y10.4838
G01 X13.9211 Y10.4885
G01 X13.9127 Y10.4963
G01 X13.9075 Y10.5017
G01 X13.8789 Y10.5346
G01 X13.8702 Y10.5456
G01 X13.8639 Y10.5552
G01 X13.8565 Y10.5687
G01 X13.8518 Y10.5792
G01 X13.8492 Y10.5865
G01 X13.8450 Y10.5942
G01 X13.8403 Y10.6045
G01 X13.8352 Y10.6188
G01 X13.8316 Y10.6336
G01 X13.8299 Y10.6448
G01 X13.8289 Y10.6572
G01 X13.8257 Y10.6701
G01 X13.8238 Y10.6815
G01 X13.8231 Y10.6891
G01 X13.8226 Y10.7007
G01 X13.8226 Y11.8212
G01 X13.7949 Y11.9608
G01 X13.7404 Y12.0923
G01 X13.6613 Y12.2106
G01 X11.4012 Y14.4708
G01 X11.3939 Y14.4790
G01 X11.3894 Y14.4847
G01 X11.3813 Y14.4968
G01 X11.3407 Y14.5711
G01 X11.3362 Y14.5814
G01 X11.3336 Y14.5884
G01 X11.3304 Y14.5992
G01 X11.3279 Y14.6102
G01 X11.3263 Y14.6213
G01 X11.3235 Y14.6477
G01 X11.3226 Y14.6640
G01 X11.3226 Y17.3360
G01 X11.3228 Y17.3433
G01 X11.3237 Y17.3541
G01 X11.3247 Y17.3613
G01 X11.3269 Y17.3720
G01 X11.3496 Y17.4497
G01 X11.3534 Y17.4603
G01 X11.3580 Y17.4705
G01 X11.3634 Y17.4805
G01 X11.3716 Y17.4930
G01 X11.3954 Y17.5227
G01 X11.4037 Y17.5318
G01 X12.6643 Y18.7924
G01 X12.6759 Y18.8029
G01 X12.6886 Y18.8121
G01 X12.7527 Y18.8499
G01 X12.7632 Y18.8551
G01 X12.7704 Y18.8582
G01 X12.7852 Y18.8632
G01 X14.0073 Y19.2063
G01 X14.0210 Y19.2088
G01 X14.0580 Y19.2139
G01 X14.0684 Y19.2147
G01 X14.2137 Y19.2149
G01 X14.4392 Y19.2446
G01 X14.6589 Y19.3034
G01 X14.8691 Y19.3905
G01 X15.0660 Y19.5042
G01 X15.2465 Y19.6427
G01 X15.4073 Y19.8035
G01 X15.5458 Y19.9840
G01 X15.6595 Y20.1809
G01 X15.7466 Y20.3911
G01 X15.8054 Y20.6108
G01 X15.8351 Y20.8363
G01 X15.8351 Y21.0637
G01 X15.8054 Y21.2892
G01 X15.7466 Y21.5089
G01 X15.6595 Y21.7191
G01 X15.5458 Y21.9160
G01 X15.5031 Y21.9716
G01 X15.4073 Y22.0965
G01 X15.2465 Y22.2573
G01 X15.0661 Y22.3958
G01 X14.8691 Y22.5095
G01 X14.6589 Y22.5966
G01 X14.4392 Y22.6554
G01 X14.2137 Y22.6851
G01 X13.9863 Y22.6851
G01 X13.7608 Y22.6554
G01 X13.5411 Y22.5966
G01 X13.3309 Y22.5095
G01 X13.1340 Y22.3958
G01 X12.9535 Y22.2573
G01 X12.7927 Y22.0965
G01 X12.6542 Y21.9161
G01 X12.5405 Y21.7191
G01 X12.4534 Y21.5089
G01 X12.3946 Y21.2892
G01 X12.3902 Y21.2562
G01 X12.3872 Y21.2418
G01 X12.3718 Y21.1915
G01 X12.3693 Y21.1846
G01 X12.3649 Y21.1744
G01 X11.7344 Y19.9259
G01 X11.7305 Y19.9188
G01 X11.7241 Y19.9085
G01 X11.6988 Y19.8734
G01 X11.6913 Y19.8639
G01 X11.6830 Y19.8550
G01 X10.0387 Y18.2106
G01 X9.9596 Y18.0923
G01 X9.9052 Y17.9608
G01 X9.8774 Y17.8212
G01 X9.8774 Y14.1788
G01 X9.9051 Y14.0392
G01 X9.9596 Y13.9077
G01 X10.0387 Y13.7894
G01 X12.2988 Y11.5292
G01 X12.3061 Y11.5210
G01 X12.3106 Y11.5153
G01 X12.3187 Y11.5032
G01 X12.3558 Y11.4356
G01 X12.3624 Y11.4221
G01 X12.3676 Y11.4080
G01 X12.3713 Y11.3935
G01 X12.3732 Y11.3824
G01 X12.3769 Y11.3483
G01 X12.3774 Y11.3360
G01 X12.3774 Y10.7007
G01 X12.3769 Y10.6892
G01 X12.3762 Y10.6815
G01 X12.3750 Y10.6739
G01 X12.3726 Y10.6627
G01 X12.3531 Y10.5939
G01 X12.3496 Y10.5829
G01 X12.3436 Y10.5688
G01 X12.3381 Y10.5586
G01 X12.3047 Y10.5043
G01 X12.2604 Y10.3706
G01 X12.2524 Y10.2922
G01 X12.2524 Y7.2386
G01 X12.2522 Y7.2313
G01 X12.2513 Y7.2205
G01 X12.2503 Y7.2133
G01 X12.2481 Y7.2026
G01 X12.2254 Y7.1249
G01 X12.2200 Y7.1107
G01 X12.2168 Y7.1038
G01 X12.2114 Y7.0938
G01 X12.2030 Y7.0811
G01 X12.1984 Y7.0751
G01 X12.1909 Y7.0665
G01 X12.1799 Y7.0560
G01 X12.1242 Y7.0078
G01 X12.1120 Y6.9988
G01 X12.0990 Y6.9910
G01 X12.0888 Y6.9860
G01 X12.0782 Y6.9818
G01 X12.0710 Y6.9794
G01 X12.0600 Y6.9765
G01 X12.0488 Y6.9745
G01 X11.9796 Y6.9646
G01 X11.9645 Y6.9631
G01 X11.9531 Y6.9631
G01 X11.9417 Y6.9639
G01 X11.9267 Y6.9662
G01 X11.9121 Y6.9700
G01 X11.8978 Y6.9753
G01 X11.8308 Y7.0058
G01 X11.8241 Y7.0091
G01 X11.8144 Y7.0146
G01 X11.8082 Y7.0186
G01 X11.7992 Y7.0252
G01 X11.7907 Y7.0325
G01 X11.7828 Y7.0403
G01 X11.7510 Y7.0775
G01 X11.7419 Y7.0900
G01 X11.7216 Y7.1229
G01 X11.6229 Y7.2216
G01 X11.5041 Y7.2949
G01 X11.3705 Y7.3391
G01 X11.2922 Y7.3471
G01 X11.1029 Y7.3471
G01 X11.1029 Y7.1529
G01 X11.2538 Y7.1528
G01 X11.2895 Y7.1509
G01 X11.3249 Y7.1458
G01 X11.3359 Y7.1435
G01 X11.3669 Y7.1355
G01 X11.4007 Y7.1236
G01 X11.4110 Y7.1192
G01 X11.4366 Y7.1070
G01 X11.4464 Y7.1016
G01 X11.4675 Y7.0890
G01 X11.4800 Y7.0807
G01 X11.5056 Y7.0614
G01 X11.5349 Y7.0349
G01 X11.5614 Y7.0056
G01 X11.5850 Y6.9738
G01 X11.6053 Y6.9399
G01 X11.6222 Y6.9042
G01 X11.6355 Y6.8669
G01 X11.6435 Y6.8359
G01 X11.6458 Y6.8249
G01 X11.6509 Y6.7895
G01 X11.6529 Y6.7500
G01 X11.6529 Y4.2500
G01 X11.6509 Y4.2105
G01 X11.6464 Y4.1788
G01 X11.6435 Y4.1641
G01 X11.6355 Y4.1331
G01 X11.6249 Y4.1028
G01 X11.6192 Y4.0890
G01 X11.6053 Y4.0601
G01 X11.5850 Y4.0262
G01 X11.5660 Y4.0003
G01 X11.5565 Y3.9887
G01 X11.5375 Y3.9678
G01 X11.5294 Y3.9599
G01 X11.5056 Y3.9386
G01 X11.4800 Y3.9193
G01 X11.4675 Y3.9110
G01 X11.4399 Y3.8947
G01 X11.4042 Y3.8778
G01 X11.3669 Y3.8645
G01 X11.3286 Y3.8549
G01 X11.2895 Y3.8491
G01 X11.2538 Y3.8472
G01 X11.1029 Y3.8471
G00 Z2.0000
G00 X11.1970 Y3.7530
G01 F60.00
G01 Z-0.0499
G01 F120.00
G01 X11.1970 Y3.7470
G01 X11.2874 Y3.7470
G01 X11.3507 Y3.7534
G01 X11.4640 Y3.7910
G01 X11.5641 Y3.8527
G01 X11.6473 Y3.9359
G01 X11.7090 Y4.0360
G01 X11.7466 Y4.1493
G01 X11.7530 Y4.2126
G01 X11.7530 Y4.7612
G01 X11.7537 Y4.7789
G01 X11.7548 Y4.7906
G01 X11.7575 Y4.8080
G01 X11.7600 Y4.8195
G01 X11.7827 Y4.8979
G01 X11.7865 Y4.9095
G01 X11.7908 Y4.9210
G01 X11.7983 Y4.9378
G01 X11.8040 Y4.9486
G01 X11.8136 Y4.9644
G01 X11.8206 Y4.9744
G01 X11.8281 Y4.9841
G01 X11.8361 Y4.9934
G01 X11.8489 Y5.0067
G01 X11.8580 Y5.0149
G01 X11.9154 Y5.0646
G01 X11.9251 Y5.0722
G01 X11.9403 Y5.0826
G01 X11.9508 Y5.0889
G01 X11.9671 Y5.0974
G01 X11.9783 Y5.1023
G01 X11.9956 Y5.1087
G01 X12.0073 Y5.1122
G01 X12.0252 Y5.1164
G01 X12.0373 Y5.1185
G01 X12.1065 Y5.1284
G01 X12.1187 Y5.1299
G01 X12.1309 Y5.1307
G01 X12.1432 Y5.1309
G01 X12.1616 Y5.1301
G01 X12.1738 Y5.1288
G01 X12.1859 Y5.1269
G01 X12.1979 Y5.1244
G01 X12.2097 Y5.1214
G01 X12.2272 Y5.1156
G01 X12.2386 Y5.1111
G01 X12.3078 Y5.0796
G01 X12.3239 Y5.0715
G01 X12.3343 Y5.0655
G01 X12.3444 Y5.0590
G01 X12.3589 Y5.0483
G01 X12.3681 Y5.0406
G01 X12.3769 Y5.0324
G01 X12.3894 Y5.0195
G01 X12.4217 Y4.9815
G01 X12.4293 Y4.9716
G01 X12.4364 Y4.9613
G01 X12.4523 Y4.9356
G01 X12.5356 Y4.8523
G01 X12.6357 Y4.7905
G01 X12.7492 Y4.7529
G01 X12.8126 Y4.7465
G01 X13.3874 Y4.7465
G01 X13.4508 Y4.7529
G01 X13.5643 Y4.7905
G01 X13.6644 Y4.8523
G01 X13.7477 Y4.9356
G01 X13.7907 Y5.0047
G01 X13.7975 Y5.0143
G01 X13.8049 Y5.0235
G01 X13.8166 Y5.0366
G01 X13.8293 Y5.0489
G01 X13.8859 Y5.0996
G01 X13.9003 Y5.1111
G01 X13.9103 Y5.1181
G01 X13.9207 Y5.1246
G01 X13.9369 Y5.1333
G01 X13.9537 Y5.1409
G01 X13.9710 Y5.1471
G01 X13.9887 Y5.1521
G01 X14.0067 Y5.1557
G01 X14.0818 Y5.1679
G01 X14.1001 Y5.1697
G01 X14.1185 Y5.1701
G01 X14.1368 Y5.1692
G01 X14.1490 Y5.1678
G01 X14.1611 Y5.1659
G01 X14.1731 Y5.1633
G01 X14.1850 Y5.1601
G01 X14.2024 Y5.1543
G01 X14.2138 Y5.1497
G01 X14.2779 Y5.1219
G01 X14.2890 Y5.1167
G01 X14.2998 Y5.1110
G01 X14.3104 Y5.1047
G01 X14.3256 Y5.0944
G01 X14.3353 Y5.0869
G01 X14.3446 Y5.0789
G01 X14.3578 Y5.0661
G01 X14.3661 Y5.0571
G01 X14.3994 Y5.0182
G01 X14.4063 Y5.0091
G01 X14.4127 Y4.9997
G01 X14.4523 Y4.9356
G01 X14.5356 Y4.8523
G01 X14.6357 Y4.7905
G01 X14.7492 Y4.7529
G01 X14.8126 Y4.7465
G01 X15.3874 Y4.7465
G01 X15.4508 Y4.7529
G01 X15.5643 Y4.7905
G01 X15.6644 Y4.8523
G01 X15.7477 Y4.9356
G01 X15.7634 Y4.9609
G01 X15.7735 Y4.9754
G01 X15.7847 Y4.9890
G01 X15.7926 Y4.9977
G01 X15.8010 Y5.0060
G01 X15.8573 Y5.0567
G01 X15.8666 Y5.0646
G01 X15.8763 Y5.0721
G01 X15.8863 Y5.0792
G01 X15.9021 Y5.0887
G01 X15.9184 Y5.0971
G01 X15.9297 Y5.1020
G01 X15.9412 Y5.1063
G01 X15.9529 Y5.1100
G01 X15.9707 Y5.1145
G01 X15.9827 Y5.1168
G01 X16.0517 Y5.1280
G01 X16.0639 Y5.1297
G01 X16.0761 Y5.1308
G01 X16.0883 Y5.1312
G01 X16.1067 Y5.1308
G01 X16.1189 Y5.1297
G01 X16.1371 Y5.1270
G01 X16.1551 Y5.1229
G01 X16.1726 Y5.1175
G01 X16.1898 Y5.1108
G01 X16.2539 Y5.0829
G01 X16.2650 Y5.0778
G01 X16.2758 Y5.0721
G01 X16.2864 Y5.0658
G01 X16.2966 Y5.0591
G01 X16.3113 Y5.0480
G01 X16.3206 Y5.0400
G01 X16.3338 Y5.0272
G01 X16.3461 Y5.0135
G01 X16.3536 Y5.0038
G01 X16.3607 Y4.9938
G01 X16.3996 Y4.9357
G01 X16.4060 Y4.9256
G01 X16.4119 Y4.9151
G01 X16.4173 Y4.9044
G01 X16.4245 Y4.8879
G01 X16.4304 Y4.8709
G01 X16.4350 Y4.8535
G01 X16.4384 Y4.8358
G01 X16.4450 Y4.7925
G01 X16.4462 Y4.7800
G01 X16.4469 Y4.7675
G01 X16.4470 Y4.2126
G01 X16.4534 Y4.1493
G01 X16.4910 Y4.0360
G01 X16.5527 Y3.9359
G01 X16.6359 Y3.8527
G01 X16.7360 Y3.7910
G01 X16.8493 Y3.7534
G01 X16.9126 Y3.7470
G01 X17.0030 Y3.7470
G01 X17.0030 Y3.7530
G01 X16.9439 Y3.7531
G01 X16.9013 Y3.7554
G01 X16.8650 Y3.7605
G01 X16.8530 Y3.7626
G01 X16.8412 Y3.7652
G01 X16.8057 Y3.7744
G01 X16.7711 Y3.7865
G01 X16.7598 Y3.7909
G01 X16.7487 Y3.7958
G01 X16.7157 Y3.8117
G01 X16.6841 Y3.8303
G01 X16.6739 Y3.8368
G01 X16.6395 Y3.8621
G01 X16.6256 Y3.8738
G01 X16.6029 Y3.8944
G01 X16.5944 Y3.9029
G01 X16.5738 Y3.9256
G01 X16.5621 Y3.9395
G01 X16.5438 Y3.9640
G01 X16.5368 Y3.9739
G01 X16.5303 Y3.9841
G01 X16.5146 Y4.0104
G01 X16.5089 Y4.0211
G01 X16.4958 Y4.0487
G01 X16.4886 Y4.0654
G01 X16.4744 Y4.1057
G01 X16.4652 Y4.1412
G01 X16.4615 Y4.1590
G01 X16.4554 Y4.2013
G01 X16.4533 Y4.2379
G01 X16.4530 Y4.2500
G01 X16.4530 Y6.7500
G01 X16.4533 Y6.7621
G01 X16.4554 Y6.7987
G01 X16.4605 Y6.8350
G01 X16.4626 Y6.8470
G01 X16.4652 Y6.8588
G01 X16.4744 Y6.8943
G01 X16.4865 Y6.9289
G01 X16.4933 Y6.9457
G01 X16.5117 Y6.9843
G01 X16.5303 Y7.0159
G01 X16.5402 Y7.0311
G01 X16.5584 Y7.0557
G01 X16.5697 Y7.0699
G01 X16.5944 Y7.0971
G01 X16.6074 Y7.1098
G01 X16.6301 Y7.1303
G01 X16.6395 Y7.1379
G01 X16.6640 Y7.1562
G01 X16.6790 Y7.1665
G01 X16.7052 Y7.1823
G01 X16.7211 Y7.1911
G01 X16.7543 Y7.2067
G01 X16.7711 Y7.2135
G01 X16.8000 Y7.2237
G01 X16.8116 Y7.2272
G01 X16.8412 Y7.2348
G01 X16.8590 Y7.2385
G01 X16.8953 Y7.2439
G01 X16.9134 Y7.2455
G01 X16.9439 Y7.2469
G01 X17.0030 Y7.2470
G01 X17.0030 Y7.2530
G01 X16.9126 Y7.2530
G01 X16.8493 Y7.2466
G01 X16.7360 Y7.2090
G01 X16.6359 Y7.1473
G01 X16.5527 Y7.0641
G01 X16.5371 Y7.0389
G01 X16.5304 Y7.0292
G01 X16.5196 Y7.0153
G01 X16.5079 Y7.0022
G01 X16.4952 Y6.9899
G01 X16.4432 Y6.9432
G01 X16.4291 Y6.9314
G01 X16.4192 Y6.9241
G01 X16.4037 Y6.9142
G01 X16.3930 Y6.9082
G01 X16.3820 Y6.9028
G01 X16.3651 Y6.8957
G01 X16.3476 Y6.8898
G01 X16.3358 Y6.8867
G01 X16.3238 Y6.8841
G01 X16.2488 Y6.8718
G01 X16.2366 Y6.8702
G01 X16.2244 Y6.8691
G01 X16.2122 Y6.8686
G01 X16.1999 Y6.8688
G01 X16.1877 Y6.8696
G01 X16.1755 Y6.8709
G01 X16.1634 Y6.8729
G01 X16.1514 Y6.8755
G01 X16.1395 Y6.8786
G01 X16.1278 Y6.8824
G01 X16.1164 Y6.8867
G01 X16.0410 Y6.9194
G01 X16.0246 Y6.9278
G01 X16.0141 Y6.9340
G01 X16.0039 Y6.9408
G01 X15.9892 Y6.9519
G01 X15.9753 Y6.9640
G01 X15.9625 Y6.9771
G01 X15.9544 Y6.9864
G01 X15.9469 Y6.9961
G01 X15.9398 Y7.0061
G01 X15.8945 Y7.0743
G01 X15.8886 Y7.0847
G01 X15.8832 Y7.0954
G01 X15.8783 Y7.1064
G01 X15.8739 Y7.1176
G01 X15.8701 Y7.1290
G01 X15.8669 Y7.1406
G01 X15.8631 Y7.1582
G01 X15.8555 Y7.2074
G01 X15.8539 Y7.2261
G01 X15.8535 Y7.2386
G01 X15.8535 Y10.2874
G01 X15.8456 Y10.3652
G01 X15.8428 Y10.3857
G01 X15.8419 Y10.3975
G01 X15.8401 Y10.4684
G01 X15.8401 Y10.4806
G01 X15.8413 Y10.4988
G01 X15.8437 Y10.5169
G01 X15.8475 Y10.5348
G01 X15.8508 Y10.5465
G01 X15.8546 Y10.5581
G01 X15.8615 Y10.5751
G01 X15.8695 Y10.5914
G01 X15.9049 Y10.6536
G01 X15.9111 Y10.6639
G01 X15.9178 Y10.6739
G01 X15.9249 Y10.6835
G01 X15.9326 Y10.6927
G01 X15.9406 Y10.7016
G01 X18.5882 Y13.3493
G01 X18.6570 Y13.4523
G01 X18.7044 Y13.5667
G01 X18.7285 Y13.6881
G01 X18.7285 Y21.7119
G01 X18.7044 Y21.8333
G01 X18.6570 Y21.9477
G01 X18.5882 Y22.0507
G01 X15.7792 Y24.8597
G01 X15.7672 Y24.8726
G01 X15.7597 Y24.8817
G01 X15.7493 Y24.8959
G01 X15.7399 Y24.9108
G01 X15.7036 Y24.9773
G01 X15.6980 Y24.9882
G01 X15.6929 Y24.9995
G01 X15.6884 Y25.0109
G01 X15.6844 Y25.0226
G01 X15.6796 Y25.0404
G01 X15.6772 Y25.0525
G01 X15.6753 Y25.0647
G01 X15.6741 Y25.0769
G01 X15.6735 Y25.0892
G01 X15.6734 Y25.1015
G01 X15.6750 Y25.1658
G01 X15.6759 Y25.1776
G01 X15.6773 Y25.1892
G01 X15.6792 Y25.2008
G01 X15.6817 Y25.2123
G01 X15.7130 Y25.3292
G01 X15.7410 Y25.5424
G01 X15.7410 Y25.7576
G01 X15.7130 Y25.9708
G01 X15.6573 Y26.1786
G01 X15.5750 Y26.3774
G01 X15.4674 Y26.5637
G01 X15.3364 Y26.7343
G01 X15.1843 Y26.8864
G01 X15.0137 Y27.0174
G01 X14.8274 Y27.1250
G01 X14.6286 Y27.2073
G01 X14.4208 Y27.2630
G01 X14.2076 Y27.2910
G01 X13.9924 Y27.2910
G01 X13.7792 Y27.2630
G01 X13.5714 Y27.2073
G01 X13.3726 Y27.1250
G01 X13.1863 Y27.0174
G01 X13.0157 Y26.8864
G01 X12.8636 Y26.7343
G01 X12.7326 Y26.5637
G01 X12.6250 Y26.3774
G01 X12.5427 Y26.1786
G01 X12.4870 Y25.9708
G01 X12.4590 Y25.7576
G01 X12.4590 Y25.5424
G01 X12.4870 Y25.3292
G01 X12.5427 Y25.1214
G01 X12.6250 Y24.9226
G01 X12.7326 Y24.7363
G01 X12.8636 Y24.5657
G01 X13.0157 Y24.4136
G01 X13.1863 Y24.2826
G01 X13.3726 Y24.1750
G01 X13.5714 Y24.0927
G01 X13.7792 Y24.0370
G01 X13.9924 Y24.0090
G01 X14.2076 Y24.0090
G01 X14.4208 Y24.0370
G01 X14.5320 Y24.0668
G01 X14.5434 Y24.0696
G01 X14.5549 Y24.0718
G01 X14.5724 Y24.0741
G01 X14.5842 Y24.0750
G01 X14.6018 Y24.0752
G01 X14.6716 Y24.0735
G01 X14.6901 Y24.0724
G01 X14.7023 Y24.0709
G01 X14.7144 Y24.0687
G01 X14.7264 Y24.0660
G01 X14.7383 Y24.0627
G01 X14.7500 Y24.0588
G01 X14.7614 Y24.0543
G01 X14.7727 Y24.0492
G01 X14.7836 Y24.0436
G01 X14.7943 Y24.0375
G01 X14.8492 Y24.0039
G01 X14.8589 Y23.9973
G01 X14.8683 Y23.9903
G01 X14.8818 Y23.9789
G01 X14.8903 Y23.9708
G01 X17.3628 Y21.4983
G01 X17.3709 Y21.4898
G01 X17.3823 Y21.4763
G01 X17.3927 Y21.4621
G01 X17.3991 Y21.4522
G01 X17.4384 Y21.3807
G01 X17.4465 Y21.3644
G01 X17.4534 Y21.3476
G01 X17.4573 Y21.3361
G01 X17.4607 Y21.3245
G01 X17.4646 Y21.3067
G01 X17.4665 Y21.2948
G01 X17.4700 Y21.2624
G01 X17.4711 Y21.2492
G01 X17.4715 Y21.2360
G01 X17.4715 Y14.1640
G01 X17.4708 Y14.1464
G01 X17.4689 Y14.1289
G01 X17.4658 Y14.1115
G01 X17.4630 Y14.1001
G01 X17.4418 Y14.0274
G01 X17.4360 Y14.0101
G01 X17.4290 Y13.9934
G01 X17.4236 Y13.9825
G01 X17.4178 Y13.9719
G01 X17.4080 Y13.9566
G01 X17.4009 Y13.9468
G01 X17.3805 Y13.9214
G01 X17.3674 Y13.9064
G01 X14.6118 Y11.1507
G01 X14.5430 Y11.0477
G01 X14.4956 Y10.9333
G01 X14.4715 Y10.8119
G01 X14.4715 Y10.7007
G01 X14.4711 Y10.6883
G01 X14.4695 Y10.6697
G01 X14.4665 Y10.6513
G01 X14.4649 Y10.6351
G01 X14.4629 Y10.6229
G01 X14.4603 Y10.6107
G01 X14.4553 Y10.5927
G01 X14.4512 Y10.5809
G01 X14.4466 Y10.5694
G01 X14.4275 Y10.5264
G01 X14.4192 Y10.5108
G01 X14.4125 Y10.5000
G01 X14.4024 Y10.4856
G01 X14.3912 Y10.4719
G01 X14.3833 Y10.4633
G01 X14.3749 Y10.4550
G01 X14.3186 Y10.4043
G01 X14.3093 Y10.3964
G01 X14.2996 Y10.3889
G01 X14.2844 Y10.3786
G01 X14.2684 Y10.3694
G01 X14.2518 Y10.3615
G01 X14.2405 Y10.3569
G01 X14.2230 Y10.3510
G01 X14.2052 Y10.3465
G01 X14.1931 Y10.3442
G01 X14.1242 Y10.3330
G01 X14.1120 Y10.3314
G01 X14.0937 Y10.3300
G01 X14.0814 Y10.3299
G01 X14.0692 Y10.3303
G01 X14.0508 Y10.3322
G01 X14.0327 Y10.3354
G01 X14.0208 Y10.3382
G01 X14.0090 Y10.3417
G01 X13.9917 Y10.3480
G01 X13.9220 Y10.3782
G01 X13.9055 Y10.3862
G01 X13.8948 Y10.3921
G01 X13.8844 Y10.3986
G01 X13.8743 Y10.4056
G01 X13.8646 Y10.4131
G01 X13.8508 Y10.4253
G01 X13.8421 Y10.4339
G01 X13.8339 Y10.4430
G01 X13.8042 Y10.4773
G01 X13.7971 Y10.4862
G01 X13.7874 Y10.5002
G01 X13.7806 Y10.5111
G01 X13.7747 Y10.5220
G01 X13.7692 Y10.5332
G01 X13.7632 Y10.5476
G01 X13.7557 Y10.5631
G01 X13.7489 Y10.5802
G01 X13.7434 Y10.5977
G01 X13.7393 Y10.6156
G01 X13.7372 Y10.6277
G01 X13.7356 Y10.6421
G01 X13.7313 Y10.6636
G01 X13.7292 Y10.6821
G01 X13.7285 Y10.7007
G01 X13.7285 Y11.8119
G01 X13.7044 Y11.9333
G01 X13.6570 Y12.0477
G01 X13.5882 Y12.1507
G01 X11.3372 Y14.4017
G01 X11.3291 Y14.4102
G01 X11.3214 Y14.4191
G01 X11.3141 Y14.4283
G01 X11.3041 Y14.4428
G01 X11.2951 Y14.4580
G01 X11.2616 Y14.5193
G01 X11.2560 Y14.5301
G01 X11.2487 Y14.5467
G01 X11.2445 Y14.5581
G01 X11.2409 Y14.5697
G01 X11.2366 Y14.5873
G01 X11.2335 Y14.6052
G01 X11.2300 Y14.6376
G01 X11.2289 Y14.6508
G01 X11.2285 Y14.6640
G01 X11.2286 Y17.3419
G01 X11.2292 Y17.3536
G01 X11.2303 Y17.3653
G01 X11.2320 Y17.3769
G01 X11.2342 Y17.3885
G01 X11.2385 Y17.4056
G01 X11.2600 Y17.4784
G01 X11.2662 Y17.4955
G01 X11.2710 Y17.5066
G01 X11.2764 Y17.5175
G01 X11.2854 Y17.5333
G01 X11.2920 Y17.5434
G01 X11.2991 Y17.5532
G01 X11.3237 Y17.5837
G01 X11.3372 Y17.5983
G01 X12.5978 Y18.8589
G01 X12.6070 Y18.8676
G01 X12.6166 Y18.8758
G01 X12.6266 Y18.8836
G01 X12.6369 Y18.8908
G01 X12.6477 Y18.8974
G01 X12.7018 Y18.9291
G01 X12.7129 Y18.9352
G01 X12.7242 Y18.9407
G01 X12.7359 Y18.9457
G01 X12.7537 Y18.9520
G01 X13.9805 Y19.2966
G01 X13.9970 Y19.3002
G01 X14.0082 Y19.3020
G01 X14.0473 Y19.3074
G01 X14.0641 Y19.3087
G01 X14.2076 Y19.3090
G01 X14.4208 Y19.3370
G01 X14.6286 Y19.3927
G01 X14.8274 Y19.4750
G01 X15.0137 Y19.5826
G01 X15.1843 Y19.7136
G01 X15.3364 Y19.8657
G01 X15.4674 Y20.0363
G01 X15.5750 Y20.2226
G01 X15.6573 Y20.4214
G01 X15.7130 Y20.6292
G01 X15.7410 Y20.8424
G01 X15.7410 Y21.0576
G01 X15.7130 Y21.2708
G01 X15.6573 Y21.4786
G01 X15.5750 Y21.6774
G01 X15.4674 Y21.8637
G01 X15.4285 Y21.9144
G01 X15.3364 Y22.0343
G01 X15.1843 Y22.1864
G01 X15.0137 Y22.3174
G01 X14.8274 Y22.4250
G01 X14.6286 Y22.5073
G01 X14.4208 Y22.5630
G01 X14.2076 Y22.5910
G01 X13.9924 Y22.5910
G01 X13.7792 Y22.5630
G01 X13.5714 Y22.5073
G01 X13.3726 Y22.4250
G01 X13.1863 Y22.3174
G01 X13.0157 Y22.1864
G01 X12.8636 Y22.0343
G01 X12.7326 Y21.8637
G01 X12.6250 Y21.6774
G01 X12.5427 Y21.4786
G01 X12.4870 Y21.2708
G01 X12.4831 Y21.2417
G01 X12.4810 Y21.2300
G01 X12.4783 Y21.2184
G01 X12.4610 Y21.1616
G01 X12.4548 Y21.1449
G01 X12.4499 Y21.1341
G01 X11.8184 Y19.8835
G01 X11.8088 Y19.8664
G01 X11.8017 Y19.8554
G01 X11.7750 Y19.8183
G01 X11.7629 Y19.8028
G01 X11.7496 Y19.7884
G01 X10.1118 Y18.1507
G01 X10.0430 Y18.0477
G01 X9.9956 Y17.9333
G01 X9.9715 Y17.8119
G01 X9.9715 Y14.1881
G01 X9.9956 Y14.0667
G01 X10.0430 Y13.9523
G01 X10.1118 Y13.8493
G01 X12.3628 Y11.5983
G01 X12.3709 Y11.5898
G01 X12.3786 Y11.5809
G01 X12.3859 Y11.5717
G01 X12.3927 Y11.5621
G01 X12.3991 Y11.5522
G01 X12.4384 Y11.4807
G01 X12.4440 Y11.4699
G01 X12.4490 Y11.4589
G01 X12.4534 Y11.4476
G01 X12.4573 Y11.4361
G01 X12.4607 Y11.4245
G01 X12.4634 Y11.4127
G01 X12.4665 Y11.3948
G01 X12.4707 Y11.3558
G01 X12.4715 Y11.3360
G01 X12.4715 Y10.7007
G01 X12.4708 Y10.6821
G01 X12.4695 Y10.6697
G01 X12.4677 Y10.6575
G01 X12.4637 Y10.6393
G01 X12.4436 Y10.5682
G01 X12.4379 Y10.5505
G01 X12.4308 Y10.5333
G01 X12.4225 Y10.5166
G01 X12.3905 Y10.4643
G01 X12.3529 Y10.3508
G01 X12.3465 Y10.2874
G01 X12.3465 Y7.2386
G01 X12.3462 Y7.2269
G01 X12.3453 Y7.2151
G01 X12.3430 Y7.1977
G01 X12.3408 Y7.1861
G01 X12.3365 Y7.1690
G01 X12.3150 Y7.0961
G01 X12.3109 Y7.0846
G01 X12.3063 Y7.0732
G01 X12.2984 Y7.0566
G01 X12.2924 Y7.0459
G01 X12.2859 Y7.0355
G01 X12.2789 Y7.0254
G01 X12.2714 Y7.0157
G01 X12.2634 Y7.0064
G01 X12.2550 Y6.9975
G01 X12.2461 Y6.9890
G01 X12.1841 Y6.9352
G01 X12.1744 Y6.9277
G01 X12.1644 Y6.9206
G01 X12.1487 Y6.9109
G01 X12.1324 Y6.9025
G01 X12.1212 Y6.8975
G01 X12.1097 Y6.8931
G01 X12.0922 Y6.8876
G01 X12.0803 Y6.8847
G01 X12.0682 Y6.8823
G01 X11.9930 Y6.8714
G01 X11.9747 Y6.8695
G01 X11.9625 Y6.8690
G01 X11.9502 Y6.8690
G01 X11.9379 Y6.8697
G01 X11.9257 Y6.8710
G01 X11.9136 Y6.8729
G01 X11.8957 Y6.8769
G01 X11.8780 Y6.8822
G01 X11.8609 Y6.8888
G01 X11.7917 Y6.9203
G01 X11.7809 Y6.9255
G01 X11.7652 Y6.9344
G01 X11.7502 Y6.9443
G01 X11.7406 Y6.9516
G01 X11.7314 Y6.9593
G01 X11.7226 Y6.9674
G01 X11.7142 Y6.9760
G01 X11.6818 Y7.0135
G01 X11.6740 Y7.0233
G01 X11.6631 Y7.0386
G01 X11.6473 Y7.0641
G01 X11.5641 Y7.1473
G01 X11.4640 Y7.2090
G01 X11.3507 Y7.2466
G01 X11.2874 Y7.2530
G01 X11.1970 Y7.2530
G01 X11.1970 Y7.2470
G01 X11.2561 Y7.2469
G01 X11.2987 Y7.2446
G01 X11.3350 Y7.2395
G01 X11.3470 Y7.2374
G01 X11.3588 Y7.2348
G01 X11.3943 Y7.2256
G01 X11.4289 Y7.2135
G01 X11.4402 Y7.2091
G01 X11.4513 Y7.2042
G01 X11.4843 Y7.1883
G01 X11.5159 Y7.1697
G01 X11.5261 Y7.1632
G01 X11.5605 Y7.1379
G01 X11.5744 Y7.1262
G01 X11.5971 Y7.1056
G01 X11.6056 Y7.0971
G01 X11.6262 Y7.0744
G01 X11.6379 Y7.0605
G01 X11.6562 Y7.0360
G01 X11.6632 Y7.0261
G01 X11.6697 Y7.0159
G01 X11.6854 Y6.9896
G01 X11.6911 Y6.9789
G01 X11.7042 Y6.9513
G01 X11.7114 Y6.9346
G01 X11.7256 Y6.8943
G01 X11.7348 Y6.8588
G01 X11.7385 Y6.8410
G01 X11.7446 Y6.7987
G01 X11.7467 Y6.7621
G01 X11.7470 Y6.7500
G01 X11.7470 Y4.2500
G01 X11.7467 Y4.2379
G01 X11.7446 Y4.2013
G01 X11.7395 Y4.1650
G01 X11.7362 Y4.1471
G01 X11.7288 Y4.1174
G01 X11.7237 Y4.1000
G01 X11.7114 Y4.0654
G01 X11.7042 Y4.0487
G01 X11.6911 Y4.0211
G01 X11.6854 Y4.0104
G01 X11.6665 Y3.9790
G01 X11.6562 Y3.9640
G01 X11.6342 Y3.9347
G01 X11.6098 Y3.9074
G01 X11.5971 Y3.8944
G01 X11.5744 Y3.8738
G01 X11.5605 Y3.8621
G01 X11.5311 Y3.8402
G01 X11.5159 Y3.8303
G01 X11.4896 Y3.8146
G01 X11.4734 Y3.8063
G01 X11.4402 Y3.7909
G01 X11.4000 Y3.7763
G01 X11.3826 Y3.7712
G01 X11.3470 Y3.7626
G01 X11.3047 Y3.7561
G01 X11.2866 Y3.7545
G01 X11.2561 Y3.7531
G01 X11.1970 Y3.7530
G00 Z2.0000
G00 X12.2609 Y5.2035
G01 F60.00
G01 Z-0.0499
G01 F120.00
G01 X12.2594 Y5.2333
G01 X12.2590 Y5.2500
G01 X12.2590 Y6.8756
G01 X12.2439 Y6.8626
G01 X12.2237 Y6.8472
G01 X12.2024 Y6.8333
G01 X12.1801 Y6.8211
G01 X12.1570 Y6.8105
G01 X12.1332 Y6.8017
G01 X12.1088 Y6.7947
G01 X12.0922 Y6.7911
G01 X12.0755 Y6.7883
G01 X11.9980 Y6.7772
G01 X11.9727 Y6.7752
G01 X11.9473 Y6.7750
G01 X11.9219 Y6.7767
G01 X11.9051 Y6.7789
G01 X11.8885 Y6.7820
G01 X11.8638 Y6.7881
G01 X11.8391 Y6.7962
G01 X11.8406 Y6.7667
G01 X11.8410 Y6.7500
G01 X11.8410 Y5.1247
G01 X11.8622 Y5.1425
G01 X11.8758 Y5.1526
G01 X11.8971 Y5.1665
G01 X11.9194 Y5.1788
G01 X11.9425 Y5.1893
G01 X11.9583 Y5.1954
G01 X11.9825 Y5.2030
G01 X12.0072 Y5.2088
G01 X12.0239 Y5.2116
G01 X12.1015 Y5.2226
G01 X12.1268 Y5.2247
G01 X12.1522 Y5.2249
G01 X12.1776 Y5.2231
G01 X12.1944 Y5.2209
G01 X12.2110 Y5.2179
G01 X12.2357 Y5.2118
G01 X12.2609 Y5.2035
G00 Z2.0000
G00 X12.1649 Y5.3185
G01 F60.00
G01 Z-0.0499
G01 F120.00
G01 X12.1649 Y6.7132
G01 X12.1418 Y6.7061
G01 X12.1208 Y6.7009
G01 X12.1102 Y6.6987
G01 X12.0889 Y6.6951
G01 X12.0198 Y6.6852
G01 X11.9983 Y6.6827
G01 X11.9768 Y6.6812
G01 X11.9552 Y6.6808
G01 X11.9351 Y6.6814
G01 X11.9351 Y5.2869
G01 X11.9577 Y5.2937
G01 X11.9787 Y5.2989
G01 X11.9893 Y5.3011
G01 X12.0106 Y5.3047
G01 X12.0797 Y5.3147
G01 X12.1012 Y5.3172
G01 X12.1227 Y5.3187
G01 X12.1443 Y5.3191
G01 X12.1649 Y5.3185
G00 Z2.0000
G00 X9.6470 Y6.7874
G01 F60.00
G01 Z-0.0499
G01 F120.00
G01 X9.6470 Y5.9970
G01 X9.6530 Y5.9970
G01 X9.6530 Y6.7500
G01 X9.6533 Y6.7621
G01 X9.6549 Y6.7927
G01 X9.6561 Y6.8047
G01 X9.6605 Y6.8350
G01 X9.6638 Y6.8529
G01 X9.6744 Y6.8943
G01 X9.6865 Y6.9289
G01 X9.6933 Y6.9457
G01 X9.7117 Y6.9843
G01 X9.7303 Y7.0159
G01 X9.7368 Y7.0261
G01 X9.7438 Y7.0360
G01 X9.7621 Y7.0605
G01 X9.7697 Y7.0699
G01 X9.7986 Y7.1014
G01 X9.8301 Y7.1303
G01 X9.8395 Y7.1379
G01 X9.8640 Y7.1562
G01 X9.8739 Y7.1632
G01 X9.8841 Y7.1697
G01 X9.9157 Y7.1883
G01 X9.9543 Y7.2067
G01 X9.9654 Y7.2114
G01 X9.9942 Y7.2218
G01 X10.0057 Y7.2256
G01 X10.0174 Y7.2288
G01 X10.0530 Y7.2374
G01 X10.0650 Y7.2395
G01 X10.1013 Y7.2446
G01 X10.1439 Y7.2469
G01 X10.2030 Y7.2470
G01 X10.2030 Y7.2530
G01 X10.1126 Y7.2530
G01 X10.0493 Y7.2466
G01 X9.9360 Y7.2090
G01 X9.8359 Y7.1473
G01 X9.7527 Y7.0641
G01 X9.6910 Y6.9640
G01 X9.6534 Y6.8507
G01 X9.6470 Y6.7874
G00 Z2.0000
G00 X9.5529 Y6.7922
G01 F60.00
G01 Z-0.0499
G01 F120.00
G01 X9.5529 Y5.9029
G01 X9.7471 Y5.9029
G01 X9.7472 Y6.7538
G01 X9.7491 Y6.7895
G01 X9.7549 Y6.8286
G01 X9.7645 Y6.8669
G01 X9.7764 Y6.9007
G01 X9.7808 Y6.9110
G01 X9.7947 Y6.9399
G01 X9.8130 Y6.9707
G01 X9.8193 Y6.9800
G01 X9.8362 Y7.0027
G01 X9.8435 Y7.0113
G01 X9.8599 Y7.0294
G01 X9.8678 Y7.0375
G01 X9.8915 Y7.0590
G01 X9.9003 Y7.0660
G01 X9.9200 Y7.0807
G01 X9.9325 Y7.0890
G01 X9.9568 Y7.1035
G01 X9.9668 Y7.1087
G01 X9.9958 Y7.1222
G01 X10.0331 Y7.1355
G01 X10.0714 Y7.1451
G01 X10.1068 Y7.1505
G01 X10.1180 Y7.1515
G01 X10.1462 Y7.1528
G01 X10.2971 Y7.1529
G01 X10.2971 Y7.3471
G01 X10.1078 Y7.3471
G01 X10.0295 Y7.3391
G01 X9.8959 Y7.2949
G01 X9.7771 Y7.2216
G01 X9.6784 Y7.1229
G01 X9.6051 Y7.0041
G01 X9.5609 Y6.8705
G01 X9.5529 Y6.7922
G00 Z2.0000
G00 X9.4588 Y6.7970
G01 F60.00
G01 Z-0.0499
G01 F120.00
G01 X9.4588 Y5.8088
G01 X9.8412 Y5.8088
G01 X9.8412 Y6.7514
G01 X9.8427 Y6.7803
G01 X9.8466 Y6.8074
G01 X9.8478 Y6.8131
G01 X9.8549 Y6.8410
G01 X9.8647 Y6.8682
G01 X9.8791 Y6.8981
G01 X9.8932 Y6.9216
G01 X9.9095 Y6.9436
G01 X9.9297 Y6.9663
G01 X9.9541 Y6.9887
G01 X9.9784 Y7.0068
G01 X10.0044 Y7.0223
G01 X10.0318 Y7.0353
G01 X10.0604 Y7.0455
G01 X10.0869 Y7.0522
G01 X10.0926 Y7.0534
G01 X10.1212 Y7.0574
G01 X10.1500 Y7.0588
G01 X10.3912 Y7.0588
G01 X10.3912 Y7.4412
G01 X10.1030 Y7.4412
G01 X10.0097 Y7.4317
G01 X9.8559 Y7.3807
G01 X9.7184 Y7.2959
G01 X9.6041 Y7.1816
G01 X9.5193 Y7.0441
G01 X9.4683 Y6.8903
G01 X9.4588 Y6.7970
G00 Z2.0000
G00 X13.9406 Y10.2675
G01 F60.00
G01 Z-0.0499
G01 F120.00
G01 X13.9410 Y10.2500
G01 X13.9410 Y5.2500
G01 X13.9407 Y5.2362
G01 X13.9585 Y5.2415
G01 X13.9833 Y5.2471
G01 X14.0606 Y5.2598
G01 X14.0858 Y5.2629
G01 X14.1027 Y5.2640
G01 X14.1196 Y5.2642
G01 X14.1366 Y5.2636
G01 X14.1534 Y5.2621
G01 X14.1702 Y5.2598
G01 X14.1869 Y5.2567
G01 X14.2033 Y5.2527
G01 X14.2196 Y5.2479
G01 X14.2356 Y5.2423
G01 X14.2594 Y5.2324
G01 X14.2590 Y5.2500
G01 X14.2590 Y10.2500
G01 X14.2593 Y10.2638
G01 X14.2413 Y10.2585
G01 X14.2166 Y10.2528
G01 X14.1392 Y10.2402
G01 X14.1225 Y10.2379
G01 X14.1056 Y10.2364
G01 X14.0802 Y10.2358
G01 X14.0633 Y10.2364
G01 X14.0464 Y10.2379
G01 X14.0296 Y10.2402
G01 X14.0130 Y10.2434
G01 X13.9965 Y10.2473
G01 X13.9803 Y10.2521
G01 X13.9643 Y10.2577
G01 X13.9406 Y10.2675
G00 Z2.0000
G00 X14.0351 Y10.1445
G01 F60.00
G01 Z-0.0499
G01 F120.00
G01 X14.0351 Y5.3510
G01 X14.0669 Y5.3556
G01 X14.0776 Y5.3567
G01 X14.0992 Y5.3580
G01 X14.1100 Y5.3583
G01 X14.1316 Y5.3580
G01 X14.1532 Y5.3567
G01 X14.1649 Y5.3555
G01 X14.1649 Y10.1490
G01 X14.1329 Y10.1444
G01 X14.1114 Y10.1425
G01 X14.1006 Y10.1420
G01 X14.0790 Y10.1417
G01 X14.0682 Y10.1420
G01 X14.0466 Y10.1434
G01 X14.0351 Y10.1445
G00 Z2.0000
G00 X13.4858 Y14.7356
G01 F60.00
G01 Z-0.0499
G01 F120.00
G01 X13.6140 Y14.6897
G01 X13.6255 Y14.6859
G01 X13.6372 Y14.6827
G01 X13.7693 Y14.6496
G01 X13.7811 Y14.6469
G01 X13.7931 Y14.6449
G01 X13.9278 Y14.6249
G01 X13.9398 Y14.6234
G01 X13.9519 Y14.6225
G01 X14.0879 Y14.6158
G01 X14.1000 Y14.6155
G01 X14.1121 Y14.6158
G01 X14.2481 Y14.6225
G01 X14.2602 Y14.6234
G01 X14.2722 Y14.6249
G01 X14.4069 Y14.6449
G01 X14.4189 Y14.6469
G01 X14.4307 Y14.6496
G01 X14.5628 Y14.6827
G01 X14.5745 Y14.6859
G01 X14.5860 Y14.6897
G01 X14.7142 Y14.7356
G01 X14.7255 Y14.7400
G01 X14.7366 Y14.7449
G01 X14.8597 Y14.8031
G01 X14.8705 Y14.8085
G01 X14.8810 Y14.8145
G01 X14.9978 Y14.8845
G01 X15.0081 Y14.8910
G01 X15.0180 Y14.8980
G01 X15.1273 Y14.9791
G01 X15.1369 Y14.9865
G01 X15.1461 Y14.9945
G01 X15.2470 Y15.0859
G01 X15.2557 Y15.0943
G01 X15.2641 Y15.1030
G01 X15.3555 Y15.2039
G01 X15.3635 Y15.2131
G01 X15.3709 Y15.2227
G01 X15.4520 Y15.3320
G01 X15.4590 Y15.3419
G01 X15.4655 Y15.3522
G01 X15.5355 Y15.4690
G01 X15.5415 Y15.4795
G01 X15.5469 Y15.4903
G01 X15.6051 Y15.6134
G01 X15.6100 Y15.6245
G01 X15.6144 Y15.6358
G01 X15.6603 Y15.7640
G01 X15.6641 Y15.7755
G01 X15.6673 Y15.7872
G01 X15.7004 Y15.9193
G01 X15.7031 Y15.9311
G01 X15.7051 Y15.9431
G01 X15.7251 Y16.0778
G01 X15.7266 Y16.0898
G01 X15.7275 Y16.1019
G01 X15.7342 Y16.2379
G01 X15.7345 Y16.2500
G01 X15.7342 Y16.2621
G01 X15.7275 Y16.3981
G01 X15.7266 Y16.4102
G01 X15.7251 Y16.4222
G01 X15.7051 Y16.5569
G01 X15.7031 Y16.5689
G01 X15.7004 Y16.5807
G01 X15.6673 Y16.7128
G01 X15.6641 Y16.7245
G01 X15.6603 Y16.7360
G01 X15.6144 Y16.8642
G01 X15.6100 Y16.8755
G01 X15.6051 Y16.8866
G01 X15.5469 Y17.0097
G01 X15.5415 Y17.0205
G01 X15.5355 Y17.0310
G01 X15.4655 Y17.1478
G01 X15.4590 Y17.1581
G01 X15.4520 Y17.1680
G01 X15.3709 Y17.2773
G01 X15.3635 Y17.2869
G01 X15.3555 Y17.2961
G01 X15.2641 Y17.3970
G01 X15.2557 Y17.4057
G01 X15.2470 Y17.4141
G01 X15.1461 Y17.5055
G01 X15.1369 Y17.5135
G01 X15.1273 Y17.5209
G01 X15.0180 Y17.6020
G01 X15.0081 Y17.6090
G01 X14.9978 Y17.6155
G01 X14.8810 Y17.6855
G01 X14.8705 Y17.6915
G01 X14.8597 Y17.6969
G01 X14.7366 Y17.7551
G01 X14.7255 Y17.7600
G01 X14.7142 Y17.7644
G01 X14.5860 Y17.8103
G01 X14.5745 Y17.8141
G01 X14.5628 Y17.8173
G01 X14.4307 Y17.8504
G01 X14.4189 Y17.8531
G01 X14.4069 Y17.8551
G01 X14.2722 Y17.8751
G01 X14.2602 Y17.8766
G01 X14.2481 Y17.8775
G01 X14.1121 Y17.8842
G01 X14.1000 Y17.8845
G01 X14.0879 Y17.8842
G01 X13.9519 Y17.8775
G01 X13.9398 Y17.8766
G01 X13.9278 Y17.8751
G01 X13.7931 Y17.8551
G01 X13.7811 Y17.8531
G01 X13.7693 Y17.8504
G01 X13.6372 Y17.8173
G01 X13.6255 Y17.8141
G01 X13.6140 Y17.8103
G01 X13.4858 Y17.7644
G01 X13.4745 Y17.7600
G01 X13.4634 Y17.7551
G01 X13.3403 Y17.6969
G01 X13.3295 Y17.6915
G01 X13.3190 Y17.6855
G01 X13.2022 Y17.6155
G01 X13.1919 Y17.6090
G01 X13.1820 Y17.6020
G01 X13.0727 Y17.5209
G01 X13.0631 Y17.5135
G01 X13.0539 Y17.5055
G01 X12.9530 Y17.4141
G01 X12.9443 Y17.4057
G01 X12.9359 Y17.3970
G01 X12.8445 Y17.2961
G01 X12.8365 Y17.2869
G01 X12.8291 Y17.2773
G01 X12.7480 Y17.1680
G01 X12.7410 Y17.1581
G01 X12.7345 Y17.1478
G01 X12.6645 Y17.0310
G01 X12.6585 Y17.0205
G01 X12.6531 Y17.0097
G01 X12.5949 Y16.8866
G01 X12.5900 Y16.8755
G01 X12.5856 Y16.8642
G01 X12.5397 Y16.7360
G01 X12.5359 Y16.7245
G01 X12.5327 Y16.7128
G01 X12.4996 Y16.5807
G01 X12.4969 Y16.5689
G01 X12.4949 Y16.5569
G01 X12.4749 Y16.4222
G01 X12.4734 Y16.4102
G01 X12.4725 Y16.3981
G01 X12.4658 Y16.2621
G01 X12.4655 Y16.2500
G01 X12.4658 Y16.2379
G01 X12.4725 Y16.1019
G01 X12.4734 Y16.0898
G01 X12.4749 Y16.0778
G01 X12.4949 Y15.9431
G01 X12.4969 Y15.9311
G01 X12.4996 Y15.9193
G01 X12.5327 Y15.7872
G01 X12.5359 Y15.7755
G01 X12.5397 Y15.7640
G01 X12.5856 Y15.6358
G01 X12.5900 Y15.6245
G01 X12.5949 Y15.6134
G01 X12.6531 Y15.4903
G01 X12.6585 Y15.4795
G01 X12.6645 Y15.4690
G01 X12.7345 Y15.3522
G01 X12.7410 Y15.3419
G01 X12.7480 Y15.3320
G01 X12.8291 Y15.2227
G01 X12.8365 Y15.2131
G01 X12.8445 Y15.2039
G01 X12.9359 Y15.1030
G01 X12.9443 Y15.0943
G01 X12.9530 Y15.0859
G01 X13.0539 Y14.9945
G01 X13.0631 Y14.9865
G01 X13.0727 Y14.9791
G01 X13.1820 Y14.8980
G01 X13.1919 Y14.8910
G01 X13.2022 Y14.8845
G01 X13.3190 Y14.8145
G01 X13.3295 Y14.8085
G01 X13.3403 Y14.8031
G01 X13.4634 Y14.7449
G01 X13.4745 Y14.7400
G01 X13.4858 Y14.7356
G00 Z2.0000
G00 X13.5175 Y14.8242
G01 F60.00
G01 Z-0.0499
G01 F120.00
G01 X13.6529 Y14.7759
G01 X13.7995 Y14.7392
G01 X13.9490 Y14.7170
G01 X14.1000 Y14.7096
G01 X14.2510 Y14.7170
G01 X14.4005 Y14.7392
G01 X14.5471 Y14.7759
G01 X14.6895 Y14.8269
G01 X14.8261 Y14.8915
G01 X14.9558 Y14.9692
G01 X15.0772 Y15.0593
G01 X15.1892 Y15.1608
G01 X15.2907 Y15.2728
G01 X15.3808 Y15.3942
G01 X15.4585 Y15.5239
G01 X15.5231 Y15.6605
G01 X15.5741 Y15.8029
G01 X15.6108 Y15.9495
G01 X15.6330 Y16.0990
G01 X15.6404 Y16.2500
G01 X15.6330 Y16.4010
G01 X15.6108 Y16.5505
G01 X15.5741 Y16.6971
G01 X15.5231 Y16.8395
G01 X15.4585 Y16.9761
G01 X15.3808 Y17.1058
G01 X15.2907 Y17.2272
G01 X15.1892 Y17.3392
G01 X15.0772 Y17.4407
G01 X14.9558 Y17.5308
G01 X14.8261 Y17.6085
G01 X14.6895 Y17.6731
G01 X14.5471 Y17.7241
G01 X14.4005 Y17.7608
G01 X14.2510 Y17.7830
G01 X14.1000 Y17.7904
G01 X13.9490 Y17.7830
G01 X13.7995 Y17.7608
G01 X13.6529 Y17.7241
G01 X13.5105 Y17.6731
G01 X13.3739 Y17.6085
G01 X13.2442 Y17.5308
G01 X13.1228 Y17.4407
G01 X13.0108 Y17.3392
G01 X12.9093 Y17.2272
G01 X12.8192 Y17.1058
G01 X12.7415 Y16.9761
G01 X12.6769 Y16.8395
G01 X12.6259 Y16.6971
G01 X12.5892 Y16.5505
G01 X12.5670 Y16.4010
G01 X12.5596 Y16.2500
G01 X12.5670 Y16.0990
G01 X12.5892 Y15.9495
G01 X12.6259 Y15.8029
G01 X12.6769 Y15.6605
G01 X12.7415 Y15.5239
G01 X12.8192 Y15.3942
G01 X12.9093 Y15.2728
G01 X13.0108 Y15.1608
G01 X13.1228 Y15.0593
G01 X13.2442 Y14.9692
G01 X13.3739 Y14.8915
G01 X13.5037 Y14.8299
G01 X13.5175 Y14.8242
G00 Z2.0000
G00 X13.5492 Y14.9128
G01 F60.00
G01 Z-0.0499
G01 F120.00
G01 X13.6802 Y14.8660
G01 X13.8178 Y14.8315
G01 X13.9582 Y14.8107
G01 X14.1000 Y14.8037
G01 X14.2418 Y14.8107
G01 X14.3822 Y14.8315
G01 X14.5198 Y14.8660
G01 X14.6535 Y14.9138
G01 X14.7818 Y14.9745
G01 X14.9035 Y15.0474
G01 X15.0175 Y15.1320
G01 X15.1227 Y15.2273
G01 X15.2180 Y15.3325
G01 X15.3026 Y15.4465
G01 X15.3755 Y15.5682
G01 X15.4362 Y15.6965
G01 X15.4840 Y15.8302
G01 X15.5185 Y15.9678
G01 X15.5393 Y16.1082
G01 X15.5463 Y16.2500
G01 X15.5393 Y16.3918
G01 X15.5185 Y16.5322
G01 X15.4840 Y16.6698
G01 X15.4362 Y16.8035
G01 X15.3755 Y16.9318
G01 X15.3026 Y17.0535
G01 X15.2180 Y17.1675
G01 X15.1227 Y17.2727
G01 X15.0175 Y17.3680
G01 X14.9035 Y17.4526
G01 X14.7818 Y17.5255
G01 X14.6535 Y17.5862
G01 X14.5198 Y17.6340
G01 X14.3822 Y17.6685
G01 X14.2418 Y17.6893
G01 X14.1000 Y17.6963
G01 X13.9582 Y17.6893
G01 X13.8178 Y17.6685
G01 X13.6802 Y17.6340
G01 X13.5465 Y17.5862
G01 X13.4182 Y17.5255
G01 X13.2965 Y17.4526
G01 X13.1825 Y17.3680
G01 X13.0773 Y17.2727
G01 X12.9820 Y17.1675
G01 X12.8974 Y17.0535
G01 X12.8245 Y16.9318
G01 X12.7638 Y16.8035
G01 X12.7160 Y16.6698
G01 X12.6815 Y16.5322
G01 X12.6607 Y16.3918
G01 X12.6537 Y16.2500
G01 X12.6607 Y16.1082
G01 X12.6815 Y15.9678
G01 X12.7160 Y15.8302
G01 X12.7638 Y15.6965
G01 X12.8245 Y15.5682
G01 X12.8974 Y15.4465
G01 X12.9820 Y15.3325
G01 X13.0773 Y15.2273
G01 X13.1825 Y15.1320
G01 X13.2965 Y15.0474
G01 X13.4182 Y14.9745
G01 X13.5439 Y14.9150
G01 X13.5492 Y14.9128
G00 Z2.0000
G00 X12.4590 Y16.3576
G01 F60.00
G01 Z-0.0499
G01 F120.00
G01 X12.4590 Y16.1424
G01 X12.4870 Y15.9292
G01 X12.5427 Y15.7214
G01 X12.6250 Y15.5226
G01 X12.7326 Y15.3363
G01 X12.8636 Y15.1657
G01 X13.0157 Y15.0136
G01 X13.1863 Y14.8826
G01 X13.3726 Y14.7750
G01 X13.5714 Y14.6927
G01 X13.7792 Y14.6370
G01 X13.9924 Y14.6090
G01 X14.2076 Y14.6090
G01 X14.4208 Y14.6370
G01 X14.6286 Y14.6927
G01 X14.8274 Y14.7750
G01 X15.0137 Y14.8826
G01 X15.1843 Y15.0136
G01 X15.3364 Y15.1657
G01 X15.4674 Y15.3363
G01 X15.5750 Y15.5226
G01 X15.6573 Y15.7214
G01 X15.7130 Y15.9292
G01 X15.7410 Y16.1424
G01 X15.7410 Y16.3576
G01 X15.7130 Y16.5708
G01 X15.6573 Y16.7786
G01 X15.5750 Y16.9774
G01 X15.4674 Y17.1637
G01 X15.3364 Y17.3343
G01 X15.1843 Y17.4864
G01 X15.0137 Y17.6174
G01 X14.8274 Y17.7250
G01 X14.6286 Y17.8073
G01 X14.4208 Y17.8630
G01 X14.2076 Y17.8910
G01 X13.9924 Y17.8910
G01 X13.7792 Y17.8630
G01 X13.5714 Y17.8073
G01 X13.3726 Y17.7250
G01 X13.1863 Y17.6174
G01 X13.0157 Y17.4864
G01 X12.8636 Y17.3343
G01 X12.7326 Y17.1637
G01 X12.6250 Y16.9774
G01 X12.5427 Y16.7786
G01 X12.4870 Y16.5708
G01 X12.4590 Y16.3576
G00 Z2.0000
G00 X12.3649 Y16.3637
G01 F60.00
G01 Z-0.0499
G01 F120.00
G01 X12.3649 Y16.1363
G01 X12.3946 Y15.9108
G01 X12.4534 Y15.6911
G01 X12.5405 Y15.4809
G01 X12.6542 Y15.2840
G01 X12.7927 Y15.1035
G01 X12.9535 Y14.9427
G01 X13.1340 Y14.8042
G01 X13.3309 Y14.6905
G01 X13.5411 Y14.6034
G01 X13.7608 Y14.5446
G01 X13.9863 Y14.5149
G01 X14.2137 Y14.5149
G01 X14.4392 Y14.5446
G01 X14.6589 Y14.6034
G01 X14.8691 Y14.6905
G01 X15.0660 Y14.8042
G01 X15.2465 Y14.9427
G01 X15.4073 Y15.1035
G01 X15.5458 Y15.2840
G01 X15.6595 Y15.4809
G01 X15.7466 Y15.6911
G01 X15.8054 Y15.9108
G01 X15.8351 Y16.1363
G01 X15.8351 Y16.3637
G01 X15.8054 Y16.5892
G01 X15.7466 Y16.8089
G01 X15.6595 Y17.0191
G01 X15.5458 Y17.2160
G01 X15.4073 Y17.3965
G01 X15.2465 Y17.5573
G01 X15.0661 Y17.6958
G01 X14.8691 Y17.8095
G01 X14.6589 Y17.8966
G01 X14.4392 Y17.9554
G01 X14.2137 Y17.9851
G01 X13.9863 Y17.9851
G01 X13.7608 Y17.9554
G01 X13.5411 Y17.8966
G01 X13.3309 Y17.8095
G01 X13.1340 Y17.6958
G01 X12.9535 Y17.5573
G01 X12.7927 Y17.3965
G01 X12.6542 Y17.2161
G01 X12.5405 Y17.0191
G01 X12.4534 Y16.8089
G01 X12.3946 Y16.5892
G01 X12.3649 Y16.3637
G00 Z2.0000
G00 X12.2708 Y16.3699
G01 F60.00
G01 Z-0.0499
G01 F120.00
G01 X12.2708 Y16.1301
G01 X12.3021 Y15.8924
G01 X12.3642 Y15.6608
G01 X12.4559 Y15.4392
G01 X12.5758 Y15.2316
G01 X12.7218 Y15.0413
G01 X12.8913 Y14.8718
G01 X13.0816 Y14.7258
G01 X13.2892 Y14.6059
G01 X13.5108 Y14.5142
G01 X13.7424 Y14.4521
G01 X13.9801 Y14.4208
G01 X14.2199 Y14.4208
G01 X14.4576 Y14.4521
G01 X14.6892 Y14.5142
G01 X14.9108 Y14.6059
G01 X15.1184 Y14.7258
G01 X15.3087 Y14.8718
G01 X15.4782 Y15.0413
G01 X15.6242 Y15.2316
G01 X15.7441 Y15.4392
G01 X15.8358 Y15.6608
G01 X15.8979 Y15.8924
G01 X15.9292 Y16.1301
G01 X15.9292 Y16.3699
G01 X15.8979 Y16.6076
G01 X15.8358 Y16.8392
G01 X15.7441 Y17.0608
G01 X15.6242 Y17.2684
G01 X15.4782 Y17.4587
G01 X15.3087 Y17.6282
G01 X15.1184 Y17.7742
G01 X14.9108 Y17.8941
G01 X14.6892 Y17.9858
G01 X14.4576 Y18.0479
G01 X14.2199 Y18.0792
G01 X13.9801 Y18.0792
G01 X13.7424 Y18.0479
G01 X13.5108 Y17.9858
G01 X13.2892 Y17.8941
G01 X13.0816 Y17.7742
G01 X12.8913 Y17.6282
G01 X12.7218 Y17.4587
G01 X12.5758 Y17.2684
G01 X12.4559 Y17.0608
G01 X12.3642 Y16.8392
G01 X12.3021 Y16.6076
G01 X12.2708 Y16.3699
G00 Z2.0000
G00 X10.1660 Y17.7500
G01 F60.00
G01 Z-0.0499
G01 F120.00
G01 X10.1660 Y14.2500
G01 X10.1681 Y14.2075
G01 X10.1744 Y14.1653
G01 X10.1847 Y14.1240
G01 X10.1990 Y14.0839
G01 X10.2173 Y14.0454
G01 X10.2392 Y14.0089
G01 X10.2645 Y13.9747
G01 X10.2931 Y13.9431
G01 X12.6660 Y11.5702
G01 X12.6660 Y10.4976
G01 X12.6530 Y10.4878
G01 X12.6327 Y10.4694
G01 X12.6122 Y10.4470
G01 X12.5932 Y10.4216
G01 X12.5770 Y10.3943
G01 X12.5637 Y10.3655
G01 X12.5545 Y10.3396
G01 X12.5478 Y10.3131
G01 X12.5427 Y10.2803
G01 X12.5412 Y10.2514
G01 X12.5412 Y5.2500
G01 X12.5428 Y5.2183
G01 X12.5471 Y5.1898
G01 X12.5537 Y5.1631
G01 X12.5647 Y5.1318
G01 X12.5777 Y5.1044
G01 X12.5917 Y5.0809
G01 X12.6113 Y5.0541
G01 X12.6337 Y5.0297
G01 X12.6541 Y5.0113
G01 X12.6784 Y4.9932
G01 X12.7070 Y4.9764
G01 X12.7318 Y4.9647
G01 X12.7604 Y4.9545
G01 X12.7898 Y4.9471
G01 X12.8169 Y4.9430
G01 X12.8500 Y4.9412
G01 X13.3514 Y4.9412
G01 X13.3831 Y4.9430
G01 X13.4102 Y4.9471
G01 X13.4369 Y4.9537
G01 X13.4424 Y4.9554
G01 X13.4708 Y4.9659
G01 X13.4956 Y4.9777
G01 X13.5216 Y4.9932
G01 X13.5459 Y5.0113
G01 X13.5663 Y5.0297
G01 X13.5703 Y5.0337
G01 X13.5905 Y5.0564
G01 X13.6068 Y5.0784
G01 X13.6223 Y5.1044
G01 X13.6353 Y5.1318
G01 X13.6446 Y5.1576
G01 X13.6522 Y5.1869
G01 X13.6534 Y5.1926
G01 X13.6573 Y5.2197
G01 X13.6588 Y5.2486
G01 X13.6588 Y10.2514
G01 X13.6573 Y10.2803
G01 X13.6522 Y10.3131
G01 X13.6455 Y10.3396
G01 X13.6363 Y10.3655
G01 X13.6230 Y10.3943
G01 X13.6068 Y10.4216
G01 X13.5878 Y10.4470
G01 X13.5673 Y10.4694
G01 X13.5470 Y10.4878
G01 X13.5340 Y10.4976
G01 X13.5340 Y11.7500
G01 X13.5319 Y11.7925
G01 X13.5256 Y11.8347
G01 X13.5153 Y11.8760
G01 X13.5020 Y11.9134
G01 X13.4998 Y11.9187
G01 X13.4827 Y11.9546
G01 X13.4624 Y11.9887
G01 X13.4592 Y11.9935
G01 X13.4355 Y12.0253
G01 X13.4079 Y12.0558
G01 X11.0340 Y14.4298
G01 X11.0340 Y17.5702
G01 X12.5723 Y19.1085
G01 X13.9968 Y19.5087
G01 X14.1000 Y19.5037
G01 X14.2418 Y19.5107
G01 X14.3822 Y19.5315
G01 X14.5212 Y19.5664
G01 X14.6508 Y19.6128
G01 X14.6561 Y19.6150
G01 X14.7818 Y19.6745
G01 X14.9011 Y19.7459
G01 X14.9059 Y19.7491
G01 X15.0175 Y19.8320
G01 X15.1237 Y19.9283
G01 X15.2180 Y20.0325
G01 X15.3026 Y20.1465
G01 X15.3755 Y20.2682
G01 X15.4362 Y20.3965
G01 X15.4840 Y20.5302
G01 X15.5185 Y20.6678
G01 X15.5393 Y20.8082
G01 X15.5462 Y20.9471
G01 X15.5462 Y20.9529
G01 X15.5395 Y21.0889
G01 X15.5390 Y21.0946
G01 X15.5185 Y21.2322
G01 X15.4848 Y21.3671
G01 X15.4831 Y21.3726
G01 X15.4362 Y21.5035
G01 X15.3755 Y21.6318
G01 X15.3026 Y21.7535
G01 X15.2180 Y21.8675
G01 X15.1227 Y21.9727
G01 X15.0175 Y22.0680
G01 X14.9035 Y22.1526
G01 X14.7818 Y22.2255
G01 X14.6535 Y22.2862
G01 X14.5198 Y22.3340
G01 X14.3822 Y22.3685
G01 X14.2418 Y22.3893
G01 X14.1000 Y22.3963
G01 X13.9582 Y22.3893
G01 X13.8178 Y22.3685
G01 X13.6802 Y22.3340
G01 X13.5465 Y22.2862
G01 X13.4182 Y22.2255
G01 X13.2965 Y22.1526
G01 X13.1825 Y22.0680
G01 X13.0773 Y21.9727
G01 X12.9820 Y21.8675
G01 X12.8974 Y21.7535
G01 X12.8245 Y21.6318
G01 X12.7638 Y21.5035
G01 X12.7160 Y21.3698
G01 X12.6815 Y21.2322
G01 X12.6639 Y21.1146
G01 X11.9629 Y19.7267
G01 X10.2911 Y18.0548
G01 X10.2645 Y18.0253
G01 X10.2392 Y17.9911
G01 X10.2173 Y17.9546
G01 X10.1990 Y17.9161
G01 X10.1847 Y17.8760
G01 X10.1744 Y17.8347
G01 X10.1681 Y17.7925
G01 X10.1660 Y17.7500
G00 Z2.0000
G00 X10.0719 Y17.7500
G01 F60.00
G01 Z-0.0499
G01 F120.00
G01 X10.0719 Y14.2500
G01 X10.0739 Y14.2057
G01 X10.0754 Y14.1908
G01 X10.0821 Y14.1470
G01 X10.0927 Y14.1039
G01 X10.0970 Y14.0896
G01 X10.1121 Y14.0479
G01 X10.1309 Y14.0078
G01 X10.1380 Y13.9945
G01 X10.1609 Y13.9566
G01 X10.1872 Y13.9209
G01 X10.1942 Y13.9121
G01 X10.2240 Y13.8793
G01 X12.5719 Y11.5313
G01 X12.5719 Y10.5413
G01 X12.5625 Y10.5322
G01 X12.5410 Y10.5085
G01 X12.5340 Y10.4997
G01 X12.5171 Y10.4769
G01 X12.5110 Y10.4675
G01 X12.4947 Y10.4399
G01 X12.4793 Y10.4076
G01 X12.4751 Y10.3972
G01 X12.4645 Y10.3669
G01 X12.4549 Y10.3286
G01 X12.4491 Y10.2895
G01 X12.4472 Y10.2538
G01 X12.4471 Y5.2500
G01 X12.4485 Y5.2180
G01 X12.4495 Y5.2068
G01 X12.4549 Y5.1714
G01 X12.4625 Y5.1403
G01 X12.4668 Y5.1259
G01 X12.4778 Y5.0958
G01 X12.4947 Y5.0601
G01 X12.5110 Y5.0325
G01 X12.5193 Y5.0200
G01 X12.5386 Y4.9944
G01 X12.5599 Y4.9706
G01 X12.5706 Y4.9599
G01 X12.5944 Y4.9386
G01 X12.6262 Y4.9150
G01 X12.6536 Y4.8984
G01 X12.6668 Y4.8913
G01 X12.6958 Y4.8778
G01 X12.7295 Y4.8656
G01 X12.7403 Y4.8625
G01 X12.7641 Y4.8565
G01 X12.7788 Y4.8536
G01 X12.8105 Y4.8491
G01 X12.8500 Y4.8471
G01 X13.3538 Y4.8472
G01 X13.3858 Y4.8487
G01 X13.3969 Y4.8500
G01 X13.4286 Y4.8549
G01 X13.4597 Y4.8625
G01 X13.4741 Y4.8668
G01 X13.5007 Y4.8764
G01 X13.5110 Y4.8808
G01 X13.5399 Y4.8947
G01 X13.5738 Y4.9150
G01 X13.6056 Y4.9386
G01 X13.6294 Y4.9599
G01 X13.6401 Y4.9706
G01 X13.6565 Y4.9887
G01 X13.6638 Y4.9973
G01 X13.6850 Y5.0262
G01 X13.7053 Y5.0601
G01 X13.7222 Y5.0958
G01 X13.7332 Y5.1259
G01 X13.7375 Y5.1403
G01 X13.7435 Y5.1641
G01 X13.7458 Y5.1751
G01 X13.7509 Y5.2105
G01 X13.7528 Y5.2462
G01 X13.7528 Y10.2538
G01 X13.7509 Y10.2895
G01 X13.7451 Y10.3286
G01 X13.7355 Y10.3669
G01 X13.7249 Y10.3972
G01 X13.7207 Y10.4076
G01 X13.7053 Y10.4399
G01 X13.6890 Y10.4675
G01 X13.6829 Y10.4769
G01 X13.6660 Y10.4997
G01 X13.6590 Y10.5085
G01 X13.6375 Y10.5322
G01 X13.6281 Y10.5413
G01 X13.6281 Y11.7500
G01 X13.6255 Y11.8018
G01 X13.6186 Y11.8493
G01 X13.6163 Y11.8603
G01 X13.6073 Y11.8961
G01 X13.6030 Y11.9104
G01 X13.5879 Y11.9521
G01 X13.5657 Y11.9989
G01 X13.5431 Y12.0370
G01 X13.5348 Y12.0495
G01 X13.5082 Y12.0850
G01 X13.4760 Y12.1207
G01 X11.1281 Y14.4687
G01 X11.1281 Y17.5313
G01 X12.6214 Y19.0246
G01 X14.0075 Y19.4140
G01 X14.0925 Y19.4098
G01 X14.1038 Y19.4097
G01 X14.2435 Y19.4165
G01 X14.2547 Y19.4175
G01 X14.4005 Y19.4392
G01 X14.5399 Y19.4739
G01 X14.5507 Y19.4771
G01 X14.6825 Y19.5242
G01 X14.6963 Y19.5299
G01 X14.8261 Y19.5915
G01 X14.9494 Y19.6652
G01 X14.9619 Y19.6735
G01 X15.0772 Y19.7593
G01 X15.1838 Y19.8556
G01 X15.1918 Y19.8635
G01 X15.2907 Y19.9728
G01 X15.3808 Y20.0942
G01 X15.4585 Y20.2239
G01 X15.5231 Y20.3605
G01 X15.5741 Y20.5029
G01 X15.6108 Y20.6495
G01 X15.6330 Y20.7990
G01 X15.6402 Y20.9425
G01 X15.6402 Y20.9575
G01 X15.6335 Y21.0935
G01 X15.6320 Y21.1084
G01 X15.6108 Y21.2505
G01 X15.5761 Y21.3899
G01 X15.5717 Y21.4043
G01 X15.5231 Y21.5395
G01 X15.4585 Y21.6761
G01 X15.3808 Y21.8058
G01 X15.2931 Y21.9243
G01 X15.2858 Y21.9329
G01 X15.1892 Y22.0392
G01 X15.0772 Y22.1407
G01 X14.9558 Y22.2308
G01 X14.8261 Y22.3085
G01 X14.6895 Y22.3731
G01 X14.5471 Y22.4241
G01 X14.4005 Y22.4608
G01 X14.2510 Y22.4830
G01 X14.1000 Y22.4904
G01 X13.9490 Y22.4830
G01 X13.7995 Y22.4608
G01 X13.6529 Y22.4241
G01 X13.5105 Y22.3731
G01 X13.3739 Y22.3085
G01 X13.2442 Y22.2308
G01 X13.1257 Y22.1431
G01 X13.1171 Y22.1358
G01 X13.0108 Y22.0392
G01 X12.9093 Y21.9272
G01 X12.8192 Y21.8058
G01 X12.7415 Y21.6761
G01 X12.6769 Y21.5395
G01 X12.6259 Y21.3971
G01 X12.5892 Y21.2505
G01 X12.5731 Y21.1435
G01 X11.8857 Y19.7825
G01 X10.2266 Y18.1234
G01 X10.1967 Y18.0907
G01 X10.1895 Y18.0821
G01 X10.1631 Y18.0465
G01 X10.1569 Y18.0370
G01 X10.1380 Y18.0055
G01 X10.1309 Y17.9922
G01 X10.1136 Y17.9555
G01 X10.1094 Y17.9451
G01 X10.0947 Y17.9033
G01 X10.0821 Y17.8530
G01 X10.0745 Y17.8018
G01 X10.0719 Y17.7500
G00 Z2.0000
G00 X9.9779 Y17.7500
G01 F60.00
G01 Z-0.0499
G01 F120.00
G01 X9.9779 Y14.2500
G01 X9.9781 Y14.2379
G01 X9.9808 Y14.1890
G01 X9.9877 Y14.1406
G01 X9.9898 Y14.1286
G01 X9.9925 Y14.1168
G01 X10.0046 Y14.0694
G01 X10.0230 Y14.0175
G01 X10.0301 Y14.0008
G01 X10.0513 Y13.9567
G01 X10.0762 Y13.9146
G01 X10.0827 Y13.9044
G01 X10.0897 Y13.8944
G01 X10.1191 Y13.8553
G01 X10.1558 Y13.8144
G01 X12.4779 Y11.4923
G01 X12.4779 Y10.5790
G01 X12.4697 Y10.5699
G01 X12.4621 Y10.5605
G01 X12.4438 Y10.5360
G01 X12.4335 Y10.5210
G01 X12.4117 Y10.4843
G01 X12.3958 Y10.4513
G01 X12.3886 Y10.4346
G01 X12.3744 Y10.3943
G01 X12.3652 Y10.3588
G01 X12.3626 Y10.3470
G01 X12.3605 Y10.3350
G01 X12.3554 Y10.2987
G01 X12.3531 Y10.2561
G01 X12.3530 Y5.2500
G01 X12.3549 Y5.2073
G01 X12.3569 Y5.1893
G01 X12.3626 Y5.1530
G01 X12.3728 Y5.1116
G01 X12.3782 Y5.0942
G01 X12.3909 Y5.0598
G01 X12.4089 Y5.0211
G01 X12.4177 Y5.0052
G01 X12.4368 Y4.9739
G01 X12.4584 Y4.9443
G01 X12.4697 Y4.9301
G01 X12.4986 Y4.8986
G01 X12.5301 Y4.8697
G01 X12.5443 Y4.8584
G01 X12.5739 Y4.8368
G01 X12.6052 Y4.8177
G01 X12.6211 Y4.8089
G01 X12.6543 Y4.7933
G01 X12.6711 Y4.7865
G01 X12.7057 Y4.7744
G01 X12.7174 Y4.7712
G01 X12.7530 Y4.7626
G01 X12.7893 Y4.7569
G01 X12.8073 Y4.7549
G01 X12.8500 Y4.7530
G01 X13.3561 Y4.7531
G01 X13.3927 Y4.7549
G01 X13.4107 Y4.7569
G01 X13.4470 Y4.7626
G01 X13.4884 Y4.7728
G01 X13.5000 Y4.7763
G01 X13.5289 Y4.7865
G01 X13.5402 Y4.7909
G01 X13.5513 Y4.7958
G01 X13.5843 Y4.8117
G01 X13.6159 Y4.8303
G01 X13.6261 Y4.8368
G01 X13.6360 Y4.8438
G01 X13.6653 Y4.8658
G01 X13.6971 Y4.8944
G01 X13.7056 Y4.9029
G01 X13.7262 Y4.9256
G01 X13.7342 Y4.9347
G01 X13.7416 Y4.9443
G01 X13.7632 Y4.9739
G01 X13.7823 Y5.0052
G01 X13.7883 Y5.0157
G01 X13.7937 Y5.0266
G01 X13.8091 Y5.0598
G01 X13.8218 Y5.0942
G01 X13.8256 Y5.1057
G01 X13.8288 Y5.1174
G01 X13.8362 Y5.1471
G01 X13.8385 Y5.1590
G01 X13.8446 Y5.2013
G01 X13.8469 Y5.2439
G01 X13.8469 Y10.2561
G01 X13.8446 Y10.2987
G01 X13.8395 Y10.3350
G01 X13.8374 Y10.3470
G01 X13.8348 Y10.3588
G01 X13.8256 Y10.3943
G01 X13.8114 Y10.4346
G01 X13.8042 Y10.4513
G01 X13.7883 Y10.4843
G01 X13.7665 Y10.5210
G01 X13.7562 Y10.5360
G01 X13.7379 Y10.5605
G01 X13.7303 Y10.5699
G01 X13.7221 Y10.5790
G01 X13.7221 Y11.7500
G01 X13.7219 Y11.7621
G01 X13.7192 Y11.8110
G01 X13.7113 Y11.8654
G01 X13.7075 Y11.8832
G01 X13.6986 Y11.9189
G01 X13.6954 Y11.9306
G01 X13.6916 Y11.9421
G01 X13.6748 Y11.9881
G01 X13.6699 Y11.9992
G01 X13.6487 Y12.0433
G01 X13.6238 Y12.0854
G01 X13.6173 Y12.0956
G01 X13.6103 Y12.1056
G01 X13.5809 Y12.1447
G01 X13.5442 Y12.1856
G01 X11.2221 Y14.5077
G01 X11.2221 Y17.4923
G01 X12.6706 Y18.9407
G01 X14.0181 Y19.3193
G01 X14.0879 Y19.3158
G01 X14.1061 Y19.3156
G01 X14.2481 Y19.3225
G01 X14.2662 Y19.3241
G01 X14.4069 Y19.3449
G01 X14.4189 Y19.3469
G01 X14.4307 Y19.3496
G01 X14.5628 Y19.3827
G01 X14.5802 Y19.3877
G01 X14.7142 Y19.4356
G01 X14.7255 Y19.4400
G01 X14.7366 Y19.4449
G01 X14.8597 Y19.5031
G01 X14.8705 Y19.5085
G01 X14.8810 Y19.5145
G01 X14.9978 Y19.5845
G01 X15.0081 Y19.5910
G01 X15.0180 Y19.5980
G01 X15.1273 Y19.6791
G01 X15.1369 Y19.6865
G01 X15.1461 Y19.6945
G01 X15.2470 Y19.7859
G01 X15.2557 Y19.7943
G01 X15.2641 Y19.8030
G01 X15.3555 Y19.9039
G01 X15.3635 Y19.9131
G01 X15.3709 Y19.9227
G01 X15.4520 Y20.0320
G01 X15.4590 Y20.0419
G01 X15.4655 Y20.0522
G01 X15.5355 Y20.1690
G01 X15.5415 Y20.1795
G01 X15.5469 Y20.1903
G01 X15.6051 Y20.3134
G01 X15.6100 Y20.3245
G01 X15.6144 Y20.3358
G01 X15.6603 Y20.4640
G01 X15.6641 Y20.4755
G01 X15.6673 Y20.4872
G01 X15.7004 Y20.6193
G01 X15.7031 Y20.6311
G01 X15.7051 Y20.6431
G01 X15.7251 Y20.7778
G01 X15.7266 Y20.7898
G01 X15.7275 Y20.8019
G01 X15.7342 Y20.9379
G01 X15.7345 Y20.9500
G01 X15.7342 Y20.9621
G01 X15.7275 Y21.0981
G01 X15.7266 Y21.1102
G01 X15.7251 Y21.1222
G01 X15.7051 Y21.2569
G01 X15.7031 Y21.2689
G01 X15.7004 Y21.2807
G01 X15.6673 Y21.4128
G01 X15.6641 Y21.4245
G01 X15.6603 Y21.4360
G01 X15.6144 Y21.5642
G01 X15.6100 Y21.5755
G01 X15.6051 Y21.5866
G01 X15.5469 Y21.7097
G01 X15.5415 Y21.7205
G01 X15.5355 Y21.7310
G01 X15.4655 Y21.8478
G01 X15.4590 Y21.8581
G01 X15.4520 Y21.8680
G01 X15.3672 Y21.9822
G01 X15.3555 Y21.9961
G01 X15.2641 Y22.0970
G01 X15.2557 Y22.1057
G01 X15.2470 Y22.1141
G01 X15.1461 Y22.2055
G01 X15.1369 Y22.2135
G01 X15.1273 Y22.2209
G01 X15.0180 Y22.3020
G01 X15.0081 Y22.3090
G01 X14.9978 Y22.3155
G01 X14.8810 Y22.3855
G01 X14.8705 Y22.3915
G01 X14.8597 Y22.3969
G01 X14.7366 Y22.4551
G01 X14.7255 Y22.4600
G01 X14.7142 Y22.4644
G01 X14.5860 Y22.5103
G01 X14.5745 Y22.5141
G01 X14.5628 Y22.5173
G01 X14.4307 Y22.5504
G01 X14.4189 Y22.5531
G01 X14.4069 Y22.5551
G01 X14.2722 Y22.5751
G01 X14.2602 Y22.5766
G01 X14.2481 Y22.5775
G01 X14.1121 Y22.5842
G01 X14.1000 Y22.5845
G01 X14.0879 Y22.5842
G01 X13.9519 Y22.5775
G01 X13.9398 Y22.5766
G01 X13.9278 Y22.5751
G01 X13.7931 Y22.5551
G01 X13.7811 Y22.5531
G01 X13.7693 Y22.5504
G01 X13.6372 Y22.5173
G01 X13.6255 Y22.5141
G01 X13.6140 Y22.5103
G01 X13.4858 Y22.4644
G01 X13.4745 Y22.4600
G01 X13.4634 Y22.4551
G01 X13.3403 Y22.3969
G01 X13.3295 Y22.3915
G01 X13.3190 Y22.3855
G01 X13.2022 Y22.3155
G01 X13.1919 Y22.3090
G01 X13.1820 Y22.3020
G01 X13.0678 Y22.2172
G01 X13.0539 Y22.2055
G01 X12.9530 Y22.1141
G01 X12.9443 Y22.1057
G01 X12.9359 Y22.0970
G01 X12.8445 Y21.9961
G01 X12.8365 Y21.9869
G01 X12.8291 Y21.9773
G01 X12.7480 Y21.8680
G01 X12.7410 Y21.8581
G01 X12.7345 Y21.8478
G01 X12.6645 Y21.7310
G01 X12.6585 Y21.7205
G01 X12.6531 Y21.7097
G01 X12.5949 Y21.5866
G01 X12.5900 Y21.5755
G01 X12.5856 Y21.5642
G01 X12.5377 Y21.4302
G01 X12.5327 Y21.4128
G01 X12.4982 Y21.2748
G01 X12.4949 Y21.2570
G01 X12.4823 Y21.1723
G01 X11.8086 Y19.8384
G01 X10.1601 Y18.1899
G01 X10.1230 Y18.1493
G01 X10.1116 Y18.1351
G01 X10.0861 Y18.1006
G01 X10.0762 Y18.0854
G01 X10.0573 Y18.0538
G01 X10.0513 Y18.0433
G01 X10.0459 Y18.0325
G01 X10.0276 Y17.9937
G01 X10.0208 Y17.9768
G01 X10.0046 Y17.9306
G01 X9.9925 Y17.8832
G01 X9.9898 Y17.8714
G01 X9.9877 Y17.8594
G01 X9.9808 Y17.8110
G01 X9.9781 Y17.7621
G01 X9.9779 Y17.7500
G00 Z2.0000
G00 X13.4858 Y24.1356
G01 F60.00
G01 Z-0.0499
G01 F120.00
G01 X13.6140 Y24.0897
G01 X13.6255 Y24.0859
G01 X13.6372 Y24.0827
G01 X13.7693 Y24.0496
G01 X13.7811 Y24.0469
G01 X13.7931 Y24.0449
G01 X13.9278 Y24.0249
G01 X13.9398 Y24.0234
G01 X13.9519 Y24.0225
G01 X14.0879 Y24.0158
G01 X14.1000 Y24.0155
G01 X14.1121 Y24.0158
G01 X14.2481 Y24.0225
G01 X14.2602 Y24.0234
G01 X14.2722 Y24.0249
G01 X14.4069 Y24.0449
G01 X14.4189 Y24.0469
G01 X14.4307 Y24.0496
G01 X14.5628 Y24.0827
G01 X14.5745 Y24.0859
G01 X14.5860 Y24.0897
G01 X14.7142 Y24.1356
G01 X14.7288 Y24.1414
G01 X17.4779 Y21.3923
G01 X17.4779 Y14.0077
G01 X14.6601 Y11.1899
G01 X14.6230 Y11.1493
G01 X14.6116 Y11.1351
G01 X14.5827 Y11.0956
G01 X14.5573 Y11.0538
G01 X14.5513 Y11.0433
G01 X14.5459 Y11.0325
G01 X14.5252 Y10.9881
G01 X14.5208 Y10.9768
G01 X14.5046 Y10.9306
G01 X14.4925 Y10.8832
G01 X14.4898 Y10.8714
G01 X14.4823 Y10.8230
G01 X14.4803 Y10.8049
G01 X14.4779 Y10.7500
G01 X14.4779 Y10.5790
G01 X14.4697 Y10.5699
G01 X14.4621 Y10.5605
G01 X14.4438 Y10.5360
G01 X14.4335 Y10.5210
G01 X14.4117 Y10.4843
G01 X14.3933 Y10.4457
G01 X14.3886 Y10.4346
G01 X14.3782 Y10.4058
G01 X14.3744 Y10.3943
G01 X14.3712 Y10.3826
G01 X14.3626 Y10.3470
G01 X14.3561 Y10.3047
G01 X14.3545 Y10.2866
G01 X14.3530 Y10.2500
G01 X14.3530 Y5.2500
G01 X14.3533 Y5.2379
G01 X14.3554 Y5.2013
G01 X14.3605 Y5.1650
G01 X14.3626 Y5.1530
G01 X14.3712 Y5.1174
G01 X14.3763 Y5.1000
G01 X14.3886 Y5.0654
G01 X14.3958 Y5.0487
G01 X14.4117 Y5.0157
G01 X14.4303 Y4.9841
G01 X14.4402 Y4.9689
G01 X14.4658 Y4.9347
G01 X14.4944 Y4.9029
G01 X14.5074 Y4.8902
G01 X14.5347 Y4.8658
G01 X14.5640 Y4.8438
G01 X14.5790 Y4.8335
G01 X14.6157 Y4.8117
G01 X14.6487 Y4.7958
G01 X14.6654 Y4.7886
G01 X14.7057 Y4.7744
G01 X14.7174 Y4.7712
G01 X14.7530 Y4.7626
G01 X14.7650 Y4.7605
G01 X14.8013 Y4.7554
G01 X14.8379 Y4.7533
G01 X14.8500 Y4.7530
G01 X15.3500 Y4.7530
G01 X15.3621 Y4.7533
G01 X15.3987 Y4.7554
G01 X15.4107 Y4.7569
G01 X15.4470 Y4.7626
G01 X15.4826 Y4.7712
G01 X15.4943 Y4.7744
G01 X15.5058 Y4.7782
G01 X15.5402 Y4.7909
G01 X15.5734 Y4.8063
G01 X15.5843 Y4.8117
G01 X15.5948 Y4.8177
G01 X15.6210 Y4.8335
G01 X15.6311 Y4.8402
G01 X15.6653 Y4.8658
G01 X15.6926 Y4.8902
G01 X15.7014 Y4.8986
G01 X15.7098 Y4.9074
G01 X15.7342 Y4.9347
G01 X15.7416 Y4.9443
G01 X15.7632 Y4.9739
G01 X15.7823 Y5.0052
G01 X15.7883 Y5.0157
G01 X15.8042 Y5.0487
G01 X15.8091 Y5.0598
G01 X15.8135 Y5.0711
G01 X15.8237 Y5.1000
G01 X15.8288 Y5.1174
G01 X15.8362 Y5.1471
G01 X15.8385 Y5.1590
G01 X15.8431 Y5.1893
G01 X15.8451 Y5.2073
G01 X15.8470 Y5.2500
G01 X15.8469 Y10.2561
G01 X15.8446 Y10.2987
G01 X15.8395 Y10.3350
G01 X15.8362 Y10.3529
G01 X15.8256 Y10.3943
G01 X15.8135 Y10.4289
G01 X15.8091 Y10.4402
G01 X15.7937 Y10.4734
G01 X15.7883 Y10.4843
G01 X15.7823 Y10.4948
G01 X15.7665 Y10.5210
G01 X15.7603 Y10.5304
G01 X18.5442 Y13.3144
G01 X18.5809 Y13.3553
G01 X18.6103 Y13.3944
G01 X18.6173 Y13.4044
G01 X18.6238 Y13.4146
G01 X18.6487 Y13.4567
G01 X18.6699 Y13.5008
G01 X18.6748 Y13.5119
G01 X18.6792 Y13.5232
G01 X18.6954 Y13.5694
G01 X18.6986 Y13.5811
G01 X18.7102 Y13.6286
G01 X18.7123 Y13.6406
G01 X18.7192 Y13.6890
G01 X18.7219 Y13.7379
G01 X18.7221 Y13.7500
G01 X18.7221 Y21.6500
G01 X18.7219 Y21.6621
G01 X18.7192 Y21.7110
G01 X18.7123 Y21.7594
G01 X18.7102 Y21.7714
G01 X18.6986 Y21.8189
G01 X18.6935 Y21.8364
G01 X18.6792 Y21.8768
G01 X18.6748 Y21.8881
G01 X18.6699 Y21.8992
G01 X18.6487 Y21.9433
G01 X18.6238 Y21.9854
G01 X18.6173 Y21.9956
G01 X18.6103 Y22.0056
G01 X18.5809 Y22.0447
G01 X18.5442 Y22.0856
G01 X15.6086 Y25.0212
G01 X15.6144 Y25.0358
G01 X15.6603 Y25.1640
G01 X15.6641 Y25.1755
G01 X15.6673 Y25.1872
G01 X15.7004 Y25.3193
G01 X15.7031 Y25.3311
G01 X15.7051 Y25.3431
G01 X15.7251 Y25.4778
G01 X15.7266 Y25.4898
G01 X15.7275 Y25.5019
G01 X15.7342 Y25.6379
G01 X15.7345 Y25.6500
G01 X15.7342 Y25.6621
G01 X15.7275 Y25.7981
G01 X15.7266 Y25.8102
G01 X15.7251 Y25.8222
G01 X15.7051 Y25.9569
G01 X15.7031 Y25.9689
G01 X15.7004 Y25.9807
G01 X15.6673 Y26.1128
G01 X15.6641 Y26.1245
G01 X15.6603 Y26.1360
G01 X15.6144 Y26.2642
G01 X15.6100 Y26.2755
G01 X15.6051 Y26.2866
G01 X15.5469 Y26.4097
G01 X15.5415 Y26.4205
G01 X15.5355 Y26.4310
G01 X15.4655 Y26.5478
G01 X15.4590 Y26.5581
G01 X15.4520 Y26.5680
G01 X15.3709 Y26.6773
G01 X15.3635 Y26.6869
G01 X15.3555 Y26.6961
G01 X15.2641 Y26.7970
G01 X15.2557 Y26.8057
G01 X15.2470 Y26.8141
G01 X15.1461 Y26.9055
G01 X15.1369 Y26.9135
G01 X15.1273 Y26.9209
G01 X15.0180 Y27.0020
G01 X15.0081 Y27.0090
G01 X14.9978 Y27.0155
G01 X14.8810 Y27.0855
G01 X14.8705 Y27.0915
G01 X14.8597 Y27.0969
G01 X14.7366 Y27.1551
G01 X14.7255 Y27.1600
G01 X14.7142 Y27.1644
G01 X14.5860 Y27.2103
G01 X14.5745 Y27.2141
G01 X14.5628 Y27.2173
G01 X14.4307 Y27.2504
G01 X14.4189 Y27.2531
G01 X14.4069 Y27.2551
G01 X14.2722 Y27.2751
G01 X14.2602 Y27.2766
G01 X14.2481 Y27.2775
G01 X14.1121 Y27.2842
G01 X14.1000 Y27.2845
G01 X14.0879 Y27.2842
G01 X13.9519 Y27.2775
G01 X13.9398 Y27.2766
G01 X13.9278 Y27.2751
G01 X13.7931 Y27.2551
G01 X13.7811 Y27.2531
G01 X13.7693 Y27.2504
G01 X13.6372 Y27.2173
G01 X13.6255 Y27.2141
G01 X13.6140 Y27.2103
G01 X13.4858 Y27.1644
G01 X13.4745 Y27.1600
G01 X13.4634 Y27.1551
G01 X13.3403 Y27.0969
G01 X13.3295 Y27.0915
G01 X13.3190 Y27.0855
G01 X13.2022 Y27.0155
G01 X13.1919 Y27.0090
G01 X13.1820 Y27.0020
G01 X13.0727 Y26.9209
G01 X13.0631 Y26.9135
G01 X13.0539 Y26.9055
G01 X12.9530 Y26.8141
G01 X12.9443 Y26.8057
G01 X12.9359 Y26.7970
G01 X12.8445 Y26.6961
G01 X12.8365 Y26.6869
G01 X12.8291 Y26.6773
G01 X12.7480 Y26.5680
G01 X12.7410 Y26.5581
G01 X12.7345 Y26.5478
G01 X12.6645 Y26.4310
G01 X12.6585 Y26.4205
G01 X12.6531 Y26.4097
G01 X12.5949 Y26.2866
G01 X12.5900 Y26.2755
G01 X12.5856 Y26.2642
G01 X12.5397 Y26.1360
G01 X12.5359 Y26.1245
G01 X12.5327 Y26.1128
G01 X12.4996 Y25.9807
G01 X12.4969 Y25.9689
G01 X12.4949 Y25.9569
G01 X12.4749 Y25.8222
G01 X12.4734 Y25.8102
G01 X12.4725 Y25.7981
G01 X12.4658 Y25.6621
G01 X12.4655 Y25.6500
G01 X12.4658 Y25.6379
G01 X12.4725 Y25.5019
G01 X12.4734 Y25.4898
G01 X12.4749 Y25.4778
G01 X12.4949 Y25.3431
G01 X12.4969 Y25.3311
G01 X12.4996 Y25.3193
G01 X12.5327 Y25.1872
G01 X12.5359 Y25.1755
G01 X12.5397 Y25.1640
G01 X12.5856 Y25.0358
G01 X12.5900 Y25.0245
G01 X12.5949 Y25.0134
G01 X12.6531 Y24.8903
G01 X12.6585 Y24.8795
G01 X12.6645 Y24.8690
G01 X12.7345 Y24.7522
G01 X12.7410 Y24.7419
G01 X12.7480 Y24.7320
G01 X12.8291 Y24.6227
G01 X12.8365 Y24.6131
G01 X12.8445 Y24.6039
G01 X12.9359 Y24.5030
G01 X12.9443 Y24.4943
G01 X12.9530 Y24.4859
G01 X13.0539 Y24.3945
G01 X13.0631 Y24.3865
G01 X13.0727 Y24.3791
G01 X13.1820 Y24.2980
G01 X13.1919 Y24.2910
G01 X13.2022 Y24.2845
G01 X13.3190 Y24.2145
G01 X13.3295 Y24.2085
G01 X13.3403 Y24.2031
G01 X13.4634 Y24.1449
G01 X13.4745 Y24.1400
G01 X13.4858 Y24.1356
G00 Z2.0000
G00 X13.5175 Y24.2242
G01 F60.00
G01 Z-0.0499
G01 F120.00
G01 X13.6529 Y24.1759
G01 X13.7995 Y24.1392
G01 X13.9490 Y24.1170
G01 X14.0925 Y24.1098
G01 X14.1038 Y24.1097
G01 X14.2510 Y24.1170
G01 X14.3931 Y24.1379
G01 X14.4042 Y24.1400
G01 X14.5399 Y24.1739
G01 X14.5507 Y24.1771
G01 X14.6860 Y24.2255
G01 X14.6963 Y24.2299
G01 X14.7486 Y24.2546
G01 X17.5719 Y21.4313
G01 X17.5719 Y13.9687
G01 X14.7266 Y11.1234
G01 X14.6942 Y11.0879
G01 X14.6872 Y11.0791
G01 X14.6609 Y11.0434
G01 X14.6380 Y11.0055
G01 X14.6309 Y10.9922
G01 X14.6121 Y10.9521
G01 X14.5970 Y10.9104
G01 X14.5936 Y10.8997
G01 X14.5829 Y10.8567
G01 X14.5808 Y10.8456
G01 X14.5745 Y10.8018
G01 X14.5720 Y10.7538
G01 X14.5719 Y10.5413
G01 X14.5599 Y10.5294
G01 X14.5410 Y10.5085
G01 X14.5340 Y10.4997
G01 X14.5193 Y10.4800
G01 X14.5130 Y10.4707
G01 X14.4984 Y10.4464
G01 X14.4930 Y10.4366
G01 X14.4778 Y10.4042
G01 X14.4645 Y10.3669
G01 X14.4549 Y10.3286
G01 X14.4495 Y10.2932
G01 X14.4485 Y10.2820
G01 X14.4471 Y10.2500
G01 X14.4471 Y5.2500
G01 X14.4491 Y5.2105
G01 X14.4542 Y5.1751
G01 X14.4565 Y5.1641
G01 X14.4645 Y5.1331
G01 X14.4751 Y5.1028
G01 X14.4808 Y5.0890
G01 X14.4947 Y5.0601
G01 X14.5130 Y5.0293
G01 X14.5193 Y5.0200
G01 X14.5340 Y5.0003
G01 X14.5410 Y4.9915
G01 X14.5651 Y4.9651
G01 X14.5887 Y4.9435
G01 X14.6003 Y4.9340
G01 X14.6262 Y4.9150
G01 X14.6536 Y4.8984
G01 X14.6668 Y4.8913
G01 X14.6958 Y4.8778
G01 X14.7259 Y4.8668
G01 X14.7403 Y4.8625
G01 X14.7641 Y4.8565
G01 X14.7751 Y4.8542
G01 X14.8105 Y4.8491
G01 X14.8462 Y4.8472
G01 X15.3500 Y4.8471
G01 X15.3895 Y4.8491
G01 X15.4286 Y4.8549
G01 X15.4669 Y4.8645
G01 X15.5042 Y4.8778
G01 X15.5332 Y4.8913
G01 X15.5464 Y4.8984
G01 X15.5707 Y4.9130
G01 X15.5800 Y4.9193
G01 X15.5997 Y4.9340
G01 X15.6085 Y4.9410
G01 X15.6322 Y4.9625
G01 X15.6401 Y4.9706
G01 X15.6614 Y4.9944
G01 X15.6850 Y5.0262
G01 X15.7053 Y5.0601
G01 X15.7222 Y5.0958
G01 X15.7355 Y5.1331
G01 X15.7451 Y5.1714
G01 X15.7509 Y5.2105
G01 X15.7527 Y5.2425
G01 X15.7528 Y10.2538
G01 X15.7509 Y10.2895
G01 X15.7451 Y10.3286
G01 X15.7355 Y10.3669
G01 X15.7222 Y10.4042
G01 X15.7053 Y10.4399
G01 X15.6850 Y10.4738
G01 X15.6614 Y10.5056
G01 X15.6401 Y10.5294
G01 X15.6333 Y10.5365
G01 X18.4760 Y13.3793
G01 X18.5082 Y13.4150
G01 X18.5348 Y13.4505
G01 X18.5431 Y13.4630
G01 X18.5657 Y13.5011
G01 X18.5848 Y13.5411
G01 X18.5906 Y13.5549
G01 X18.6053 Y13.5967
G01 X18.6179 Y13.6470
G01 X18.6255 Y13.6982
G01 X18.6281 Y13.7500
G01 X18.6281 Y21.6500
G01 X18.6255 Y21.7018
G01 X18.6179 Y21.7530
G01 X18.6073 Y21.7961
G01 X18.6042 Y21.8069
G01 X18.5906 Y21.8451
G01 X18.5848 Y21.8589
G01 X18.5657 Y21.8989
G01 X18.5391 Y21.9434
G01 X18.5082 Y21.9850
G01 X18.4760 Y22.0207
G01 X15.4954 Y25.0014
G01 X15.5201 Y25.0537
G01 X15.5245 Y25.0640
G01 X15.5729 Y25.1993
G01 X15.5761 Y25.2101
G01 X15.6100 Y25.3458
G01 X15.6121 Y25.3569
G01 X15.6330 Y25.4990
G01 X15.6403 Y25.6462
G01 X15.6402 Y25.6575
G01 X15.6330 Y25.8010
G01 X15.6108 Y25.9505
G01 X15.5741 Y26.0971
G01 X15.5245 Y26.2360
G01 X15.5201 Y26.2463
G01 X15.4585 Y26.3761
G01 X15.3808 Y26.5058
G01 X15.2907 Y26.6272
G01 X15.1892 Y26.7392
G01 X15.0772 Y26.8407
G01 X14.9558 Y26.9308
G01 X14.8261 Y27.0085
G01 X14.6895 Y27.0731
G01 X14.5471 Y27.1241
G01 X14.4005 Y27.1608
G01 X14.2510 Y27.1830
G01 X14.1000 Y27.1904
G01 X13.9490 Y27.1830
G01 X13.7995 Y27.1608
G01 X13.6529 Y27.1241
G01 X13.5105 Y27.0731
G01 X13.3739 Y27.0085
G01 X13.2442 Y26.9308
G01 X13.1228 Y26.8407
G01 X13.0108 Y26.7392
G01 X12.9093 Y26.6272
G01 X12.8192 Y26.5058
G01 X12.7415 Y26.3761
G01 X12.6769 Y26.2395
G01 X12.6259 Y26.0971
G01 X12.5892 Y25.9505
G01 X12.5670 Y25.8010
G01 X12.5596 Y25.6500
G01 X12.5670 Y25.4990
G01 X12.5892 Y25.3495
G01 X12.6259 Y25.2029
G01 X12.6769 Y25.0605
G01 X12.7415 Y24.9239
G01 X12.8192 Y24.7942
G01 X12.9093 Y24.6728
G01 X13.0108 Y24.5608
G01 X13.1228 Y24.4593
G01 X13.2442 Y24.3692
G01 X13.3739 Y24.2915
G01 X13.5037 Y24.2299
G01 X13.5175 Y24.2242
G00 Z2.0000
G00 X13.5492 Y24.3128
G01 F60.00
G01 Z-0.0499
G01 F120.00
G01 X13.6802 Y24.2660
G01 X13.8178 Y24.2315
G01 X13.9582 Y24.2107
G01 X14.0971 Y24.2038
G01 X14.1029 Y24.2038
G01 X14.2418 Y24.2107
G01 X14.3793 Y24.2310
G01 X14.3850 Y24.2321
G01 X14.5171 Y24.2652
G01 X14.5226 Y24.2669
G01 X14.6535 Y24.3138
G01 X14.7682 Y24.3680
G01 X17.6660 Y21.4702
G01 X17.6660 Y13.9298
G01 X14.7931 Y11.0569
G01 X14.7655 Y11.0264
G01 X14.7392 Y10.9911
G01 X14.7187 Y10.9571
G01 X14.7160 Y10.9520
G01 X14.6990 Y10.9161
G01 X14.6856 Y10.8787
G01 X14.6839 Y10.8732
G01 X14.6744 Y10.8347
G01 X14.6681 Y10.7925
G01 X14.6660 Y10.7514
G01 X14.6660 Y10.4976
G01 X14.6530 Y10.4878
G01 X14.6327 Y10.4694
G01 X14.6122 Y10.4470
G01 X14.5932 Y10.4216
G01 X14.5784 Y10.3968
G01 X14.5647 Y10.3682
G01 X14.5545 Y10.3396
G01 X14.5471 Y10.3102
G01 X14.5430 Y10.2831
G01 X14.5412 Y10.2500
G01 X14.5412 Y5.2500
G01 X14.5427 Y5.2197
G01 X14.5466 Y5.1926
G01 X14.5545 Y5.1604
G01 X14.5659 Y5.1292
G01 X14.5777 Y5.1044
G01 X14.5917 Y5.0809
G01 X14.5949 Y5.0761
G01 X14.6132 Y5.0519
G01 X14.6316 Y5.0316
G01 X14.6519 Y5.0132
G01 X14.6784 Y4.9932
G01 X14.7070 Y4.9764
G01 X14.7318 Y4.9647
G01 X14.7604 Y4.9545
G01 X14.7926 Y4.9466
G01 X14.8197 Y4.9427
G01 X14.8486 Y4.9412
G01 X15.3500 Y4.9412
G01 X15.3803 Y4.9427
G01 X15.4102 Y4.9471
G01 X15.4396 Y4.9545
G01 X15.4682 Y4.9647
G01 X15.4930 Y4.9764
G01 X15.5191 Y4.9917
G01 X15.5239 Y4.9949
G01 X15.5459 Y5.0113
G01 X15.5703 Y5.0337
G01 X15.5887 Y5.0541
G01 X15.6068 Y5.0784
G01 X15.6223 Y5.1044
G01 X15.6353 Y5.1318
G01 X15.6455 Y5.1604
G01 X15.6529 Y5.1898
G01 X15.6573 Y5.2197
G01 X15.6588 Y5.2486
G01 X15.6588 Y10.2514
G01 X15.6573 Y10.2803
G01 X15.6522 Y10.3131
G01 X15.6455 Y10.3396
G01 X15.6363 Y10.3655
G01 X15.6230 Y10.3943
G01 X15.6068 Y10.4216
G01 X15.5878 Y10.4470
G01 X15.5673 Y10.4694
G01 X15.5470 Y10.4878
G01 X15.5340 Y10.4976
G01 X15.5340 Y10.5702
G01 X18.4079 Y13.4442
G01 X18.4355 Y13.4747
G01 X18.4592 Y13.5065
G01 X18.4624 Y13.5113
G01 X18.4827 Y13.5454
G01 X18.4998 Y13.5813
G01 X18.5020 Y13.5866
G01 X18.5153 Y13.6240
G01 X18.5256 Y13.6653
G01 X18.5319 Y13.7075
G01 X18.5340 Y13.7500
G01 X18.5340 Y21.6500
G01 X18.5319 Y21.6925
G01 X18.5256 Y21.7347
G01 X18.5161 Y21.7732
G01 X18.5020 Y21.8134
G01 X18.4998 Y21.8187
G01 X18.4827 Y21.8546
G01 X18.4608 Y21.8911
G01 X18.4355 Y21.9253
G01 X18.4079 Y21.9558
G01 X15.3820 Y24.9818
G01 X15.4362 Y25.0965
G01 X15.4831 Y25.2274
G01 X15.4848 Y25.2329
G01 X15.5179 Y25.3650
G01 X15.5190 Y25.3707
G01 X15.5393 Y25.5082
G01 X15.5462 Y25.6471
G01 X15.5462 Y25.6529
G01 X15.5393 Y25.7918
G01 X15.5185 Y25.9322
G01 X15.4840 Y26.0698
G01 X15.4372 Y26.2008
G01 X15.4350 Y26.2061
G01 X15.3755 Y26.3318
G01 X15.3026 Y26.4535
G01 X15.2180 Y26.5675
G01 X15.1227 Y26.6727
G01 X15.0175 Y26.7680
G01 X14.9035 Y26.8526
G01 X14.7818 Y26.9255
G01 X14.6535 Y26.9862
G01 X14.5198 Y27.0340
G01 X14.3822 Y27.0685
G01 X14.2418 Y27.0893
G01 X14.1000 Y27.0963
G01 X13.9582 Y27.0893
G01 X13.8178 Y27.0685
G01 X13.6802 Y27.0340
G01 X13.5465 Y26.9862
G01 X13.4182 Y26.9255
G01 X13.2965 Y26.8526
G01 X13.1825 Y26.7680
G01 X13.0773 Y26.6727
G01 X12.9820 Y26.5675
G01 X12.8974 Y26.4535
G01 X12.8245 Y26.3318
G01 X12.7638 Y26.2035
G01 X12.7160 Y26.0698
G01 X12.6815 Y25.9322
G01 X12.6607 Y25.7918
G01 X12.6537 Y25.6500
G01 X12.6607 Y25.5082
G01 X12.6815 Y25.3678
G01 X12.7160 Y25.2302
G01 X12.7638 Y25.0965
G01 X12.8245 Y24.9682
G01 X12.8974 Y24.8465
G01 X12.9820 Y24.7325
G01 X13.0773 Y24.6273
G01 X13.1825 Y24.5320
G01 X13.2965 Y24.4474
G01 X13.4182 Y24.3745
G01 X13.5439 Y24.3150
G01 X13.5492 Y24.3128
G00 Z2.0000
G00 X0.7346 Y29.3755
G01 F60.00
G01 Z-0.0499
G01 F120.00
G01 X0.7346 Y1.1245
G01 X0.7348 Y1.1189
G01 X0.7356 Y1.1134
G01 X0.7474 Y1.0591
G01 X0.7507 Y1.0493
G01 X0.7557 Y1.0403
G01 X0.7601 Y1.0345
G01 X0.8068 Y0.9806
G01 X0.8121 Y0.9755
G01 X0.8191 Y0.9703
G01 X0.8256 Y0.9669
G01 X0.8324 Y0.9642
G01 X0.9008 Y0.9441
G01 X0.9090 Y0.9423
G01 X0.9174 Y0.9417
G01 X19.6684 Y0.9417
G01 X19.6739 Y0.9420
G01 X19.6795 Y0.9428
G01 X19.7338 Y0.9546
G01 X19.7435 Y0.9579
G01 X19.7525 Y0.9628
G01 X19.7584 Y0.9673
G01 X19.8123 Y1.0140
G01 X19.8173 Y1.0192
G01 X19.8225 Y1.0263
G01 X19.8260 Y1.0327
G01 X19.8287 Y1.0395
G01 X19.8488 Y1.1079
G01 X19.8506 Y1.1161
G01 X19.8512 Y1.1245
G01 X19.8512 Y29.3755
G01 X19.8509 Y29.3811
G01 X19.8501 Y29.3866
G01 X19.8383 Y29.4409
G01 X19.8350 Y29.4507
G01 X19.8300 Y29.4597
G01 X19.8256 Y29.4655
G01 X19.7789 Y29.5194
G01 X19.7725 Y29.5254
G01 X19.7666 Y29.5297
G01 X19.7602 Y29.5331
G01 X19.7534 Y29.5358
G01 X19.6849 Y29.5559
G01 X19.6767 Y29.5577
G01 X19.6684 Y29.5583
G01 X0.9174 Y29.5583
G01 X0.9118 Y29.5580
G01 X0.9062 Y29.5572
G01 X0.8533 Y29.5458
G01 X0.8463 Y29.5437
G01 X0.8395 Y29.5409
G01 X0.8332 Y29.5372
G01 X0.8285 Y29.5337
G01 X0.7713 Y29.4840
G01 X0.7665 Y29.4785
G01 X0.7632 Y29.4737
G01 X0.7597 Y29.4673
G01 X0.7575 Y29.4619
G01 X0.7366 Y29.3907
G01 X0.7350 Y29.3825
G01 X0.7346 Y29.3755
G00 Z2.0000
G00 X0.6405 Y29.3755
G01 F60.00
G01 Z-0.0499
G01 F120.00
G01 X0.6405 Y1.1245
G01 X0.6412 Y1.1100
G01 X0.6432 Y1.0956
G01 X0.6570 Y1.0331
G01 X0.6604 Y1.0221
G01 X0.6646 Y1.0115
G01 X0.6714 Y0.9978
G01 X0.6774 Y0.9881
G01 X0.6842 Y0.9788
G01 X0.6890 Y0.9729
G01 X0.7399 Y0.9145
G01 X0.7481 Y0.9065
G01 X0.7568 Y0.8992
G01 X0.7629 Y0.8947
G01 X0.7725 Y0.8886
G01 X0.7859 Y0.8815
G01 X0.8000 Y0.8758
G01 X0.8743 Y0.8538
G01 X0.8849 Y0.8511
G01 X0.8956 Y0.8492
G01 X0.9064 Y0.8480
G01 X0.9174 Y0.8476
G01 X19.6684 Y0.8476
G01 X19.6829 Y0.8483
G01 X19.6973 Y0.8504
G01 X19.7598 Y0.8641
G01 X19.7707 Y0.8675
G01 X19.7814 Y0.8717
G01 X19.7950 Y0.8786
G01 X19.8048 Y0.8846
G01 X19.8110 Y0.8890
G01 X19.8200 Y0.8962
G01 X19.8784 Y0.9470
G01 X19.8863 Y0.9552
G01 X19.8936 Y0.9640
G01 X19.9002 Y0.9732
G01 X19.9043 Y0.9797
G01 X19.9113 Y0.9931
G01 X19.9170 Y1.0072
G01 X19.9390 Y1.0814
G01 X19.9417 Y1.0920
G01 X19.9437 Y1.1027
G01 X19.9448 Y1.1136
G01 X19.9452 Y1.1245
G01 X19.9452 Y29.3755
G01 X19.9445 Y29.3900
G01 X19.9425 Y29.4044
G01 X19.9287 Y29.4669
G01 X19.9253 Y29.4779
G01 X19.9195 Y29.4920
G01 X19.9143 Y29.5022
G01 X19.9083 Y29.5119
G01 X19.9039 Y29.5182
G01 X19.8967 Y29.5271
G01 X19.8458 Y29.5855
G01 X19.8376 Y29.5935
G01 X19.8289 Y29.6008
G01 X19.8228 Y29.6053
G01 X19.8132 Y29.6114
G01 X19.7998 Y29.6185
G01 X19.7857 Y29.6242
G01 X19.7114 Y29.6462
G01 X19.7009 Y29.6489
G01 X19.6901 Y29.6508
G01 X19.6793 Y29.6520
G01 X19.6684 Y29.6524
G01 X0.9174 Y29.6524
G01 X0.9028 Y29.6517
G01 X0.8920 Y29.6503
G01 X0.8333 Y29.6377
G01 X0.8186 Y29.6337
G01 X0.8078 Y29.6297
G01 X0.8008 Y29.6267
G01 X0.7907 Y29.6214
G01 X0.7841 Y29.6175
G01 X0.7716 Y29.6087
G01 X0.7129 Y29.5581
G01 X0.7046 Y29.5503
G01 X0.6945 Y29.5390
G01 X0.6898 Y29.5330
G01 X0.6834 Y29.5236
G01 X0.6760 Y29.5103
G01 X0.6700 Y29.4964
G01 X0.6664 Y29.4856
G01 X0.6448 Y29.4115
G01 X0.6432 Y29.4044
G01 X0.6416 Y29.3937
G01 X0.6406 Y29.3828
G01 X0.6405 Y29.3755
G00 Z2.0000
G00 X0.5464 Y29.3755
G01 F60.00
G01 Z-0.0499
G01 F120.00
G01 X0.5464 Y1.1245
G01 X0.5467 Y1.1127
G01 X0.5475 Y1.1010
G01 X0.5498 Y1.0835
G01 X0.5632 Y1.0205
G01 X0.5662 Y1.0085
G01 X0.5717 Y0.9908
G01 X0.5785 Y0.9736
G01 X0.5866 Y0.9570
G01 X0.5926 Y0.9462
G01 X0.5992 Y0.9358
G01 X0.6063 Y0.9257
G01 X0.6179 Y0.9113
G01 X0.6637 Y0.8585
G01 X0.6762 Y0.8450
G01 X0.6898 Y0.8325
G01 X0.6993 Y0.8248
G01 X0.7142 Y0.8141
G01 X0.7299 Y0.8045
G01 X0.7408 Y0.7988
G01 X0.7519 Y0.7937
G01 X0.7691 Y0.7870
G01 X0.7807 Y0.7832
G01 X0.8534 Y0.7620
G01 X0.8649 Y0.7592
G01 X0.8822 Y0.7561
G01 X0.8997 Y0.7542
G01 X0.9174 Y0.7535
G01 X19.6684 Y0.7535
G01 X19.6801 Y0.7538
G01 X19.6918 Y0.7547
G01 X19.7093 Y0.7570
G01 X19.7724 Y0.7704
G01 X19.7844 Y0.7733
G01 X19.8020 Y0.7788
G01 X19.8192 Y0.7856
G01 X19.8359 Y0.7937
G01 X19.8466 Y0.7998
G01 X19.8571 Y0.8064
G01 X19.8672 Y0.8135
G01 X19.8816 Y0.8251
G01 X19.9344 Y0.8708
G01 X19.9478 Y0.8834
G01 X19.9603 Y0.8969
G01 X19.9717 Y0.9113
G01 X19.9821 Y0.9265
G01 X19.9883 Y0.9371
G01 X19.9940 Y0.9479
G01 X19.9992 Y0.9591
G01 X20.0059 Y0.9762
G01 X20.0096 Y0.9879
G01 X20.0309 Y1.0606
G01 X20.0349 Y1.0778
G01 X20.0368 Y1.0894
G01 X20.0387 Y1.1069
G01 X20.0393 Y1.1245
G01 X20.0393 Y29.3755
G01 X20.0390 Y29.3873
G01 X20.0382 Y29.3990
G01 X20.0359 Y29.4165
G01 X20.0225 Y29.4795
G01 X20.0195 Y29.4915
G01 X20.0160 Y29.5033
G01 X20.0119 Y29.5150
G01 X20.0047 Y29.5320
G01 X19.9962 Y29.5485
G01 X19.9865 Y29.5642
G01 X19.9794 Y29.5743
G01 X19.9678 Y29.5887
G01 X19.9220 Y29.6415
G01 X19.9095 Y29.6550
G01 X19.9006 Y29.6634
G01 X19.8864 Y29.6752
G01 X19.8715 Y29.6859
G01 X19.8558 Y29.6955
G01 X19.8449 Y29.7012
G01 X19.8338 Y29.7063
G01 X19.8167 Y29.7130
G01 X19.8050 Y29.7168
G01 X19.7323 Y29.7380
G01 X19.7151 Y29.7420
G01 X19.6977 Y29.7447
G01 X19.6860 Y29.7458
G01 X19.6684 Y29.7465
G01 X0.9174 Y29.7465
G01 X0.9056 Y29.7462
G01 X0.8939 Y29.7453
G01 X0.8764 Y29.7430
G01 X0.8133 Y29.7296
G01 X0.8014 Y29.7267
G01 X0.7837 Y29.7212
G01 X0.7722 Y29.7168
G01 X0.7609 Y29.7118
G01 X0.7498 Y29.7063
G01 X0.7338 Y29.6970
G01 X0.7236 Y29.6901
G01 X0.7136 Y29.6828
G01 X0.7041 Y29.6749
G01 X0.6513 Y29.6292
G01 X0.6379 Y29.6166
G01 X0.6294 Y29.6077
G01 X0.6215 Y29.5984
G01 X0.6140 Y29.5887
G01 X0.6070 Y29.5786
G01 X0.6005 Y29.5682
G01 X0.5917 Y29.5521
G01 X0.5865 Y29.5409
G01 X0.5819 Y29.5296
G01 X0.5761 Y29.5121
G01 X0.5534 Y29.4337
G01 X0.5498 Y29.4165
G01 X0.5481 Y29.4048
G01 X0.5470 Y29.3931
G01 X0.5464 Y29.3755
G00 Z2.0000
G00 X0.4523 Y29.3755
G01 F60.00
G01 Z-0.0499
G01 F120.00
G01 X0.4523 Y1.1245
G01 X0.4527 Y1.1083
G01 X0.4539 Y1.0921
G01 X0.4570 Y1.0679
G01 X0.4601 Y1.0520
G01 X0.4713 Y1.0005
G01 X0.4777 Y0.9757
G01 X0.4859 Y0.9515
G01 X0.4959 Y0.9280
G01 X0.5076 Y0.9053
G01 X0.5210 Y0.8835
G01 X0.5360 Y0.8628
G01 X0.5468 Y0.8497
G01 X0.5926 Y0.7969
G01 X0.6099 Y0.7783
G01 X0.6222 Y0.7666
G01 X0.6417 Y0.7504
G01 X0.6624 Y0.7356
G01 X0.6841 Y0.7224
G01 X0.7067 Y0.7109
G01 X0.7223 Y0.7041
G01 X0.7381 Y0.6981
G01 X0.7542 Y0.6930
G01 X0.8291 Y0.6711
G01 X0.8528 Y0.6656
G01 X0.8769 Y0.6619
G01 X0.9011 Y0.6598
G01 X0.9174 Y0.6595
G01 X19.6684 Y0.6595
G01 X19.6927 Y0.6603
G01 X19.7088 Y0.6619
G01 X19.7249 Y0.6642
G01 X19.7409 Y0.6673
G01 X19.7924 Y0.6785
G01 X19.8171 Y0.6848
G01 X19.8413 Y0.6930
G01 X19.8649 Y0.7030
G01 X19.8876 Y0.7147
G01 X19.9093 Y0.7281
G01 X19.9233 Y0.7380
G01 X19.9432 Y0.7540
G01 X19.9960 Y0.7997
G01 X20.0146 Y0.8171
G01 X20.0318 Y0.8357
G01 X20.0425 Y0.8489
G01 X20.0573 Y0.8695
G01 X20.0705 Y0.8912
G01 X20.0820 Y0.9139
G01 X20.0888 Y0.9294
G01 X20.0947 Y0.9452
G01 X20.0999 Y0.9614
G01 X20.1218 Y1.0362
G01 X20.1272 Y1.0600
G01 X20.1310 Y1.0840
G01 X20.1330 Y1.1083
G01 X20.1334 Y1.1245
G01 X20.1334 Y29.3755
G01 X20.1325 Y29.3998
G01 X20.1310 Y29.4160
G01 X20.1287 Y29.4321
G01 X20.1256 Y29.4480
G01 X20.1144 Y29.4995
G01 X20.1080 Y29.5243
G01 X20.0998 Y29.5485
G01 X20.0898 Y29.5720
G01 X20.0781 Y29.5947
G01 X20.0647 Y29.6165
G01 X20.0549 Y29.6304
G01 X20.0389 Y29.6503
G01 X19.9931 Y29.7031
G01 X19.9758 Y29.7217
G01 X19.9571 Y29.7389
G01 X19.9372 Y29.7547
G01 X19.9162 Y29.7690
G01 X19.9016 Y29.7776
G01 X19.8866 Y29.7855
G01 X19.8713 Y29.7926
G01 X19.8476 Y29.8019
G01 X19.8315 Y29.8070
G01 X19.7566 Y29.8289
G01 X19.7329 Y29.8344
G01 X19.7088 Y29.8381
G01 X19.6927 Y29.8397
G01 X19.6684 Y29.8405
G01 X0.9092 Y29.8404
G01 X0.8849 Y29.8390
G01 X0.8608 Y29.8358
G01 X0.8449 Y29.8327
G01 X0.7850 Y29.8196
G01 X0.7686 Y29.8152
G01 X0.7524 Y29.8099
G01 X0.7365 Y29.8038
G01 X0.7209 Y29.7970
G01 X0.7056 Y29.7894
G01 X0.6908 Y29.7810
G01 X0.6764 Y29.7719
G01 X0.6624 Y29.7620
G01 X0.6425 Y29.7460
G01 X0.5897 Y29.7003
G01 X0.5711 Y29.6829
G01 X0.5595 Y29.6706
G01 X0.5485 Y29.6578
G01 X0.5332 Y29.6375
G01 X0.5239 Y29.6233
G01 X0.5153 Y29.6088
G01 X0.5074 Y29.5938
G01 X0.5002 Y29.5784
G01 X0.4939 Y29.5627
G01 X0.4858 Y29.5386
G01 X0.4661 Y29.4716
G01 X0.4601 Y29.4480
G01 X0.4570 Y29.4321
G01 X0.4547 Y29.4160
G01 X0.4532 Y29.3998
G01 X0.4523 Y29.3755
G00 Z2.0000
G00 X0.3582 Y29.3755
G01 F60.00
G01 Z-0.0499
G01 F120.00
G01 X0.3582 Y1.1245
G01 X0.3587 Y1.1038
G01 X0.3602 Y1.0831
G01 X0.3643 Y1.0523
G01 X0.3682 Y1.0320
G01 X0.3794 Y0.9805
G01 X0.3818 Y0.9699
G01 X0.3875 Y0.9489
G01 X0.3942 Y0.9282
G01 X0.3980 Y0.9180
G01 X0.4062 Y0.8979
G01 X0.4107 Y0.8880
G01 X0.4155 Y0.8782
G01 X0.4257 Y0.8590
G01 X0.4368 Y0.8404
G01 X0.4428 Y0.8312
G01 X0.4553 Y0.8135
G01 X0.4687 Y0.7964
G01 X0.5215 Y0.7352
G01 X0.5287 Y0.7272
G01 X0.5436 Y0.7116
G01 X0.5593 Y0.6967
G01 X0.5757 Y0.6827
G01 X0.5842 Y0.6759
G01 X0.6016 Y0.6632
G01 X0.6105 Y0.6571
G01 X0.6289 Y0.6456
G01 X0.6382 Y0.6402
G01 X0.6574 Y0.6302
G01 X0.6770 Y0.6211
G01 X0.6970 Y0.6130
G01 X0.7071 Y0.6093
G01 X0.7277 Y0.6027
G01 X0.8047 Y0.5802
G01 X0.8249 Y0.5753
G01 X0.8554 Y0.5698
G01 X0.8863 Y0.5665
G01 X0.9174 Y0.5654
G01 X19.6684 Y0.5654
G01 X19.6994 Y0.5665
G01 X19.7200 Y0.5685
G01 X19.7405 Y0.5714
G01 X19.7609 Y0.5753
G01 X19.8124 Y0.5865
G01 X19.8335 Y0.5917
G01 X19.8439 Y0.5947
G01 X19.8543 Y0.5979
G01 X19.8748 Y0.6051
G01 X19.8849 Y0.6091
G01 X19.9049 Y0.6179
G01 X19.9146 Y0.6226
G01 X19.9338 Y0.6328
G01 X19.9525 Y0.6440
G01 X19.9616 Y0.6499
G01 X19.9794 Y0.6624
G01 X19.9965 Y0.6758
G01 X20.0576 Y0.7286
G01 X20.0736 Y0.7432
G01 X20.0813 Y0.7507
G01 X20.0888 Y0.7585
G01 X20.1033 Y0.7746
G01 X20.1169 Y0.7913
G01 X20.1234 Y0.8000
G01 X20.1358 Y0.8177
G01 X20.1472 Y0.8360
G01 X20.1526 Y0.8454
G01 X20.1627 Y0.8645
G01 X20.1718 Y0.8841
G01 X20.1759 Y0.8941
G01 X20.1836 Y0.9143
G01 X20.1902 Y0.9349
G01 X20.2126 Y1.0119
G01 X20.2196 Y1.0422
G01 X20.2244 Y1.0728
G01 X20.2270 Y1.1038
G01 X20.2275 Y1.1245
G01 X20.2275 Y29.3755
G01 X20.2270 Y29.3962
G01 X20.2255 Y29.4169
G01 X20.2215 Y29.4477
G01 X20.2175 Y29.4680
G01 X20.2063 Y29.5195
G01 X20.2012 Y29.5406
G01 X20.1982 Y29.5511
G01 X20.1915 Y29.5718
G01 X20.1877 Y29.5820
G01 X20.1795 Y29.6021
G01 X20.1750 Y29.6120
G01 X20.1653 Y29.6314
G01 X20.1600 Y29.6410
G01 X20.1546 Y29.6504
G01 X20.1429 Y29.6688
G01 X20.1304 Y29.6865
G01 X20.1170 Y29.7036
G01 X20.0642 Y29.7648
G01 X20.0571 Y29.7728
G01 X20.0421 Y29.7884
G01 X20.0264 Y29.8033
G01 X20.0183 Y29.8104
G01 X20.0100 Y29.8173
G01 X19.9929 Y29.8306
G01 X19.9752 Y29.8429
G01 X19.9661 Y29.8488
G01 X19.9475 Y29.8598
G01 X19.9284 Y29.8698
G01 X19.9087 Y29.8789
G01 X19.8988 Y29.8831
G01 X19.8786 Y29.8907
G01 X19.8580 Y29.8973
G01 X19.7810 Y29.9198
G01 X19.7608 Y29.9247
G01 X19.7303 Y29.9302
G01 X19.7097 Y29.9326
G01 X19.6787 Y29.9345
G01 X0.9070 Y29.9345
G01 X0.8760 Y29.9326
G01 X0.8452 Y29.9286
G01 X0.8249 Y29.9247
G01 X0.7628 Y29.9110
G01 X0.7418 Y29.9053
G01 X0.7211 Y29.8986
G01 X0.7008 Y29.8909
G01 X0.6809 Y29.8821
G01 X0.6614 Y29.8724
G01 X0.6425 Y29.8617
G01 X0.6241 Y29.8501
G01 X0.6063 Y29.8376
G01 X0.5892 Y29.8242
G01 X0.5809 Y29.8171
G01 X0.5281 Y29.7714
G01 X0.5200 Y29.7642
G01 X0.5044 Y29.7493
G01 X0.4896 Y29.7336
G01 X0.4755 Y29.7171
G01 X0.4623 Y29.7000
G01 X0.4499 Y29.6823
G01 X0.4385 Y29.6640
G01 X0.4280 Y29.6451
G01 X0.4184 Y29.6258
G01 X0.4098 Y29.6059
G01 X0.4021 Y29.5857
G01 X0.3955 Y29.5651
G01 X0.3759 Y29.4981
G01 X0.3682 Y29.4680
G01 X0.3643 Y29.4477
G01 X0.3613 Y29.4272
G01 X0.3587 Y29.3962
G01 X0.3582 Y29.3755
G00 Z2.0000
G00 X17.9970 Y7.2470
G01 F60.00
G01 Z-0.0499
G01 F120.00
G01 X18.0561 Y7.2469
G01 X18.0927 Y7.2451
G01 X18.1047 Y7.2439
G01 X18.1350 Y7.2395
G01 X18.1529 Y7.2362
G01 X18.1943 Y7.2256
G01 X18.2346 Y7.2114
G01 X18.2457 Y7.2067
G01 X18.2734 Y7.1937
G01 X18.2843 Y7.1883
G01 X18.2948 Y7.1823
G01 X18.3261 Y7.1632
G01 X18.3360 Y7.1562
G01 X18.3653 Y7.1342
G01 X18.3926 Y7.1098
G01 X18.4014 Y7.1014
G01 X18.4262 Y7.0744
G01 X18.4342 Y7.0653
G01 X18.4416 Y7.0557
G01 X18.4598 Y7.0311
G01 X18.4665 Y7.0210
G01 X18.4883 Y6.9843
G01 X18.5067 Y6.9457
G01 X18.5135 Y6.9289
G01 X18.5256 Y6.8943
G01 X18.5362 Y6.8529
G01 X18.5395 Y6.8350
G01 X18.5439 Y6.8047
G01 X18.5451 Y6.7927
G01 X18.5467 Y6.7621
G01 X18.5470 Y6.7500
G01 X18.5470 Y5.9970
G01 X18.5530 Y5.9970
G01 X18.5530 Y6.7874
G01 X18.5466 Y6.8507
G01 X18.5090 Y6.9640
G01 X18.4473 Y7.0641
G01 X18.3641 Y7.1473
G01 X18.2640 Y7.2090
G01 X18.1507 Y7.2466
G01 X18.0874 Y7.2530
G01 X17.9970 Y7.2530
G01 X17.9970 Y7.2470
G00 Z2.0000
G00 X17.9029 Y7.1529
G01 F60.00
G01 Z-0.0499
G01 F120.00
G01 X18.0500 Y7.1529
G01 X18.0895 Y7.1509
G01 X18.1286 Y7.1451
G01 X18.1597 Y7.1375
G01 X18.1741 Y7.1332
G01 X18.2042 Y7.1222
G01 X18.2399 Y7.1053
G01 X18.2675 Y7.0890
G01 X18.2800 Y7.0807
G01 X18.3027 Y7.0638
G01 X18.3113 Y7.0565
G01 X18.3349 Y7.0349
G01 X18.3614 Y7.0056
G01 X18.3850 Y6.9738
G01 X18.4016 Y6.9464
G01 X18.4087 Y6.9332
G01 X18.4222 Y6.9042
G01 X18.4355 Y6.8669
G01 X18.4451 Y6.8286
G01 X18.4500 Y6.7969
G01 X18.4515 Y6.7820
G01 X18.4529 Y6.7500
G01 X18.4529 Y5.9029
G01 X18.6471 Y5.9029
G01 X18.6471 Y6.7922
G01 X18.6391 Y6.8705
G01 X18.5949 Y7.0041
G01 X18.5216 Y7.1229
G01 X18.4229 Y7.2216
G01 X18.3041 Y7.2949
G01 X18.1705 Y7.3391
G01 X18.0922 Y7.3471
G01 X17.9029 Y7.3471
G01 X17.9029 Y7.1529
G00 Z2.0000
G00 X17.8088 Y7.0588
G01 F60.00
G01 Z-0.0499
G01 F120.00
G01 X18.0514 Y7.0588
G01 X18.0803 Y7.0573
G01 X18.1131 Y7.0522
G01 X18.1396 Y7.0455
G01 X18.1682 Y7.0353
G01 X18.1956 Y7.0223
G01 X18.2191 Y7.0083
G01 X18.2459 Y6.9887
G01 X18.2663 Y6.9703
G01 X18.2703 Y6.9663
G01 X18.2905 Y6.9436
G01 X18.3068 Y6.9216
G01 X18.3209 Y6.8981
G01 X18.3353 Y6.8682
G01 X18.3455 Y6.8396
G01 X18.3522 Y6.8131
G01 X18.3534 Y6.8074
G01 X18.3575 Y6.7774
G01 X18.3588 Y6.7500
G01 X18.3588 Y5.8088
G01 X18.7412 Y5.8088
G01 X18.7412 Y6.7970
G01 X18.7317 Y6.8903
G01 X18.6807 Y7.0441
G01 X18.5959 Y7.1816
G01 X18.4816 Y7.2959
G01 X18.3441 Y7.3807
G01 X18.1903 Y7.4317
G01 X18.0970 Y7.4412
G01 X17.8088 Y7.4412
G01 X17.8088 Y7.0588
G00 Z2.0000
G00 X16.0351 Y5.3157
G01 F60.00
G01 Z-0.0499
G01 F120.00
G01 X16.0644 Y5.3186
G01 X16.0860 Y5.3194
G01 X16.0968 Y5.3194
G01 X16.1076 Y5.3191
G01 X16.1292 Y5.3178
G01 X16.1507 Y5.3153
G01 X16.1613 Y5.3137
G01 X16.1826 Y5.3097
G01 X16.2036 Y5.3047
