(G-CODE GENERATED BY FLATCAM v8.994 - www.flatcam.org - Version Date: 2020/11/7)

(Name: Zoetrope Carusel V4 - External Power Switch_V1-Edge_Cuts.gbr_cutout_cnc)
(Type: G-code from Geometry)
(Units: MM)

(Created on Saturday, 07 March 2026 at 17:58)

(This preprocessor is the default preprocessor used by FlatCAM.)
(It is made to work with MACH3 compatible motion controllers.)

(TOOL DIAMETER: 1.5 mm)
(Feedrate_XY: 75.0 mm/min)
(Feedrate_Z: 30.0 mm/min)
(Feedrate rapids 1500.0 mm/min)

(Z_Cut: -1.8 mm)
(DepthPerCut: 0.5 mm <=>4 passes)
(Z_Move: 2.0 mm)
(Z Start: None mm)
(Z End: 15.0 mm)
(X,Y End: None mm)
(Steps per circle: 64)
(Preprocessor Geometry: default)

(X range:   -0.5822 ...   21.1679  mm)
(Y range:   -0.3750 ...   30.8750  mm)

(Spindle Speed: 10000.0 RPM)
G21
G90
G94

G01 F75.00

M5
G00 Z15.0000
G00 X0.0000 Y0.0000
T1
M6    
(MSG, Change to Tool Dia = 1.5000)
M0
G00 Z15.0000

M03 S10000.0
G01 F75.00
G00 X8.6429 Y-0.3750
G01 F30.00
G01 Z-0.5000
G01 F75.00
G01 X0.2678 Y-0.3750
G01 X0.1845 Y-0.3709
G01 X0.1020 Y-0.3587
G01 X0.0211 Y-0.3384
G01 X-0.0574 Y-0.3103
G01 X-0.1328 Y-0.2746
G01 X-0.2044 Y-0.2318
G01 X-0.2714 Y-0.1821
G01 X-0.3332 Y-0.1261
G01 X-0.3892 Y-0.0642
G01 X-0.4389 Y0.0028
G01 X-0.4818 Y0.0743
G01 X-0.5175 Y0.1497
G01 X-0.5456 Y0.2282
G01 X-0.5658 Y0.3092
G01 X-0.5781 Y0.3917
G01 X-0.5822 Y0.4750
G01 X-0.5822 Y13.6000
G00 X-0.5822 Y13.6000
G01 F30.00
G01 Z-1.0000
G01 F75.00
G01 X-0.5822 Y0.4750
G01 X-0.5781 Y0.3917
G01 X-0.5658 Y0.3092
G01 X-0.5456 Y0.2282
G01 X-0.5175 Y0.1497
G01 X-0.4818 Y0.0743
G01 X-0.4389 Y0.0028
G01 X-0.3892 Y-0.0642
G01 X-0.3332 Y-0.1261
G01 X-0.2714 Y-0.1821
G01 X-0.2044 Y-0.2318
G01 X-0.1328 Y-0.2746
G01 X-0.0574 Y-0.3103
G01 X0.0211 Y-0.3384
G01 X0.1020 Y-0.3587
G01 X0.1845 Y-0.3709
G01 X0.2678 Y-0.3750
G01 X8.6429 Y-0.3750
G00 X8.6429 Y-0.3750
G01 F30.00
G01 Z-1.5000
G01 F75.00
G01 X0.2678 Y-0.3750
G01 X0.1845 Y-0.3709
G01 X0.1020 Y-0.3587
G01 X0.0211 Y-0.3384
G01 X-0.0574 Y-0.3103
G01 X-0.1328 Y-0.2746
G01 X-0.2044 Y-0.2318
G01 X-0.2714 Y-0.1821
G01 X-0.3332 Y-0.1261
G01 X-0.3892 Y-0.0642
G01 X-0.4389 Y0.0028
G01 X-0.4818 Y0.0743
G01 X-0.5175 Y0.1497
G01 X-0.5456 Y0.2282
G01 X-0.5658 Y0.3092
G01 X-0.5781 Y0.3917
G01 X-0.5822 Y0.4750
G01 X-0.5822 Y13.6000
G00 X-0.5822 Y13.6000
G01 F30.00
G01 Z-1.8000
G01 F75.00
G01 X-0.5822 Y0.4750
G01 X-0.5781 Y0.3917
G01 X-0.5658 Y0.3092
G01 X-0.5456 Y0.2282
G01 X-0.5175 Y0.1497
G01 X-0.4818 Y0.0743
G01 X-0.4389 Y0.0028
G01 X-0.3892 Y-0.0642
G01 X-0.3332 Y-0.1261
G01 X-0.2714 Y-0.1821
G01 X-0.2044 Y-0.2318
G01 X-0.1328 Y-0.2746
G01 X-0.0574 Y-0.3103
G01 X0.0211 Y-0.3384
G01 X0.1020 Y-0.3587
G01 X0.1845 Y-0.3709
G01 X0.2678 Y-0.3750
G01 X8.6429 Y-0.3750
G00 Z2.0000
G00 X-0.5822 Y17.1000
G01 F30.00
G01 Z-0.5000
G01 F75.00
G01 X-0.5822 Y30.0250
G01 X-0.5781 Y30.1083
G01 X-0.5658 Y30.1908
G01 X-0.5456 Y30.2718
G01 X-0.5175 Y30.3503
G01 X-0.4818 Y30.4257
G01 X-0.4389 Y30.4972
G01 X-0.3892 Y30.5642
G01 X-0.3332 Y30.6261
G01 X-0.2714 Y30.6821
G01 X-0.2044 Y30.7318
G01 X-0.1328 Y30.7746
G01 X-0.0574 Y30.8103
G01 X0.0211 Y30.8384
G01 X0.1020 Y30.8587
G01 X0.1845 Y30.8709
G01 X0.2678 Y30.8750
G01 X8.6429 Y30.8750
G00 X8.6429 Y30.8750
G01 F30.00
G01 Z-1.0000
G01 F75.00
G01 X0.2678 Y30.8750
G01 X0.1845 Y30.8709
G01 X0.1020 Y30.8587
G01 X0.0211 Y30.8384
G01 X-0.0574 Y30.8103
G01 X-0.1328 Y30.7746
G01 X-0.2044 Y30.7318
G01 X-0.2714 Y30.6821
G01 X-0.3332 Y30.6261
G01 X-0.3892 Y30.5642
G01 X-0.4389 Y30.4972
G01 X-0.4818 Y30.4257
G01 X-0.5175 Y30.3503
G01 X-0.5456 Y30.2718
G01 X-0.5658 Y30.1908
G01 X-0.5781 Y30.1083
G01 X-0.5822 Y30.0250
G01 X-0.5822 Y17.1000
G00 X-0.5822 Y17.1000
G01 F30.00
G01 Z-1.5000
G01 F75.00
G01 X-0.5822 Y30.0250
G01 X-0.5781 Y30.1083
G01 X-0.5658 Y30.1908
G01 X-0.5456 Y30.2718
G01 X-0.5175 Y30.3503
G01 X-0.4818 Y30.4257
G01 X-0.4389 Y30.4972
G01 X-0.3892 Y30.5642
G01 X-0.3332 Y30.6261
G01 X-0.2714 Y30.6821
G01 X-0.2044 Y30.7318
G01 X-0.1328 Y30.7746
G01 X-0.0574 Y30.8103
G01 X0.0211 Y30.8384
G01 X0.1020 Y30.8587
G01 X0.1845 Y30.8709
G01 X0.2678 Y30.8750
G01 X8.6429 Y30.8750
G00 X8.6429 Y30.8750
G01 F30.00
G01 Z-1.8000
G01 F75.00
G01 X0.2678 Y30.8750
G01 X0.1845 Y30.8709
G01 X0.1020 Y30.8587
G01 X0.0211 Y30.8384
G01 X-0.0574 Y30.8103
G01 X-0.1328 Y30.7746
G01 X-0.2044 Y30.7318
G01 X-0.2714 Y30.6821
G01 X-0.3332 Y30.6261
G01 X-0.3892 Y30.5642
G01 X-0.4389 Y30.4972
G01 X-0.4818 Y30.4257
G01 X-0.5175 Y30.3503
G01 X-0.5456 Y30.2718
G01 X-0.5658 Y30.1908
G01 X-0.5781 Y30.1083
G01 X-0.5822 Y30.0250
G01 X-0.5822 Y17.1000
G00 Z2.0000
G00 X12.1429 Y30.8750
G01 F30.00
G01 Z-0.5000
G01 F75.00
G01 X20.3179 Y30.8750
G01 X20.4012 Y30.8709
G01 X20.4837 Y30.8587
G01 X20.5646 Y30.8384
G01 X20.6431 Y30.8103
G01 X20.7186 Y30.7746
G01 X20.7901 Y30.7318
G01 X20.8571 Y30.6821
G01 X20.9189 Y30.6261
G01 X20.9749 Y30.5642
G01 X21.0246 Y30.4972
G01 X21.0675 Y30.4257
G01 X21.1032 Y30.3503
G01 X21.1313 Y30.2718
G01 X21.1515 Y30.1908
G01 X21.1638 Y30.1083
G01 X21.1679 Y30.0250
G01 X21.1679 Y17.1000
G00 X21.1679 Y17.1000
G01 F30.00
G01 Z-1.0000
G01 F75.00
G01 X21.1679 Y30.0250
G01 X21.1638 Y30.1083
G01 X21.1515 Y30.1908
G01 X21.1313 Y30.2718
G01 X21.1032 Y30.3503
G01 X21.0675 Y30.4257
G01 X21.0246 Y30.4972
G01 X20.9749 Y30.5642
G01 X20.9189 Y30.6261
G01 X20.8571 Y30.6821
G01 X20.7901 Y30.7318
G01 X20.7186 Y30.7746
G01 X20.6431 Y30.8103
G01 X20.5646 Y30.8384
G01 X20.4837 Y30.8587
G01 X20.4012 Y30.8709
G01 X20.3179 Y30.8750
G01 X12.1429 Y30.8750
G00 X12.1429 Y30.8750
G01 F30.00
G01 Z-1.5000
G01 F75.00
G01 X20.3179 Y30.8750
G01 X20.4012 Y30.8709
G01 X20.4837 Y30.8587
G01 X20.5646 Y30.8384
G01 X20.6431 Y30.8103
G01 X20.7186 Y30.7746
G01 X20.7901 Y30.7318
G01 X20.8571 Y30.6821
G01 X20.9189 Y30.6261
G01 X20.9749 Y30.5642
G01 X21.0246 Y30.4972
G01 X21.0675 Y30.4257
G01 X21.1032 Y30.3503
G01 X21.1313 Y30.2718
G01 X21.1515 Y30.1908
G01 X21.1638 Y30.1083
G01 X21.1679 Y30.0250
G01 X21.1679 Y17.1000
G00 X21.1679 Y17.1000
G01 F30.00
G01 Z-1.8000
G01 F75.00
G01 X21.1679 Y30.0250
G01 X21.1638 Y30.1083
G01 X21.1515 Y30.1908
G01 X21.1313 Y30.2718
G01 X21.1032 Y30.3503
G01 X21.0675 Y30.4257
G01 X21.0246 Y30.4972
G01 X20.9749 Y30.5642
G01 X20.9189 Y30.6261
G01 X20.8571 Y30.6821
G01 X20.7901 Y30.7318
G01 X20.7186 Y30.7746
G01 X20.6431 Y30.8103
G01 X20.5646 Y30.8384
G01 X20.4837 Y30.8587
G01 X20.4012 Y30.8709
G01 X20.3179 Y30.8750
G01 X12.1429 Y30.8750
G00 Z2.0000
G00 X21.1679 Y13.6000
G01 F30.00
G01 Z-0.5000
G01 F75.00
G01 X21.1679 Y0.4750
G01 X21.1638 Y0.3917
G01 X21.1515 Y0.3092
G01 X21.1313 Y0.2282
G01 X21.1032 Y0.1497
G01 X21.0675 Y0.0743
G01 X21.0246 Y0.0028
G01 X20.9749 Y-0.0642
G01 X20.9189 Y-0.1261
G01 X20.8571 Y-0.1821
G01 X20.7901 Y-0.2318
G01 X20.7186 Y-0.2746
G01 X20.6431 Y-0.3103
G01 X20.5646 Y-0.3384
G01 X20.4837 Y-0.3587
G01 X20.4012 Y-0.3709
G01 X20.3179 Y-0.3750
G01 X12.1429 Y-0.3750
G00 X12.1429 Y-0.3750
G01 F30.00
G01 Z-1.0000
G01 F75.00
G01 X20.3179 Y-0.3750
G01 X20.4012 Y-0.3709
G01 X20.4837 Y-0.3587
G01 X20.5646 Y-0.3384
G01 X20.6431 Y-0.3103
G01 X20.7186 Y-0.2746
G01 X20.7901 Y-0.2318
G01 X20.8571 Y-0.1821
G01 X20.9189 Y-0.1261
G01 X20.9749 Y-0.0642
G01 X21.0246 Y0.0028
G01 X21.0675 Y0.0743
G01 X21.1032 Y0.1497
G01 X21.1313 Y0.2282
G01 X21.1515 Y0.3092
G01 X21.1638 Y0.3917
G01 X21.1679 Y0.4750
G01 X21.1679 Y13.6000
G00 X21.1679 Y13.6000
G01 F30.00
G01 Z-1.5000
G01 F75.00
G01 X21.1679 Y0.4750
G01 X21.1638 Y0.3917
G01 X21.1515 Y0.3092
G01 X21.1313 Y0.2282
G01 X21.1032 Y0.1497
G01 X21.0675 Y0.0743
G01 X21.0246 Y0.0028
G01 X20.9749 Y-0.0642
G01 X20.9189 Y-0.1261
G01 X20.8571 Y-0.1821
G01 X20.7901 Y-0.2318
G01 X20.7186 Y-0.2746
G01 X20.6431 Y-0.3103
G01 X20.5646 Y-0.3384
G01 X20.4837 Y-0.3587
G01 X20.4012 Y-0.3709
G01 X20.3179 Y-0.3750
G01 X12.1429 Y-0.3750
G00 X12.1429 Y-0.3750
G01 F30.00
G01 Z-1.8000
G01 F75.00
G01 X20.3179 Y-0.3750
G01 X20.4012 Y-0.3709
G01 X20.4837 Y-0.3587
G01 X20.5646 Y-0.3384
G01 X20.6431 Y-0.3103
G01 X20.7186 Y-0.2746
G01 X20.7901 Y-0.2318
G01 X20.8571 Y-0.1821
G01 X20.9189 Y-0.1261
G01 X20.9749 Y-0.0642
G01 X21.0246 Y0.0028
G01 X21.0675 Y0.0743
G01 X21.1032 Y0.1497
G01 X21.1313 Y0.2282
G01 X21.1515 Y0.3092
G01 X21.1638 Y0.3917
G01 X21.1679 Y0.4750
G01 X21.1679 Y13.6000
G00 Z2.0000
M05
G00 Z2.0000
G00 Z15.00


