(G-CODE GENERATED BY FLATCAM v8.994 - www.flatcam.org - Version Date: 2020/11/7)

(Name: Photoeye PCB_V1-F_Cu.gbr_iso_combined_cnc)
(Type: G-code from Geometry)
(Units: MM)

(Created on Sunday, 08 March 2026 at 15:42)

(This preprocessor is the default preprocessor used by FlatCAM.)
(It is made to work with MACH3 compatible motion controllers.)

(TOOL DIAMETER: 0.1176 mm)
(Feedrate_XY: 90.0 mm/min)
(Feedrate_Z: 30.0 mm/min)
(Feedrate rapids 1500.0 mm/min)

(Z_Cut: -0.0499 mm)
(Z_Move: 2.0 mm)
(Z Start: None mm)
(Z End: 20.0 mm)
(X,Y End: None mm)
(Steps per circle: 64)
(Preprocessor Geometry: default)

(X range:   -0.0287 ...   50.0287  mm)
(Y range:   -0.0287 ...   20.0287  mm)

(Spindle Speed: 10000.0 RPM)
G21
G90
G94

G01 F90.00

M5
G00 Z15.0000
G00 X0.0000 Y0.0000
T2
M6    
(MSG, Change to Tool Dia = 0.1176)
M0
G00 Z15.0000

M03 S10000.0
G01 F90.00
G00 X3.4970 Y4.4654
G01 F30.00
G01 Z-0.0499
G01 F90.00
G01 X3.4970 Y4.3751
G01 X3.5034 Y4.3118
G01 X3.5410 Y4.1985
G01 X3.6027 Y4.0984
G01 X3.6859 Y4.0152
G01 X3.7860 Y3.9535
G01 X3.8993 Y3.9159
G01 X3.9626 Y3.9095
G01 X4.7530 Y3.9095
G01 X4.7530 Y3.9155
G01 X4.0000 Y3.9155
G01 X3.9879 Y3.9158
G01 X3.9573 Y3.9174
G01 X3.9453 Y3.9186
G01 X3.9150 Y3.9230
G01 X3.8971 Y3.9263
G01 X3.8557 Y3.9369
G01 X3.8211 Y3.9490
G01 X3.8043 Y3.9558
G01 X3.7657 Y3.9742
G01 X3.7341 Y3.9928
G01 X3.7239 Y3.9993
G01 X3.7140 Y4.0063
G01 X3.6895 Y4.0246
G01 X3.6801 Y4.0322
G01 X3.6486 Y4.0611
G01 X3.6197 Y4.0926
G01 X3.6121 Y4.1020
G01 X3.5938 Y4.1265
G01 X3.5868 Y4.1364
G01 X3.5803 Y4.1466
G01 X3.5617 Y4.1782
G01 X3.5433 Y4.2168
G01 X3.5386 Y4.2279
G01 X3.5282 Y4.2567
G01 X3.5244 Y4.2682
G01 X3.5212 Y4.2799
G01 X3.5126 Y4.3155
G01 X3.5069 Y4.3518
G01 X3.5054 Y4.3638
G01 X3.5031 Y4.4064
G01 X3.5030 Y4.4654
G01 X3.4970 Y4.4654
G00 Z2.0000
G00 X3.4029 Y4.5595
G01 F30.00
G01 Z-0.0499
G01 F90.00
G01 X3.4029 Y4.3703
G01 X3.4109 Y4.2920
G01 X3.4551 Y4.1584
G01 X3.5284 Y4.0396
G01 X3.6271 Y3.9409
G01 X3.7459 Y3.8676
G01 X3.8795 Y3.8234
G01 X3.9578 Y3.8154
G01 X4.8471 Y3.8154
G01 X4.8471 Y4.0096
G01 X3.9925 Y4.0098
G01 X3.9642 Y4.0112
G01 X3.9531 Y4.0125
G01 X3.9214 Y4.0174
G01 X3.8903 Y4.0250
G01 X3.8795 Y4.0281
G01 X3.8493 Y4.0389
G01 X3.8390 Y4.0433
G01 X3.8134 Y4.0555
G01 X3.8036 Y4.0609
G01 X3.7793 Y4.0755
G01 X3.7700 Y4.0818
G01 X3.7503 Y4.0965
G01 X3.7415 Y4.1035
G01 X3.7206 Y4.1224
G01 X3.7099 Y4.1331
G01 X3.6886 Y4.1569
G01 X3.6650 Y4.1887
G01 X3.6447 Y4.2226
G01 X3.6293 Y4.2549
G01 X3.6251 Y4.2653
G01 X3.6168 Y4.2884
G01 X3.6125 Y4.3028
G01 X3.6049 Y4.3339
G01 X3.5991 Y4.3730
G01 X3.5971 Y4.4125
G01 X3.5971 Y4.5595
G01 X3.4029 Y4.5595
G00 Z2.0000
G00 X3.3088 Y4.6536
G01 F30.00
G01 Z-0.0499
G01 F90.00
G01 X3.3088 Y4.3655
G01 X3.3183 Y4.2722
G01 X3.3693 Y4.1184
G01 X3.4541 Y3.9809
G01 X3.5684 Y3.8666
G01 X3.7059 Y3.7818
G01 X3.8597 Y3.7308
G01 X3.9530 Y3.7213
G01 X4.9412 Y3.7213
G01 X4.9412 Y4.1037
G01 X3.9986 Y4.1037
G01 X3.9697 Y4.1052
G01 X3.9426 Y4.1091
G01 X3.9369 Y4.1103
G01 X3.9090 Y4.1174
G01 X3.8818 Y4.1272
G01 X3.8519 Y4.1416
G01 X3.8261 Y4.1574
G01 X3.8041 Y4.1738
G01 X3.7837 Y4.1922
G01 X3.7613 Y4.2166
G01 X3.7432 Y4.2409
G01 X3.7277 Y4.2669
G01 X3.7147 Y4.2943
G01 X3.7045 Y4.3229
G01 X3.6978 Y4.3494
G01 X3.6966 Y4.3551
G01 X3.6926 Y4.3837
G01 X3.6912 Y4.4125
G01 X3.6912 Y4.6536
G01 X3.3088 Y4.6536
G00 Z2.0000
G00 X3.3088 Y5.2714
G01 F30.00
G01 Z-0.0499
G01 F90.00
G01 X3.6912 Y5.2714
G01 X3.6912 Y5.5125
G01 X3.6926 Y5.5413
G01 X3.6971 Y5.5727
G01 X3.7037 Y5.5994
G01 X3.7137 Y5.6280
G01 X3.7159 Y5.6333
G01 X3.7277 Y5.6581
G01 X3.7417 Y5.6816
G01 X3.7595 Y5.7061
G01 X3.7816 Y5.7309
G01 X3.8041 Y5.7512
G01 X3.8309 Y5.7708
G01 X3.8544 Y5.7848
G01 X3.8792 Y5.7966
G01 X3.9104 Y5.8080
G01 X3.9412 Y5.8156
G01 X3.9697 Y5.8198
G01 X4.0000 Y5.8213
G01 X6.5000 Y5.8213
G01 X6.5331 Y5.8195
G01 X6.5602 Y5.8154
G01 X6.5869 Y5.8088
G01 X6.6182 Y5.7978
G01 X6.6481 Y5.7834
G01 X6.6716 Y5.7693
G01 X6.6936 Y5.7530
G01 X6.7184 Y5.7309
G01 X6.7405 Y5.7061
G01 X6.7568 Y5.6841
G01 X6.7716 Y5.6593
G01 X6.7853 Y5.6307
G01 X6.7955 Y5.6021
G01 X6.8029 Y5.5727
G01 X6.8073 Y5.5428
G01 X6.8088 Y5.5125
G01 X6.8088 Y5.2713
G01 X7.1912 Y5.2713
G01 X7.1912 Y5.5595
G01 X7.1817 Y5.6528
G01 X7.1307 Y5.8066
G01 X7.0459 Y5.9441
G01 X6.9316 Y6.0584
G01 X6.8915 Y6.0832
G01 X6.8858 Y6.0873
G01 X6.8817 Y6.0911
G01 X6.8303 Y6.1485
G01 X6.8262 Y6.1545
G01 X6.8229 Y6.1610
G01 X6.8208 Y6.1665
G01 X6.8190 Y6.1735
G01 X6.8073 Y6.2454
G01 X6.8068 Y6.2527
G01 X6.8073 Y6.2614
G01 X6.8088 Y6.2685
G01 X6.8111 Y6.2755
G01 X6.8395 Y6.3409
G01 X6.8444 Y6.3499
G01 X6.8507 Y6.3579
G01 X6.8583 Y6.3646
G01 X6.9188 Y6.4052
G01 X6.9250 Y6.4088
G01 X6.9329 Y6.4121
G01 X6.9398 Y6.4139
G01 X6.9812 Y6.4203
G01 X6.9886 Y6.4208
G01 X10.0470 Y6.4208
G01 X10.1404 Y6.4303
G01 X10.2943 Y6.4813
G01 X10.4319 Y6.5662
G01 X10.4840 Y6.6182
G01 X10.4882 Y6.6219
G01 X10.4939 Y6.6259
G01 X10.5577 Y6.6608
G01 X10.5642 Y6.6638
G01 X10.5697 Y6.6657
G01 X10.5767 Y6.6673
G01 X10.6107 Y6.6708
G01 X14.5681 Y6.6708
G01 X14.7018 Y6.6974
G01 X14.8276 Y6.7495
G01 X14.9409 Y6.8252
G01 X16.7330 Y8.6173
G01 X16.7393 Y8.6228
G01 X16.7451 Y8.6266
G01 X16.8077 Y8.6608
G01 X16.8142 Y8.6638
G01 X16.8197 Y8.6657
G01 X16.8267 Y8.6673
G01 X16.8607 Y8.6708
G01 X18.1378 Y8.6708
G01 X18.1434 Y8.6705
G01 X18.1489 Y8.6697
G01 X18.1543 Y8.6684
G01 X18.2214 Y8.6487
G01 X18.2282 Y8.6463
G01 X18.2333 Y8.6437
G01 X18.2394 Y8.6399
G01 X18.2659 Y8.6184
G01 X20.2591 Y6.6252
G01 X20.3724 Y6.5495
G01 X20.4982 Y6.4974
G01 X20.6319 Y6.4708
G01 X21.4901 Y6.4708
G01 X21.4957 Y6.4705
G01 X21.5012 Y6.4697
G01 X21.5341 Y6.4604
G01 X21.5677 Y6.4527
G01 X21.5772 Y6.4487
G01 X21.5917 Y6.4399
G01 X21.6182 Y6.4184
G01 X21.7576 Y6.2787
G01 X21.7611 Y6.2743
G01 X21.7648 Y6.2684
G01 X21.7983 Y6.2071
G01 X21.8013 Y6.2006
G01 X21.8032 Y6.1951
G01 X21.8048 Y6.1881
G01 X21.8083 Y6.1541
G01 X21.8082 Y5.6721
G01 X21.8075 Y5.6652
G01 X21.8063 Y5.6597
G01 X21.7853 Y5.5885
G01 X21.7825 Y5.5818
G01 X21.7797 Y5.5767
G01 X21.7754 Y5.5708
G01 X21.7715 Y5.5664
G01 X21.7155 Y5.5177
G01 X21.7097 Y5.5133
G01 X21.7022 Y5.5090
G01 X21.6894 Y5.5036
G01 X21.5781 Y5.4622
G01 X21.4765 Y5.3860
G01 X21.4003 Y5.2844
G01 X21.3556 Y5.1644
G01 X21.3503 Y5.1152
G01 X21.3503 Y3.6098
G01 X21.3556 Y3.5606
G01 X21.4003 Y3.4406
G01 X21.4765 Y3.3390
G01 X21.5781 Y3.2628
G01 X21.6981 Y3.2181
G01 X21.7473 Y3.2128
G01 X22.5972 Y3.2128
G01 X22.6041 Y3.2122
G01 X22.6123 Y3.2104
G01 X22.6808 Y3.1903
G01 X22.6862 Y3.1883
G01 X22.6913 Y3.1857
G01 X22.6986 Y3.1810
G01 X22.7203 Y3.1635
G01 X22.7250 Y3.1593
G01 X23.7316 Y2.1527
G01 X23.8449 Y2.0770
G01 X23.9707 Y2.0249
G01 X24.1044 Y1.9983
G01 X36.2581 Y1.9983
G01 X36.3918 Y2.0249
G01 X36.5176 Y2.0770
G01 X36.6309 Y2.1527
G01 X36.6901 Y2.2119
G01 X36.7017 Y2.2214
G01 X36.7102 Y2.2263
G01 X36.7366 Y2.2375
G01 X36.7606 Y2.2506
G01 X36.7700 Y2.2544
G01 X36.7771 Y2.2561
G01 X36.7842 Y2.2570
G01 X36.7911 Y2.2585
G01 X36.8013 Y2.2591
G01 X36.8125 Y2.2578
G01 X36.8329 Y2.2584
G01 X36.8397 Y2.2580
G01 X36.9015 Y2.2483
G01 X37.0985 Y2.2483
G01 X37.2931 Y2.2791
G01 X37.4805 Y2.3400
G01 X37.6560 Y2.4295
G01 X37.8154 Y2.5453
G01 X37.9547 Y2.6846
G01 X38.0705 Y2.8440
G01 X38.1600 Y3.0195
G01 X38.2209 Y3.2069
G01 X38.2517 Y3.4015
G01 X38.2517 Y3.5985
G01 X38.2209 Y3.7931
G01 X38.1600 Y3.9805
G01 X38.0705 Y4.1560
G01 X37.9547 Y4.3154
G01 X37.8154 Y4.4547
G01 X37.6560 Y4.5705
G01 X37.4805 Y4.6600
G01 X37.3848 Y4.6911
G01 X36.6152 Y4.6911
G01 X36.5195 Y4.6600
G01 X36.3440 Y4.5705
G01 X36.1846 Y4.4547
G01 X36.0453 Y4.3154
G01 X35.9295 Y4.1560
G01 X35.8400 Y3.9805
G01 X35.7791 Y3.7931
G01 X35.7483 Y3.5985
G01 X35.7483 Y3.5631
G01 X35.7475 Y3.5547
G01 X35.7459 Y3.5479
G01 X35.7262 Y3.4809
G01 X35.7231 Y3.4727
G01 X35.7181 Y3.4639
G01 X35.7145 Y3.4592
G01 X35.7105 Y3.4550
G01 X35.6555 Y3.4073
G01 X35.6472 Y3.4012
G01 X35.6393 Y3.3973
G01 X35.6324 Y3.3949
G01 X35.5766 Y3.3828
G01 X35.5711 Y3.3820
G01 X35.5655 Y3.3817
G01 X30.5238 Y3.3817
G01 X30.5168 Y3.3823
G01 X30.5086 Y3.3841
G01 X30.4402 Y3.4042
G01 X30.4334 Y3.4069
G01 X30.4282 Y3.4096
G01 X30.4210 Y3.4146
G01 X30.4147 Y3.4206
G01 X30.3679 Y3.4745
G01 X30.3635 Y3.4803
G01 X30.3592 Y3.4879
G01 X30.3565 Y3.4947
G01 X30.3547 Y3.5017
G01 X30.3440 Y3.5752
G01 X30.3437 Y3.5840
G01 X30.3446 Y3.5927
G01 X30.3463 Y3.5998
G01 X30.3489 Y3.6066
G01 X30.3786 Y3.6714
G01 X30.3838 Y3.6801
G01 X30.3874 Y3.6846
G01 X30.3914 Y3.6888
G01 X30.4208 Y3.7140
G01 X30.5334 Y3.8267
G01 X30.6140 Y3.9599
G01 X30.6606 Y4.1094
G01 X30.6662 Y4.1711
G01 X30.6662 Y4.1912
G01 X30.2814 Y4.1912
G01 X30.2788 Y4.1745
G01 X30.2727 Y4.1499
G01 X30.2641 Y4.1260
G01 X30.2539 Y4.1043
G01 X30.2417 Y4.0837
G01 X30.2385 Y4.0789
G01 X30.2251 Y4.0608
G01 X30.2090 Y4.0430
G01 X30.1914 Y4.0268
G01 X30.1869 Y4.0232
G01 X30.1688 Y4.0098
G01 X30.1470 Y3.9968
G01 X30.1240 Y3.9859
G01 X30.1029 Y3.9782
G01 X30.0973 Y3.9766
G01 X30.0741 Y3.9709
G01 X30.0504 Y3.9674
G01 X30.0250 Y3.9662
G01 X29.6221 Y3.9663
G01 X29.5996 Y3.9674
G01 X29.5774 Y3.9707
G01 X29.5527 Y3.9766
G01 X29.5260 Y3.9859
G01 X29.5017 Y3.9975
G01 X29.4812 Y4.0098
G01 X29.4586 Y4.0268
G01 X29.4420 Y4.0420
G01 X29.4268 Y4.0586
G01 X29.4115 Y4.0789
G01 X29.3968 Y4.1030
G01 X29.3859 Y4.1260
G01 X29.3773 Y4.1499
G01 X29.3712 Y4.1745
G01 X29.3674 Y4.1996
G01 X29.3662 Y4.2250
G01 X29.3662 Y4.6969
G01 X28.8913 Y5.1718
G01 X28.8786 Y5.1801
G01 X28.8721 Y5.1854
G01 X28.7737 Y5.2838
G01 X28.6403 Y5.3645
G01 X28.4907 Y5.4111
G01 X28.4289 Y5.4167
G01 X27.9210 Y5.4167
G01 X27.8593 Y5.4111
G01 X27.7097 Y5.3645
G01 X27.5763 Y5.2838
G01 X27.4662 Y5.1737
G01 X27.4465 Y5.1412
G01 X27.4433 Y5.1367
G01 X27.4397 Y5.1324
G01 X27.3830 Y5.0804
G01 X27.3784 Y5.0770
G01 X27.3735 Y5.0740
G01 X27.3683 Y5.0715
G01 X27.3629 Y5.0695
G01 X27.2997 Y5.0549
G01 X27.2908 Y5.0542
G01 X26.0085 Y5.0542
G01 X26.0016 Y5.0548
G01 X25.9947 Y5.0562
G01 X25.9263 Y5.0763
G01 X25.9182 Y5.0793
G01 X25.9107 Y5.0835
G01 X25.9060 Y5.0869
G01 X25.8818 Y5.1066
G01 X25.7490 Y5.2394
G01 X25.6026 Y5.3458
G01 X25.4413 Y5.4280
G01 X25.2692 Y5.4839
G01 X25.0905 Y5.5122
G01 X24.9095 Y5.5122
G01 X24.7308 Y5.4839
G01 X24.5587 Y5.4280
G01 X24.3974 Y5.3458
G01 X24.2510 Y5.2394
G01 X24.1231 Y5.1115
G01 X24.0167 Y4.9651
G01 X23.9947 Y4.9220
G01 X23.9902 Y4.9149
G01 X23.9857 Y4.9096
G01 X23.9378 Y4.8588
G01 X23.9301 Y4.8520
G01 X23.9253 Y4.8487
G01 X23.9201 Y4.8460
G01 X23.9106 Y4.8424
G01 X23.8399 Y4.8249
G01 X23.8327 Y4.8238
G01 X23.8269 Y4.8236
G01 X23.8181 Y4.8243
G01 X23.8082 Y4.8267
G01 X23.7407 Y4.8497
G01 X23.7340 Y4.8527
G01 X23.7290 Y4.8556
G01 X23.7220 Y4.8609
G01 X23.7159 Y4.8672
G01 X23.6716 Y4.9230
G01 X23.6659 Y4.9317
G01 X23.6633 Y4.9370
G01 X23.6613 Y4.9426
G01 X23.6599 Y4.9483
G01 X23.6508 Y4.9950
G01 X23.6499 Y5.0020
G01 X23.6497 Y5.1152
G01 X23.6444 Y5.1644
G01 X23.5997 Y5.2844
G01 X23.5235 Y5.3860
G01 X23.4219 Y5.4622
G01 X23.3106 Y5.5036
G01 X23.3042 Y5.5065
G01 X23.2959 Y5.5117
G01 X23.2400 Y5.5535
G01 X23.2355 Y5.5573
G01 X23.2314 Y5.5614
G01 X23.2269 Y5.5672
G01 X23.2238 Y5.5721
G01 X23.2207 Y5.5787
G01 X23.1952 Y5.6469
G01 X23.1930 Y5.6553
G01 X23.1921 Y5.6625
G01 X23.1917 Y5.6749
G01 X23.1918 Y6.1554
G01 X23.1925 Y6.1623
G01 X23.1937 Y6.1678
G01 X23.2151 Y6.2403
G01 X23.2181 Y6.2469
G01 X23.2226 Y6.2542
G01 X23.2441 Y6.2807
G01 X23.3769 Y6.4135
G01 X23.4833 Y6.5599
G01 X23.5655 Y6.7212
G01 X23.5766 Y6.7554
G01 X23.5799 Y6.7631
G01 X23.5835 Y6.7691
G01 X23.6230 Y6.8267
G01 X23.6265 Y6.8314
G01 X23.6315 Y6.8367
G01 X23.6360 Y6.8404
G01 X23.6421 Y6.8444
G01 X23.6473 Y6.8471
G01 X23.7143 Y6.8754
G01 X23.7213 Y6.8777
G01 X23.7299 Y6.8792
G01 X23.7372 Y6.8795
G01 X23.7445 Y6.8789
G01 X23.8176 Y6.8662
G01 X23.8246 Y6.8642
G01 X23.8300 Y6.8619
G01 X23.8364 Y6.8584
G01 X23.8411 Y6.8550
G01 X23.8970 Y6.8039
G01 X23.9020 Y6.7985
G01 X23.9054 Y6.7937
G01 X23.9090 Y6.7873
G01 X23.9225 Y6.7578
G01 X23.9345 Y6.7212
G01 X24.0167 Y6.5599
G01 X24.1231 Y6.4135
G01 X24.2510 Y6.2856
G01 X24.3974 Y6.1792
G01 X24.5587 Y6.0970
G01 X24.7308 Y6.0411
G01 X24.9095 Y6.0128
G01 X25.0905 Y6.0128
G01 X25.2692 Y6.0411
G01 X25.4413 Y6.0970
G01 X25.6026 Y6.1792
G01 X25.7490 Y6.2856
G01 X25.8769 Y6.4135
G01 X25.9833 Y6.5599
G01 X26.0655 Y6.7212
G01 X26.1214 Y6.8933
G01 X26.1497 Y7.0720
G01 X26.1497 Y7.2530
G01 X26.1214 Y7.4317
G01 X26.0655 Y7.6038
G01 X25.9833 Y7.7651
G01 X25.8769 Y7.9115
G01 X25.7490 Y8.0394
G01 X25.6026 Y8.1458
G01 X25.4413 Y8.2280
G01 X25.2692 Y8.2839
G01 X25.0905 Y8.3122
G01 X24.9095 Y8.3122
G01 X24.7899 Y8.2933
G01 X24.7843 Y8.2928
G01 X24.7773 Y8.2929
G01 X24.7038 Y8.3024
G01 X24.6939 Y8.3048
G01 X24.6872 Y8.3076
G01 X24.6808 Y8.3112
G01 X24.6396 Y8.3394
G01 X24.6334 Y8.3448
G01 X23.0784 Y9.8998
G01 X22.9651 Y9.9755
G01 X22.8393 Y10.0276
G01 X22.7056 Y10.0542
G01 X21.3608 Y10.0542
G01 X21.3539 Y10.0548
G01 X21.3470 Y10.0562
G01 X21.2786 Y10.0763
G01 X21.2732 Y10.0782
G01 X21.2667 Y10.0813
G01 X21.2606 Y10.0851
G01 X21.2353 Y10.1056
G01 X20.9904 Y10.3504
G01 X20.9868 Y10.3547
G01 X20.9830 Y10.3606
G01 X20.9488 Y10.4231
G01 X20.9463 Y10.4284
G01 X20.9442 Y10.4339
G01 X20.9428 Y10.4395
G01 X20.9419 Y10.4453
G01 X20.9416 Y10.4526
G01 X20.9469 Y10.5266
G01 X20.9477 Y10.5324
G01 X20.9496 Y10.5395
G01 X20.9529 Y10.5476
G01 X20.9583 Y10.5562
G01 X21.0011 Y10.6133
G01 X21.0059 Y10.6188
G01 X21.0114 Y10.6236
G01 X21.0188 Y10.6284
G01 X21.0253 Y10.6315
G01 X21.0936 Y10.6569
G01 X21.1036 Y10.6594
G01 X21.1139 Y10.6601
G01 X21.1198 Y10.6597
G01 X21.1698 Y10.6536
G01 X21.1767 Y10.6519
G01 X21.2070 Y10.6421
G01 X21.4015 Y10.6113
G01 X21.5985 Y10.6113
G01 X21.7930 Y10.6421
G01 X21.9803 Y10.7030
G01 X22.1410 Y10.7848
G01 X21.8553 Y11.0705
G01 X21.8311 Y11.0593
G01 X21.7508 Y11.0307
G01 X21.6695 Y11.0104
G01 X21.5866 Y10.9980
G01 X21.5000 Y10.9937
G01 X21.4177 Y10.9977
G01 X21.4120 Y10.9982
G01 X21.3291 Y11.0107
G01 X21.2478 Y11.0311
G01 X21.1675 Y11.0598
G01 X21.0905 Y11.0963
G01 X21.0198 Y11.1386
G01 X21.0150 Y11.1418
G01 X20.9511 Y11.1891
G01 X20.9467 Y11.1928
G01 X20.8857 Y11.2482
G01 X20.8293 Y11.3102
G01 X20.7793 Y11.3775
G01 X20.7761 Y11.3823
G01 X20.7338 Y11.4530
G01 X20.6973 Y11.5300
G01 X20.6686 Y11.6103
G01 X20.6485 Y11.6902
G01 X20.6474 Y11.6958
G01 X20.6357 Y11.7745
G01 X20.6352 Y11.7802
G01 X20.6312 Y11.8625
G01 X20.6354 Y11.9477
G01 X20.6479 Y12.0320
G01 X20.6678 Y12.1119
G01 X20.6695 Y12.1174
G01 X20.6963 Y12.1923
G01 X20.6985 Y12.1976
G01 X20.7338 Y12.2720
G01 X20.7776 Y12.3452
G01 X20.8266 Y12.4114
G01 X20.8303 Y12.4158
G01 X20.8857 Y12.4768
G01 X20.9467 Y12.5322
G01 X20.9511 Y12.5359
G01 X21.0173 Y12.5849
G01 X21.0879 Y12.6273
G01 X21.0930 Y12.6300
G01 X21.1675 Y12.6652
G01 X21.2451 Y12.6930
G01 X21.2506 Y12.6947
G01 X21.3305 Y12.7146
G01 X21.4148 Y12.7271
G01 X21.4971 Y12.7312
G01 X21.5029 Y12.7312
G01 X21.5852 Y12.7271
G01 X21.6695 Y12.7146
G01 X21.7494 Y12.6947
G01 X21.7549 Y12.6930
G01 X21.8325 Y12.6652
G01 X21.9070 Y12.6300
G01 X21.9121 Y12.6273
G01 X21.9827 Y12.5849
G01 X22.0500 Y12.5350
G01 X22.1122 Y12.4788
G01 X22.1163 Y12.4747
G01 X22.1716 Y12.4137
G01 X22.2216 Y12.3464
G01 X22.2669 Y12.2708
G01 X22.3021 Y12.1963
G01 X22.3112 Y12.1714
G01 X22.6389 Y12.1714
G01 X22.6706 Y12.1696
G01 X22.6978 Y12.1655
G01 X22.7188 Y12.1603
G01 X22.6595 Y12.3428
G01 X22.5701 Y12.5183
G01 X22.5665 Y12.5239
G01 X22.5640 Y12.5290
G01 X22.5385 Y12.6000
G01 X22.5364 Y12.6085
G01 X22.5356 Y12.6173
G01 X22.5359 Y12.6245
G01 X22.5368 Y12.6303
G01 X22.5537 Y12.7026
G01 X22.5561 Y12.7095
G01 X22.5586 Y12.7148
G01 X22.5617 Y12.7197
G01 X22.5662 Y12.7255
G01 X22.6204 Y12.7783
G01 X22.6258 Y12.7828
G01 X22.6305 Y12.7859
G01 X22.6381 Y12.7896
G01 X22.6448 Y12.7919
G01 X22.7054 Y12.8069
G01 X22.7111 Y12.8079
G01 X22.7182 Y12.8083
G01 X25.2812 Y12.8083
G01 X25.2896 Y12.8077
G01 X25.2978 Y12.8059
G01 X25.3662 Y12.7858
G01 X25.3717 Y12.7837
G01 X25.3782 Y12.7804
G01 X25.3865 Y12.7745
G01 X25.3927 Y12.7683
G01 X25.4394 Y12.7144
G01 X25.4437 Y12.7085
G01 X25.4472 Y12.7021
G01 X25.4503 Y12.6939
G01 X25.4522 Y12.6854
G01 X25.4623 Y12.6148
G01 X25.4627 Y12.6092
G01 X25.4626 Y12.6035
G01 X25.4614 Y12.5952
G01 X25.4589 Y12.5871
G01 X25.4349 Y12.5279
G01 X25.4295 Y12.5186
G01 X25.3400 Y12.3430
G01 X25.2791 Y12.1556
G01 X25.2483 Y11.9610
G01 X25.2483 Y11.7640
G01 X25.2791 Y11.5694
G01 X25.3400 Y11.3820
G01 X25.4295 Y11.2065
G01 X25.5453 Y11.0471
G01 X25.6846 Y10.9078
G01 X25.7829 Y10.8363
G01 X25.7894 Y10.8309
G01 X25.7950 Y10.8246
G01 X25.8385 Y10.7681
G01 X25.8438 Y10.7594
G01 X25.8475 Y10.7499
G01 X25.8488 Y10.7442
G01 X25.8573 Y10.6992
G01 X25.8580 Y10.6938
G01 X25.8583 Y10.6884
G01 X25.8583 Y9.4368
G01 X25.8830 Y9.3128
G01 X25.9313 Y9.1960
G01 X26.0016 Y9.0909
G01 X27.4221 Y7.6704
G01 X29.0074 Y7.6704
G01 X29.0348 Y7.6692
G01 X29.0419 Y7.6707
G01 X29.0505 Y7.6713
G01 X30.5255 Y7.6713
G01 X30.5327 Y7.6709
G01 X30.5412 Y7.6692
G01 X30.5480 Y7.6668
G01 X30.5545 Y7.6637
G01 X30.5605 Y7.6597
G01 X30.5660 Y7.6551
G01 X30.5710 Y7.6498
G01 X30.5752 Y7.6440
G01 X30.5787 Y7.6376
G01 X30.5813 Y7.6309
G01 X30.5834 Y7.6226
G01 X30.5842 Y7.6154
G01 X30.5843 Y7.1611
G01 X30.5837 Y7.1539
G01 X30.5825 Y7.1482
G01 X30.5809 Y7.1427
G01 X30.5780 Y7.1361
G01 X30.5744 Y7.1298
G01 X30.5691 Y7.1230
G01 X30.5639 Y7.1180
G01 X30.5582 Y7.1136
G01 X30.5506 Y7.1093
G01 X30.5439 Y7.1067
G01 X30.5370 Y7.1048
G01 X30.5298 Y7.1039
G01 X30.0718 Y7.1037
G01 X30.0718 Y6.7213
G01 X30.5702 Y6.7213
G01 X30.6192 Y6.7266
G01 X30.7391 Y6.7713
G01 X30.8407 Y6.8473
G01 X30.9167 Y6.9489
G01 X30.9614 Y7.0688
G01 X30.9652 Y7.1037
G01 X30.8649 Y7.1037
G01 X30.8552 Y7.1045
G01 X30.8484 Y7.1061
G01 X30.7785 Y7.1267
G01 X30.7731 Y7.1289
G01 X30.7680 Y7.1316
G01 X30.7597 Y7.1375
G01 X30.7535 Y7.1437
G01 X30.7068 Y7.1976
G01 X30.7025 Y7.2035
G01 X30.6984 Y7.2112
G01 X30.6958 Y7.2181
G01 X30.6939 Y7.2266
G01 X30.6838 Y7.2972
G01 X30.6835 Y7.3074
G01 X30.6849 Y7.3175
G01 X30.6881 Y7.3272
G01 X30.7184 Y7.3934
G01 X30.7211 Y7.3985
G01 X30.7253 Y7.4044
G01 X30.7312 Y7.4107
G01 X30.7541 Y7.4319
G01 X30.8410 Y7.4970
G01 X30.9172 Y7.5986
G01 X30.9619 Y7.7186
G01 X30.9672 Y7.7678
G01 X30.9672 Y8.3072
G01 X30.9634 Y8.3430
G01 X30.9630 Y8.3492
G01 X30.9631 Y8.3789
G01 X30.9672 Y8.4178
G01 X30.9672 Y8.9572
G01 X30.9631 Y8.9961
G01 X30.9630 Y9.0258
G01 X30.9634 Y9.0320
G01 X30.9672 Y9.0678
G01 X30.9673 Y9.4922
G01 X30.9680 Y9.4978
G01 X30.9692 Y9.5032
G01 X30.9897 Y9.5730
G01 X30.9930 Y9.5811
G01 X30.9974 Y9.5886
G01 X31.0020 Y9.5944
G01 X31.0061 Y9.5985
G01 X31.0611 Y9.6462
G01 X31.0696 Y9.6520
G01 X31.0748 Y9.6546
G01 X31.0803 Y9.6567
G01 X31.0860 Y9.6583
G01 X31.1389 Y9.6697
G01 X31.1444 Y9.6705
G01 X31.1500 Y9.6708
G01 X32.8528 Y9.6707
G01 X32.8584 Y9.6702
G01 X32.8652 Y9.6688
G01 X32.9336 Y9.6487
G01 X32.9405 Y9.6462
G01 X32.9470 Y9.6429
G01 X32.9541 Y9.6379
G01 X32.9605 Y9.6319
G01 X33.0091 Y9.5757
G01 X33.0125 Y9.5709
G01 X33.0154 Y9.5658
G01 X33.0177 Y9.5605
G01 X33.0196 Y9.5549
G01 X33.0317 Y9.4991
G01 X33.0325 Y9.4936
G01 X33.0328 Y9.4880
G01 X33.0328 Y9.0678
G01 X33.0369 Y9.0289
G01 X33.0370 Y8.9993
G01 X33.0366 Y8.9930
G01 X33.0328 Y8.9572
G01 X33.0328 Y8.4178
G01 X33.0366 Y8.3820
G01 X33.0370 Y8.3758
G01 X33.0369 Y8.3461
G01 X33.0328 Y8.3072
G01 X33.0328 Y7.7678
G01 X33.0369 Y7.7289
G01 X33.0370 Y7.6993
G01 X33.0366 Y7.6930
G01 X33.0328 Y7.6572
G01 X33.0328 Y7.1178
G01 X33.0381 Y7.0686
G01 X33.0828 Y6.9486
G01 X33.1590 Y6.8470
G01 X33.2606 Y6.7708
G01 X33.3806 Y6.7261
G01 X33.4298 Y6.7208
G01 X34.9942 Y6.7208
G01 X35.0434 Y6.7261
G01 X35.1634 Y6.7708
G01 X35.2650 Y6.8470
G01 X35.3412 Y6.9486
G01 X35.3859 Y7.0686
G01 X35.3912 Y7.1178
G01 X35.3912 Y7.6572
G01 X35.3874 Y7.6930
G01 X35.3870 Y7.6992
G01 X35.3871 Y7.7289
G01 X35.3912 Y7.7678
G01 X35.3912 Y8.3072
G01 X35.3872 Y8.3444
G01 X35.3864 Y8.3682
G01 X35.3869 Y8.3778
G01 X35.3912 Y8.4178
G01 X35.3912 Y8.4904
G01 X35.3918 Y8.5007
G01 X35.3939 Y8.5102
G01 X35.4044 Y8.5414
G01 X35.4147 Y8.5758
G01 X35.4176 Y8.5824
G01 X35.4206 Y8.5874
G01 X35.4264 Y8.5957
G01 X35.4313 Y8.6011
G01 X35.4602 Y8.6246
G01 X35.4851 Y8.6462
G01 X35.4911 Y8.6505
G01 X35.4962 Y8.6534
G01 X35.5039 Y8.6568
G01 X35.5122 Y8.6596
G01 X35.5179 Y8.6608
G01 X35.5260 Y8.6617
G01 X35.5656 Y8.6702
G01 X35.5740 Y8.6708
G01 X35.8547 Y8.6707
G01 X35.8603 Y8.6700
G01 X35.8671 Y8.6684
G01 X35.9341 Y8.6487
G01 X35.9410 Y8.6462
G01 X35.9462 Y8.6437
G01 X35.9511 Y8.6406
G01 X35.9558 Y8.6370
G01 X35.9600 Y8.6330
G01 X36.0077 Y8.5780
G01 X36.0130 Y8.5709
G01 X36.0171 Y8.5632
G01 X36.0201 Y8.5549
G01 X36.0320 Y8.5005
G01 X36.0330 Y8.4936
G01 X36.0333 Y8.4880
G01 X36.0333 Y8.2069
G01 X36.0599 Y8.0732
G01 X36.1120 Y7.9474
G01 X36.1877 Y7.8341
G01 X36.2602 Y7.7616
G01 X36.2679 Y7.7524
G01 X36.2726 Y7.7454
G01 X36.2751 Y7.7404
G01 X36.2858 Y7.7152
G01 X36.2990 Y7.6910
G01 X36.3019 Y7.6843
G01 X36.3043 Y7.6759
G01 X36.3054 Y7.6676
G01 X36.3068 Y7.6607
G01 X36.3074 Y7.6549
G01 X36.3074 Y7.6491
G01 X36.3069 Y7.6433
G01 X36.3022 Y7.6162
G01 X36.3002 Y7.5888
G01 X36.2991 Y7.5816
G01 X36.2965 Y7.5732
G01 X36.2929 Y7.5656
G01 X36.2905 Y7.5591
G01 X36.2871 Y7.5526
G01 X36.2838 Y7.5478
G01 X36.2625 Y7.5241
G01 X36.2460 Y7.5021
G01 X36.2412 Y7.4968
G01 X36.2347 Y7.4912
G01 X36.1846 Y7.4547
G01 X36.0453 Y7.3154
G01 X35.9295 Y7.1560
G01 X35.8400 Y6.9805
G01 X35.7791 Y6.7931
G01 X35.7483 Y6.5985
G01 X35.7483 Y6.4015
G01 X35.7791 Y6.2069
G01 X35.8400 Y6.0195
G01 X35.9295 Y5.8440
G01 X36.0453 Y5.6846
G01 X36.1846 Y5.5453
G01 X36.3440 Y5.4295
G01 X36.5195 Y5.3400
G01 X36.6152 Y5.3089
G01 X37.3848 Y5.3089
G01 X37.4805 Y5.3400
G01 X37.6560 Y5.4295
G01 X37.8154 Y5.5453
G01 X37.9547 Y5.6846
G01 X38.0705 Y5.8440
G01 X38.1600 Y6.0195
G01 X38.2209 Y6.2069
G01 X38.2517 Y6.4015
G01 X38.2517 Y6.5985
G01 X38.2209 Y6.7931
G01 X38.1600 Y6.9805
G01 X38.0705 Y7.1560
G01 X37.9547 Y7.3154
G01 X37.8154 Y7.4547
G01 X37.7659 Y7.4907
G01 X37.7606 Y7.4953
G01 X37.7559 Y7.5005
G01 X37.7115 Y7.5581
G01 X37.7062 Y7.5668
G01 X37.7034 Y7.5735
G01 X37.7014 Y7.5805
G01 X37.6921 Y7.6310
G01 X37.6917 Y7.6378
G01 X37.6917 Y8.0681
G01 X37.6651 Y8.2018
G01 X37.6533 Y8.2304
G01 X37.6504 Y8.2397
G01 X37.6489 Y8.2465
G01 X37.6482 Y8.2534
G01 X37.6477 Y8.2816
G01 X37.6447 Y8.3097
G01 X37.6446 Y8.3155
G01 X37.6456 Y8.3257
G01 X37.6503 Y8.3448
G01 X37.6525 Y8.3502
G01 X37.6552 Y8.3554
G01 X37.6701 Y8.3794
G01 X37.6849 Y8.4084
G01 X37.6911 Y8.4166
G01 X37.7019 Y8.4273
G01 X37.7075 Y8.4321
G01 X37.7149 Y8.4368
G01 X37.7417 Y8.4496
G01 X37.7660 Y8.4640
G01 X37.7712 Y8.4666
G01 X37.7766 Y8.4686
G01 X37.7958 Y8.4729
G01 X37.8060 Y8.4738
G01 X37.8118 Y8.4735
G01 X37.8396 Y8.4699
G01 X37.8706 Y8.4687
G01 X37.8761 Y8.4679
G01 X37.8815 Y8.4665
G01 X37.9148 Y8.4555
G01 X37.9662 Y8.4502
G01 X37.9662 Y8.8414
G01 X37.9414 Y8.8503
G01 X37.9188 Y8.8609
G01 X37.8923 Y8.8765
G01 X37.8700 Y8.8931
G01 X37.8514 Y8.9098
G01 X37.8306 Y8.9325
G01 X37.8140 Y8.9548
G01 X37.8011 Y8.9762
G01 X37.7878 Y9.0039
G01 X37.7784 Y9.0301
G01 X37.7723 Y9.0543
G01 X37.7712 Y9.0600
G01 X37.7674 Y9.0861
G01 X37.7662 Y9.1125
G01 X37.7662 Y9.6125
G01 X37.7679 Y9.6432
G01 X37.7717 Y9.6679
G01 X37.7784 Y9.6949
G01 X37.7878 Y9.7211
G01 X37.7997 Y9.7463
G01 X37.8140 Y9.7702
G01 X37.8306 Y9.7925
G01 X37.8493 Y9.8132
G01 X37.8689 Y9.8310
G01 X37.8900 Y9.8468
G01 X37.8948 Y9.8500
G01 X37.9162 Y9.8628
G01 X37.9414 Y9.8747
G01 X37.9676 Y9.8841
G01 X37.9918 Y9.8902
G01 X38.0222 Y9.8949
G01 X38.0500 Y9.8963
G01 X38.5000 Y9.8963
G01 X38.5293 Y9.8948
G01 X38.5554 Y9.8908
G01 X38.5796 Y9.8848
G01 X38.6086 Y9.8747
G01 X38.6338 Y9.8628
G01 X38.6552 Y9.8500
G01 X38.6600 Y9.8468
G01 X38.6822 Y9.8300
G01 X38.7007 Y9.8132
G01 X38.7175 Y9.7947
G01 X38.7343 Y9.7725
G01 X38.7375 Y9.7677
G01 X38.7503 Y9.7463
G01 X38.7622 Y9.7211
G01 X38.7716 Y9.6949
G01 X38.7775 Y9.6714
G01 X39.1648 Y9.6714
G01 X39.1570 Y9.7477
G01 X39.1079 Y9.8960
G01 X39.0261 Y10.0285
G01 X38.9584 Y10.0962
G01 X38.9521 Y10.1037
G01 X38.9484 Y10.1096
G01 X38.9149 Y10.1710
G01 X38.9118 Y10.1776
G01 X38.9099 Y10.1831
G01 X38.9086 Y10.1888
G01 X38.9079 Y10.1946
G01 X38.9077 Y10.2004
G01 X38.9128 Y10.2730
G01 X38.9138 Y10.2803
G01 X38.9157 Y10.2873
G01 X38.9184 Y10.2941
G01 X38.9219 Y10.3005
G01 X38.9672 Y10.3612
G01 X38.9720 Y10.3666
G01 X38.9787 Y10.3723
G01 X38.9849 Y10.3762
G01 X38.9928 Y10.3799
G01 X39.0596 Y10.4048
G01 X39.0695 Y10.4072
G01 X39.0753 Y10.4079
G01 X39.0877 Y10.4083
G01 X39.6406 Y10.4082
G01 X39.6475 Y10.4075
G01 X39.6530 Y10.4063
G01 X39.7214 Y10.3862
G01 X39.7282 Y10.3838
G01 X39.7346 Y10.3805
G01 X39.7406 Y10.3765
G01 X39.7647 Y10.3569
G01 X39.8181 Y10.3037
G01 X39.9557 Y10.2188
G01 X40.1096 Y10.1678
G01 X40.2030 Y10.1583
G01 X43.2614 Y10.1583
G01 X43.2684 Y10.1579
G01 X43.2766 Y10.1563
G01 X43.3450 Y10.1362
G01 X43.3505 Y10.1343
G01 X43.3571 Y10.1312
G01 X43.3620 Y10.1281
G01 X43.3666 Y10.1245
G01 X43.3709 Y10.1205
G01 X43.4196 Y10.0644
G01 X43.4238 Y10.0585
G01 X43.4274 Y10.0521
G01 X43.4305 Y10.0439
G01 X43.4321 Y10.0368
G01 X43.4425 Y9.9648
G01 X43.4429 Y9.9589
G01 X43.4427 Y9.9531
G01 X43.4410 Y9.9430
G01 X43.4376 Y9.9334
G01 X43.4086 Y9.8699
G01 X43.4052 Y9.8636
G01 X43.4011 Y9.8577
G01 X43.3943 Y9.8504
G01 X43.3623 Y9.8233
G01 X43.3573 Y9.8199
G01 X43.3184 Y9.7959
G01 X43.2041 Y9.6816
G01 X43.1193 Y9.5441
G01 X43.0683 Y9.3903
G01 X43.0588 Y9.2970
G01 X43.0588 Y9.0089
G01 X43.4412 Y9.0089
G01 X43.4412 Y9.2500
G01 X43.4426 Y9.2788
G01 X43.4466 Y9.3074
G01 X43.4478 Y9.3131
G01 X43.4545 Y9.3396
G01 X43.4653 Y9.3695
G01 X43.4791 Y9.3981
G01 X43.4932 Y9.4216
G01 X43.5095 Y9.4436
G01 X43.5316 Y9.4684
G01 X43.5541 Y9.4887
G01 X43.5784 Y9.5068
G01 X43.6070 Y9.5236
G01 X43.6318 Y9.5353
G01 X43.6576 Y9.5446
G01 X43.6883 Y9.5526
G01 X43.7197 Y9.5573
G01 X43.7500 Y9.5588
G01 X45.4219 Y9.5588
G01 X45.8043 Y9.9412
G01 X45.7374 Y9.9412
G01 X45.7276 Y9.9423
G01 X45.7222 Y9.9436
G01 X45.6524 Y9.9642
G01 X45.6431 Y9.9683
G01 X45.6381 Y9.9714
G01 X45.6335 Y9.9750
G01 X45.6273 Y9.9812
G01 X45.5806 Y10.0351
G01 X45.5763 Y10.0410
G01 X45.5722 Y10.0487
G01 X45.5697 Y10.0556
G01 X45.5680 Y10.0627
G01 X45.5578 Y10.1333
G01 X45.5572 Y10.1420
G01 X45.5579 Y10.1507
G01 X45.5595 Y10.1579
G01 X45.5619 Y10.1647
G01 X45.5916 Y10.2296
G01 X45.5957 Y10.2371
G01 X45.6009 Y10.2440
G01 X45.6070 Y10.2500
G01 X45.6391 Y10.2771
G01 X45.6819 Y10.3037
G01 X45.7963 Y10.4181
G01 X45.8812 Y10.5557
G01 X45.9322 Y10.7096
G01 X45.9417 Y10.8030
G01 X45.9417 Y11.3970
G01 X45.9322 Y11.4904
G01 X45.8812 Y11.6443
G01 X45.7963 Y11.7819
G01 X45.6819 Y11.8963
G01 X45.6034 Y11.9447
G01 X45.5977 Y11.9487
G01 X45.5906 Y11.9554
G01 X45.5419 Y12.0096
G01 X45.5377 Y12.0155
G01 X45.5349 Y12.0206
G01 X45.5320 Y12.0274
G01 X45.5304 Y12.0330
G01 X45.5183 Y12.1062
G01 X45.5175 Y12.1164
G01 X45.5186 Y12.1266
G01 X45.5199 Y12.1322
G01 X45.5218 Y12.1378
G01 X45.5508 Y12.2045
G01 X45.5551 Y12.2122
G01 X45.5605 Y12.2191
G01 X45.5657 Y12.2242
G01 X45.6000 Y12.2536
G01 X45.6816 Y12.3041
G01 X45.7959 Y12.4184
G01 X45.8807 Y12.5559
G01 X45.9317 Y12.7097
G01 X45.9400 Y12.7911
G01 X45.5531 Y12.7911
G01 X45.5455 Y12.7604
G01 X45.5363 Y12.7345
G01 X45.5341 Y12.7292
G01 X45.5209 Y12.7019
G01 X45.5068 Y12.6784
G01 X45.4887 Y12.6541
G01 X45.4684 Y12.6316
G01 X45.4459 Y12.6113
G01 X45.4216 Y12.5932
G01 X45.3981 Y12.5791
G01 X45.3930 Y12.5764
G01 X45.3655 Y12.5637
G01 X45.3396 Y12.5545
G01 X45.3102 Y12.5471
G01 X45.2803 Y12.5427
G01 X45.2529 Y12.5413
G01 X40.2500 Y12.5412
G01 X40.2197 Y12.5427
G01 X40.1926 Y12.5466
G01 X40.1869 Y12.5478
G01 X40.1576 Y12.5554
G01 X40.1318 Y12.5647
G01 X40.1044 Y12.5777
G01 X40.0784 Y12.5932
G01 X40.0541 Y12.6113
G01 X40.0316 Y12.6316
G01 X40.0113 Y12.6541
G01 X39.9932 Y12.6784
G01 X39.9791 Y12.7019
G01 X39.9764 Y12.7070
G01 X39.9637 Y12.7345
G01 X39.9545 Y12.7604
G01 X39.9469 Y12.7911
G01 X39.5600 Y12.7911
G01 X39.5683 Y12.7097
G01 X39.6193 Y12.5559
G01 X39.7041 Y12.4184
G01 X39.8184 Y12.3041
G01 X39.8966 Y12.2559
G01 X39.9023 Y12.2519
G01 X39.9085 Y12.2462
G01 X39.9288 Y12.2237
G01 X39.9505 Y12.2025
G01 X39.9544 Y12.1982
G01 X39.9578 Y12.1934
G01 X39.9608 Y12.1884
G01 X39.9658 Y12.1786
G01 X39.9689 Y12.1704
G01 X39.9702 Y12.1648
G01 X39.9751 Y12.1348
G01 X39.9827 Y12.1009
G01 X39.9832 Y12.0922
G01 X39.9821 Y12.0784
G01 X39.9808 Y12.0712
G01 X39.9787 Y12.0642
G01 X39.9661 Y12.0350
G01 X39.9564 Y12.0078
G01 X39.9536 Y12.0013
G01 X39.9485 Y11.9928
G01 X39.9415 Y11.9838
G01 X39.9376 Y11.9795
G01 X39.9160 Y11.9587
G01 X39.9047 Y11.9498
G01 X39.8181 Y11.8963
G01 X39.7603 Y11.8386
G01 X39.7473 Y11.8282
G01 X39.7425 Y11.8252
G01 X39.7375 Y11.8227
G01 X39.7130 Y11.8130
G01 X39.6884 Y11.7998
G01 X39.6789 Y11.7964
G01 X39.6558 Y11.7926
G01 X39.6378 Y11.7917
G01 X36.0319 Y11.7917
G01 X35.8982 Y11.7651
G01 X35.7614 Y11.7084
G01 X35.7532 Y11.7057
G01 X35.7429 Y11.7041
G01 X35.7004 Y11.6935
G01 X35.6934 Y11.6921
G01 X35.6862 Y11.6917
G01 X35.6286 Y11.6917
G01 X35.5789 Y11.6421
G01 X35.5585 Y11.6237
G01 X35.5329 Y11.6049
G01 X35.5081 Y11.5901
G01 X35.4807 Y11.5771
G01 X35.4522 Y11.5669
G01 X35.4228 Y11.5595
G01 X35.3928 Y11.5551
G01 X35.3625 Y11.5536
G01 X34.7787 Y11.5536
G01 X34.7726 Y11.5285
G01 X34.7709 Y11.5229
G01 X34.7627 Y11.5000
G01 X34.7510 Y11.4754
G01 X34.7370 Y11.4521
G01 X34.7226 Y11.4324
G01 X34.7025 Y11.4100
G01 X34.6823 Y11.3917
G01 X34.6628 Y11.3771
G01 X34.6371 Y11.3615
G01 X34.6098 Y11.3488
G01 X34.5868 Y11.3407
G01 X34.5618 Y11.3343
G01 X34.5335 Y11.3300
G01 X34.5062 Y11.3287
G01 X34.0673 Y11.3287
G01 X34.0415 Y11.3300
G01 X34.0146 Y11.3340
G01 X33.9882 Y11.3407
G01 X33.9625 Y11.3498
G01 X33.9354 Y11.3629
G01 X33.9146 Y11.3755
G01 X33.8927 Y11.3917
G01 X33.8705 Y11.4121
G01 X33.8542 Y11.4302
G01 X33.8380 Y11.4521
G01 X33.8227 Y11.4780
G01 X33.8123 Y11.5000
G01 X33.8032 Y11.5257
G01 X33.7960 Y11.5549
G01 X33.7925 Y11.5790
G01 X33.7913 Y11.6034
G01 X33.7912 Y12.1187
G01 X33.7925 Y12.1460
G01 X33.7963 Y12.1715
G01 X33.8032 Y12.1993
G01 X33.8123 Y12.2250
G01 X33.8240 Y12.2496
G01 X33.8380 Y12.2729
G01 X33.8542 Y12.2948
G01 X33.8725 Y12.3150
G01 X33.8927 Y12.3333
G01 X33.9146 Y12.3495
G01 X33.9405 Y12.3648
G01 X33.9625 Y12.3752
G01 X33.9854 Y12.3834
G01 X34.0146 Y12.3910
G01 X34.0430 Y12.3951
G01 X34.0688 Y12.3963
G01 X34.5062 Y12.3963
G01 X34.5363 Y12.3946
G01 X34.5604 Y12.3910
G01 X34.5868 Y12.3843
G01 X34.6125 Y12.3752
G01 X34.6345 Y12.3648
G01 X34.6396 Y12.3621
G01 X34.6628 Y12.3479
G01 X34.6823 Y12.3333
G01 X34.7004 Y12.3170
G01 X34.7045 Y12.3129
G01 X34.7226 Y12.2926
G01 X34.7370 Y12.2729
G01 X34.7510 Y12.2496
G01 X34.7627 Y12.2250
G01 X34.7709 Y12.2021
G01 X34.7726 Y12.1965
G01 X34.7787 Y12.1714
G01 X35.1654 Y12.1714
G01 X35.1571 Y12.2527
G01 X35.1084 Y12.3996
G01 X35.0274 Y12.5309
G01 X34.9184 Y12.6399
G01 X34.8103 Y12.7066
G01 X34.8056 Y12.7098
G01 X34.7984 Y12.7163
G01 X34.7497 Y12.7704
G01 X34.7453 Y12.7762
G01 X34.7417 Y12.7825
G01 X34.7389 Y12.7893
G01 X34.7372 Y12.7949
G01 X34.7252 Y12.8681
G01 X34.7244 Y12.8783
G01 X34.7248 Y12.8841
G01 X34.7257 Y12.8899
G01 X34.7272 Y12.8955
G01 X34.7293 Y12.9010
G01 X34.7583 Y12.9677
G01 X34.7628 Y12.9753
G01 X34.7683 Y12.9821
G01 X34.7725 Y12.9861
G01 X34.8026 Y13.0122
G01 X34.8080 Y13.0163
G01 X34.9187 Y13.0847
G01 X35.0278 Y13.1938
G01 X35.1089 Y13.3252
G01 X35.1576 Y13.4722
G01 X35.1667 Y13.5613
G01 X35.1667 Y14.1637
G01 X35.1623 Y14.2069
G01 X35.1620 Y14.2153
G01 X35.1630 Y14.2236
G01 X35.1763 Y14.2952
G01 X35.1785 Y14.3022
G01 X35.1808 Y14.3075
G01 X35.1836 Y14.3126
G01 X35.1878 Y14.3186
G01 X35.2396 Y14.3738
G01 X35.2451 Y14.3787
G01 X35.2524 Y14.3836
G01 X35.2591 Y14.3869
G01 X35.2660 Y14.3892
G01 X35.3301 Y14.4066
G01 X35.3371 Y14.4079
G01 X35.3427 Y14.4083
G01 X39.6378 Y14.4083
G01 X39.6448 Y14.4079
G01 X39.6503 Y14.4070
G01 X39.6708 Y14.4011
G01 X39.6894 Y14.3995
G01 X39.6951 Y14.3985
G01 X39.7007 Y14.3970
G01 X39.7074 Y14.3944
G01 X39.7126 Y14.3918
G01 X39.7210 Y14.3864
G01 X39.7311 Y14.3824
G01 X39.7375 Y14.3787
G01 X39.7475 Y14.3717
G01 X39.7603 Y14.3614
G01 X39.8181 Y14.3037
G01 X39.9034 Y14.2510
G01 X39.9145 Y14.2426
G01 X39.9205 Y14.2367
G01 X39.9390 Y14.2116
G01 X39.9571 Y14.1915
G01 X39.9607 Y14.1869
G01 X39.9658 Y14.1780
G01 X39.9689 Y14.1697
G01 X39.9726 Y14.1617
G01 X39.9747 Y14.1547
G01 X39.9757 Y14.1489
G01 X39.9776 Y14.1190
G01 X39.9821 Y14.0909
G01 X39.9825 Y14.0836
G01 X39.9819 Y14.0763
G01 X39.9800 Y14.0676
G01 X39.9785 Y14.0574
G01 X39.9768 Y14.0519
G01 X39.9739 Y14.0451
G01 X39.9599 Y14.0203
G01 X39.9492 Y13.9955
G01 X39.9464 Y13.9903
G01 X39.9405 Y13.9820
G01 X39.9342 Y13.9757
G01 X39.9295 Y13.9701
G01 X39.9241 Y13.9651
G01 X39.9194 Y13.9617
G01 X39.9149 Y13.9590
G01 X39.9032 Y13.9489
G01 X39.8989 Y13.9456
G01 X39.8184 Y13.8959
G01 X39.7041 Y13.7816
G01 X39.6193 Y13.6441
G01 X39.5683 Y13.4903
G01 X39.5600 Y13.4089
G01 X39.9469 Y13.4089
G01 X39.9545 Y13.4396
G01 X39.9637 Y13.4655
G01 X39.9659 Y13.4708
G01 X39.9791 Y13.4981
G01 X39.9932 Y13.5216
G01 X40.0113 Y13.5459
G01 X40.0316 Y13.5684
G01 X40.0541 Y13.5887
G01 X40.0784 Y13.6068
G01 X40.1019 Y13.6209
G01 X40.1070 Y13.6236
G01 X40.1345 Y13.6363
G01 X40.1604 Y13.6455
G01 X40.1898 Y13.6529
G01 X40.2197 Y13.6573
G01 X40.2471 Y13.6587
G01 X45.2500 Y13.6588
G01 X45.2803 Y13.6573
G01 X45.3074 Y13.6534
G01 X45.3131 Y13.6522
G01 X45.3424 Y13.6446
G01 X45.3682 Y13.6353
G01 X45.3956 Y13.6223
G01 X45.4216 Y13.6068
G01 X45.4459 Y13.5887
G01 X45.4684 Y13.5684
G01 X45.4887 Y13.5459
G01 X45.5068 Y13.5216
G01 X45.5209 Y13.4981
G01 X45.5236 Y13.4930
G01 X45.5363 Y13.4655
G01 X45.5455 Y13.4396
G01 X45.5531 Y13.4089
G01 X45.9400 Y13.4089
G01 X45.9317 Y13.4903
G01 X45.8807 Y13.6441
G01 X45.7959 Y13.7816
G01 X45.6816 Y13.8959
G01 X45.6034 Y13.9441
G01 X45.5977 Y13.9481
G01 X45.5906 Y13.9548
G01 X45.5410 Y14.0102
G01 X45.5377 Y14.0149
G01 X45.5348 Y14.0200
G01 X45.5320 Y14.0268
G01 X45.5304 Y14.0324
G01 X45.5181 Y14.1071
G01 X45.5175 Y14.1144
G01 X45.5179 Y14.1216
G01 X45.5192 Y14.1288
G01 X45.5213 Y14.1358
G01 X45.5508 Y14.2039
G01 X45.5543 Y14.2103
G01 X45.5586 Y14.2163
G01 X45.5657 Y14.2236
G01 X45.6000 Y14.2530
G01 X45.6819 Y14.3037
G01 X45.7963 Y14.4181
G01 X45.8812 Y14.5557
G01 X45.9322 Y14.7096
G01 X45.9417 Y14.8030
G01 X45.9417 Y15.3970
G01 X45.9322 Y15.4904
G01 X45.8812 Y15.6443
G01 X45.7963 Y15.7819
G01 X45.6819 Y15.8963
G01 X45.6416 Y15.9212
G01 X45.6371 Y15.9244
G01 X45.6329 Y15.9281
G01 X45.5832 Y15.9831
G01 X45.5771 Y15.9912
G01 X45.5742 Y15.9963
G01 X45.5719 Y16.0017
G01 X45.5701 Y16.0073
G01 X45.5689 Y16.0130
G01 X45.5573 Y16.0848
G01 X45.5570 Y16.0936
G01 X45.5582 Y16.1037
G01 X45.5612 Y16.1135
G01 X45.5902 Y16.1802
G01 X45.5937 Y16.1866
G01 X45.5989 Y16.1937
G01 X45.6040 Y16.1989
G01 X45.6097 Y16.2035
G01 X45.6689 Y16.2432
G01 X45.6777 Y16.2480
G01 X45.6871 Y16.2513
G01 X45.7299 Y16.2581
G01 X45.7388 Y16.2588
G01 X46.2970 Y16.2588
G01 X46.3903 Y16.2683
G01 X46.5441 Y16.3193
G01 X46.6816 Y16.4041
G01 X46.6911 Y16.4136
G01 X46.6911 Y16.8720
G01 X46.5588 Y17.0043
G01 X46.5588 Y16.9486
G01 X46.5573 Y16.9197
G01 X46.5529 Y16.8898
G01 X46.5459 Y16.8617
G01 X46.5353 Y16.8318
G01 X46.5223 Y16.8044
G01 X46.5068 Y16.7784
G01 X46.4896 Y16.7552
G01 X46.4684 Y16.7316
G01 X46.4459 Y16.7113
G01 X46.4216 Y16.6932
G01 X46.3956 Y16.6777
G01 X46.3682 Y16.6647
G01 X46.3396 Y16.6545
G01 X46.3102 Y16.6471
G01 X46.2788 Y16.6426
G01 X46.2500 Y16.6412
G01 X43.7500 Y16.6412
G01 X43.7197 Y16.6427
G01 X43.6869 Y16.6478
G01 X43.6604 Y16.6545
G01 X43.6345 Y16.6637
G01 X43.6044 Y16.6777
G01 X43.5784 Y16.6932
G01 X43.5519 Y16.7132
G01 X43.5316 Y16.7316
G01 X43.5132 Y16.7519
G01 X43.4932 Y16.7784
G01 X43.4770 Y16.8057
G01 X43.4647 Y16.8318
G01 X43.4545 Y16.8604
G01 X43.4471 Y16.8898
G01 X43.4427 Y16.9197
G01 X43.4412 Y16.9500
G01 X43.4412 Y17.1911
G01 X43.0588 Y17.1911
G01 X43.0588 Y16.9030
G01 X43.0683 Y16.8097
G01 X43.1193 Y16.6559
G01 X43.2041 Y16.5184
G01 X43.3184 Y16.4041
G01 X43.3585 Y16.3793
G01 X43.3642 Y16.3752
G01 X43.3683 Y16.3714
G01 X43.4197 Y16.3140
G01 X43.4238 Y16.3080
G01 X43.4265 Y16.3028
G01 X43.4292 Y16.2960
G01 X43.4307 Y16.2904
G01 X43.4427 Y16.2171
G01 X43.4432 Y16.2099
G01 X43.4429 Y16.2026
G01 X43.4412 Y16.1940
G01 X43.4389 Y16.1870
G01 X43.4093 Y16.1190
G01 X43.4056 Y16.1126
G01 X43.4012 Y16.1068
G01 X43.3962 Y16.1016
G01 X43.3905 Y16.0970
G01 X43.3288 Y16.0558
G01 X43.3211 Y16.0519
G01 X43.3116 Y16.0489
G01 X43.2703 Y16.0424
G01 X43.2614 Y16.0417
G01 X40.2030 Y16.0417
G01 X40.1096 Y16.0322
G01 X39.9557 Y15.9812
G01 X39.8181 Y15.8963
G01 X39.7660 Y15.8443
G01 X39.7607 Y15.8397
G01 X39.7561 Y15.8366
G01 X39.6923 Y15.8017
G01 X39.6858 Y15.7987
G01 X39.6803 Y15.7968
G01 X39.6733 Y15.7952
G01 X39.6393 Y15.7917
G01 X34.6069 Y15.7917
G01 X34.4732 Y15.7651
G01 X34.4021 Y15.7357
G01 X34.3928 Y15.7327
G01 X34.3859 Y15.7315
G01 X34.3164 Y15.7241
G01 X34.3092 Y15.7237
G01 X34.3033 Y15.7241
G01 X34.2961 Y15.7254
G01 X34.2906 Y15.7271
G01 X34.2852 Y15.7293
G01 X34.2200 Y15.7619
G01 X34.2137 Y15.7658
G01 X34.2069 Y15.7715
G01 X32.9409 Y17.0373
G01 X32.8276 Y17.1130
G01 X32.7018 Y17.1651
G01 X32.5681 Y17.1917
G01 X27.9319 Y17.1917
G01 X27.7982 Y17.1651
G01 X27.6724 Y17.1130
G01 X27.5591 Y17.0373
G01 X25.7670 Y15.2452
G01 X25.7618 Y15.2406
G01 X25.7549 Y15.2359
G01 X25.6923 Y15.2017
G01 X25.6831 Y15.1977
G01 X25.6747 Y15.1955
G01 X25.6441 Y15.1920
G01 X25.6378 Y15.1917
G01 X16.9319 Y15.1917
G01 X16.7982 Y15.1651
G01 X16.6724 Y15.1130
G01 X16.5591 Y15.0373
G01 X14.4627 Y12.9409
G01 X14.3870 Y12.8276
G01 X14.3349 Y12.7018
G01 X14.3083 Y12.5681
G01 X14.3083 Y10.9319
G01 X14.3349 Y10.7982
G01 X14.3870 Y10.6724
G01 X14.4627 Y10.5591
G01 X15.4623 Y9.5595
G01 X15.4668 Y9.5542
G01 X15.4706 Y9.5483
G01 X15.5061 Y9.4832
G01 X15.5089 Y9.4764
G01 X15.5108 Y9.4694
G01 X15.5117 Y9.4636
G01 X15.5120 Y9.4563
G01 X15.5067 Y9.3823
G01 X15.5059 Y9.3764
G01 X15.5040 Y9.3693
G01 X15.5019 Y9.3639
G01 X15.4984 Y9.3574
G01 X15.4684 Y9.3106
G01 X15.4632 Y9.3040
G01 X14.2670 Y8.1077
G01 X14.2607 Y8.1022
G01 X14.2536 Y8.0977
G01 X14.1923 Y8.0642
G01 X14.1858 Y8.0612
G01 X14.1803 Y8.0593
G01 X14.1733 Y8.0577
G01 X14.1409 Y8.0543
G01 X13.1799 Y8.0542
G01 X13.1715 Y8.0548
G01 X13.1633 Y8.0566
G01 X13.0949 Y8.0767
G01 X13.0868 Y8.0800
G01 X13.0804 Y8.0836
G01 X13.0746 Y8.0880
G01 X13.0694 Y8.0931
G01 X13.0226 Y8.1470
G01 X13.0182 Y8.1528
G01 X13.0145 Y8.1591
G01 X13.0117 Y8.1658
G01 X13.0097 Y8.1728
G01 X12.9985 Y8.2506
G01 X12.9984 Y8.2579
G01 X12.9990 Y8.2637
G01 X13.0006 Y8.2709
G01 X13.0025 Y8.2764
G01 X13.0333 Y8.3440
G01 X13.0362 Y8.3492
G01 X13.0405 Y8.3552
G01 X13.0444 Y8.3596
G01 X13.0488 Y8.3636
G01 X13.0908 Y8.3963
G01 X13.0969 Y8.3999
G01 X13.1410 Y8.4223
G01 X12.8553 Y8.7080
G01 X12.8311 Y8.6968
G01 X12.7536 Y8.6690
G01 X12.6709 Y8.6482
G01 X12.5852 Y8.6354
G01 X12.5000 Y8.6312
G01 X12.4148 Y8.6354
G01 X12.3291 Y8.6482
G01 X12.2464 Y8.6690
G01 X12.1689 Y8.6968
G01 X12.1447 Y8.7080
G01 X11.8590 Y8.4223
G01 X11.9043 Y8.3992
G01 X11.9114 Y8.3947
G01 X11.9168 Y8.3902
G01 X11.9676 Y8.3423
G01 X11.9735 Y8.3358
G01 X11.9791 Y8.3272
G01 X11.9816 Y8.3220
G01 X11.9835 Y8.3165
G01 X12.0011 Y8.2458
G01 X12.0025 Y8.2372
G01 X12.0028 Y8.2314
G01 X12.0025 Y8.2255
G01 X12.0016 Y8.2198
G01 X12.0001 Y8.2141
G01 X11.9766 Y8.1452
G01 X11.9743 Y8.1398
G01 X11.9708 Y8.1335
G01 X11.9654 Y8.1265
G01 X11.9580 Y8.1195
G01 X11.9021 Y8.0752
G01 X11.8960 Y8.0711
G01 X11.8893 Y8.0678
G01 X11.8838 Y8.0658
G01 X11.8780 Y8.0644
G01 X11.8300 Y8.0550
G01 X11.8201 Y8.0542
G01 X10.6122 Y8.0542
G01 X10.6052 Y8.0546
G01 X10.5997 Y8.0555
G01 X10.5792 Y8.0614
G01 X10.5606 Y8.0630
G01 X10.5521 Y8.0646
G01 X10.5426 Y8.0681
G01 X10.5374 Y8.0707
G01 X10.5290 Y8.0761
G01 X10.5230 Y8.0782
G01 X10.5176 Y8.0807
G01 X10.5125 Y8.0838
G01 X10.5015 Y8.0916
G01 X10.4897 Y8.1011
G01 X10.4319 Y8.1588
G01 X10.3466 Y8.2115
G01 X10.3355 Y8.2199
G01 X10.3295 Y8.2258
G01 X10.3110 Y8.2509
G01 X10.2929 Y8.2710
G01 X10.2893 Y8.2756
G01 X10.2842 Y8.2844
G01 X10.2811 Y8.2928
G01 X10.2774 Y8.3008
G01 X10.2753 Y8.3078
G01 X10.2743 Y8.3136
G01 X10.2724 Y8.3435
G01 X10.2679 Y8.3716
G01 X10.2675 Y8.3789
G01 X10.2681 Y8.3862
G01 X10.2700 Y8.3949
G01 X10.2715 Y8.4051
G01 X10.2737 Y8.4120
G01 X10.2761 Y8.4174
G01 X10.2900 Y8.4422
G01 X10.3008 Y8.4670
G01 X10.3036 Y8.4722
G01 X10.3095 Y8.4805
G01 X10.3158 Y8.4868
G01 X10.3205 Y8.4924
G01 X10.3259 Y8.4974
G01 X10.3306 Y8.5008
G01 X10.3351 Y8.5035
G01 X10.3468 Y8.5136
G01 X10.3511 Y8.5169
G01 X10.4316 Y8.5666
G01 X10.5459 Y8.6809
G01 X10.6307 Y8.8184
G01 X10.6817 Y8.9722
G01 X10.6900 Y9.0536
G01 X10.3031 Y9.0536
G01 X10.2955 Y9.0229
G01 X10.2863 Y8.9970
G01 X10.2841 Y8.9917
G01 X10.2709 Y8.9644
G01 X10.2568 Y8.9409
G01 X10.2387 Y8.9166
G01 X10.2184 Y8.8941
G01 X10.1959 Y8.8738
G01 X10.1716 Y8.8557
G01 X10.1481 Y8.8416
G01 X10.1430 Y8.8389
G01 X10.1155 Y8.8262
G01 X10.0896 Y8.8170
G01 X10.0602 Y8.8096
G01 X10.0303 Y8.8052
G01 X10.0029 Y8.8038
G01 X5.0000 Y8.8037
G01 X4.9697 Y8.8052
G01 X4.9426 Y8.8091
G01 X4.9369 Y8.8103
G01 X4.9076 Y8.8179
G01 X4.8818 Y8.8272
G01 X4.8544 Y8.8402
G01 X4.8284 Y8.8557
G01 X4.8041 Y8.8738
G01 X4.7816 Y8.8941
G01 X4.7613 Y8.9166
G01 X4.7432 Y8.9409
G01 X4.7291 Y8.9644
G01 X4.7264 Y8.9695
G01 X4.7137 Y8.9970
G01 X4.7045 Y9.0229
G01 X4.6969 Y9.0536
G01 X4.3100 Y9.0536
G01 X4.3183 Y8.9722
G01 X4.3693 Y8.8184
G01 X4.4541 Y8.6809
G01 X4.5684 Y8.5666
G01 X4.6466 Y8.5184
G01 X4.6523 Y8.5144
G01 X4.6594 Y8.5077
G01 X4.7090 Y8.4523
G01 X4.7123 Y8.4476
G01 X4.7158 Y8.4411
G01 X4.7180 Y8.4357
G01 X4.7196 Y8.4301
G01 X4.7319 Y8.3554
G01 X4.7325 Y8.3481
G01 X4.7321 Y8.3409
G01 X4.7308 Y8.3337
G01 X4.7287 Y8.3267
G01 X4.6992 Y8.2586
G01 X4.6957 Y8.2522
G01 X4.6914 Y8.2462
G01 X4.6843 Y8.2389
G01 X4.6500 Y8.2095
G01 X4.5681 Y8.1588
G01 X4.4537 Y8.0444
G01 X4.3688 Y7.9068
G01 X4.3178 Y7.7529
G01 X4.3083 Y7.6595
G01 X4.3083 Y7.0655
G01 X4.3178 Y6.9721
G01 X4.3688 Y6.8182
G01 X4.4537 Y6.6806
G01 X4.5681 Y6.5662
G01 X4.6084 Y6.5413
G01 X4.6129 Y6.5381
G01 X4.6171 Y6.5344
G01 X4.6668 Y6.4794
G01 X4.6705 Y6.4749
G01 X4.6737 Y6.4700
G01 X4.6776 Y6.4622
G01 X4.6806 Y6.4524
G01 X4.6923 Y6.3806
G01 X4.6930 Y6.3733
G01 X4.6930 Y6.3675
G01 X4.6923 Y6.3617
G01 X4.6911 Y6.3560
G01 X4.6882 Y6.3477
G01 X4.6598 Y6.2823
G01 X4.6555 Y6.2746
G01 X4.6501 Y6.2677
G01 X4.6460 Y6.2636
G01 X4.6403 Y6.2590
G01 X4.5799 Y6.2185
G01 X4.5710 Y6.2139
G01 X4.5629 Y6.2112
G01 X4.5201 Y6.2044
G01 X4.5112 Y6.2037
G01 X3.9530 Y6.2037
G01 X3.8597 Y6.1942
G01 X3.7059 Y6.1432
G01 X3.5684 Y6.0584
G01 X3.4541 Y5.9441
G01 X3.3693 Y5.8066
G01 X3.3183 Y5.6528
G01 X3.3088 Y5.5595
G01 X3.3088 Y5.2714
G00 Z2.0000
G00 X3.4029 Y5.3655
G01 F30.00
G01 Z-0.0499
G01 F90.00
G01 X3.5971 Y5.3655
G01 X3.5972 Y5.5163
G01 X3.5991 Y5.5520
G01 X3.6042 Y5.5874
G01 X3.6065 Y5.5984
G01 X3.6145 Y5.6294
G01 X3.6264 Y5.6632
G01 X3.6308 Y5.6735
G01 X3.6430 Y5.6991
G01 X3.6484 Y5.7089
G01 X3.6610 Y5.7300
G01 X3.6693 Y5.7425
G01 X3.6886 Y5.7681
G01 X3.7151 Y5.7974
G01 X3.7444 Y5.8239
G01 X3.7762 Y5.8475
G01 X3.8101 Y5.8678
G01 X3.8458 Y5.8847
G01 X3.8831 Y5.8980
G01 X3.9141 Y5.9060
G01 X3.9251 Y5.9083
G01 X3.9605 Y5.9134
G01 X4.0000 Y5.9154
G01 X6.5000 Y5.9154
G01 X6.5395 Y5.9134
G01 X6.5712 Y5.9089
G01 X6.5859 Y5.9060
G01 X6.6169 Y5.8980
G01 X6.6472 Y5.8874
G01 X6.6610 Y5.8817
G01 X6.6899 Y5.8678
G01 X6.7238 Y5.8475
G01 X6.7497 Y5.8285
G01 X6.7613 Y5.8190
G01 X6.7822 Y5.8000
G01 X6.7901 Y5.7919
G01 X6.8114 Y5.7681
G01 X6.8307 Y5.7425
G01 X6.8390 Y5.7300
G01 X6.8553 Y5.7024
G01 X6.8722 Y5.6667
G01 X6.8855 Y5.6294
G01 X6.8951 Y5.5911
G01 X6.9009 Y5.5520
G01 X6.9028 Y5.5163
G01 X6.9029 Y5.3654
G01 X7.0971 Y5.3654
G01 X7.0971 Y5.5547
G01 X7.0891 Y5.6330
G01 X7.0449 Y5.7666
G01 X6.9716 Y5.8854
G01 X6.8729 Y5.9841
G01 X6.8372 Y6.0063
G01 X6.8284 Y6.0128
G01 X6.8174 Y6.0224
G01 X6.8099 Y6.0302
G01 X6.7631 Y6.0822
G01 X6.7582 Y6.0879
G01 X6.7513 Y6.0970
G01 X6.7433 Y6.1099
G01 X6.7381 Y6.1201
G01 X6.7337 Y6.1306
G01 X6.7291 Y6.1450
G01 X6.7259 Y6.1599
G01 X6.7136 Y6.2363
G01 X6.7127 Y6.2515
G01 X6.7130 Y6.2629
G01 X6.7137 Y6.2704
G01 X6.7147 Y6.2780
G01 X6.7169 Y6.2891
G01 X6.7212 Y6.3037
G01 X6.7254 Y6.3143
G01 X6.7564 Y6.3853
G01 X6.7618 Y6.3953
G01 X6.7680 Y6.4049
G01 X6.7725 Y6.4110
G01 X6.7798 Y6.4197
G01 X6.7905 Y6.4305
G01 X6.7962 Y6.4355
G01 X6.8053 Y6.4424
G01 X6.8665 Y6.4834
G01 X6.8727 Y6.4874
G01 X6.8825 Y6.4927
G01 X6.8892 Y6.4959
G01 X6.8996 Y6.5001
G01 X6.9066 Y6.5025
G01 X6.9174 Y6.5053
G01 X6.9283 Y6.5074
G01 X6.9693 Y6.5137
G01 X6.9809 Y6.5147
G01 X6.9886 Y6.5149
G01 X10.0422 Y6.5149
G01 X10.1206 Y6.5229
G01 X10.2543 Y6.5672
G01 X10.3732 Y6.6405
G01 X10.4217 Y6.6888
G01 X10.4272 Y6.6936
G01 X10.4359 Y6.7002
G01 X10.4450 Y6.7062
G01 X10.4513 Y6.7099
G01 X10.5159 Y6.7451
G01 X10.5261 Y6.7499
G01 X10.5366 Y6.7539
G01 X10.5510 Y6.7580
G01 X10.5621 Y6.7602
G01 X10.5959 Y6.7640
G01 X10.6081 Y6.7648
G01 X14.5589 Y6.7649
G01 X14.6743 Y6.7878
G01 X14.7831 Y6.8329
G01 X14.8810 Y6.8983
G01 X16.6664 Y8.6838
G01 X16.6744 Y8.6912
G01 X16.6829 Y8.6981
G01 X16.6919 Y8.7043
G01 X16.6981 Y8.7081
G01 X16.7659 Y8.7451
G01 X16.7761 Y8.7499
G01 X16.7831 Y8.7526
G01 X16.7974 Y8.7571
G01 X16.8121 Y8.7602
G01 X16.8459 Y8.7640
G01 X16.8581 Y8.7648
G01 X18.1378 Y8.7649
G01 X18.1523 Y8.7642
G01 X18.1667 Y8.7621
G01 X18.1773 Y8.7597
G01 X18.2479 Y8.7390
G01 X18.2586 Y8.7354
G01 X18.2655 Y8.7326
G01 X18.2790 Y8.7260
G01 X18.2917 Y8.7181
G01 X18.3007 Y8.7114
G01 X18.3214 Y8.6947
G01 X18.3306 Y8.6866
G01 X20.3190 Y6.6983
G01 X20.4169 Y6.6329
G01 X20.5257 Y6.5878
G01 X20.6411 Y6.5649
G01 X21.4901 Y6.5649
G01 X21.5010 Y6.5645
G01 X21.5082 Y6.5638
G01 X21.5226 Y6.5614
G01 X21.5331 Y6.5587
G01 X21.5573 Y6.5516
G01 X21.5857 Y6.5454
G01 X21.6005 Y6.5409
G01 X21.6112 Y6.5367
G01 X21.6216 Y6.5316
G01 X21.6377 Y6.5222
G01 X21.6471 Y6.5159
G01 X21.6737 Y6.4947
G01 X21.6829 Y6.4866
G01 X21.8213 Y6.3483
G01 X21.8287 Y6.3404
G01 X21.8377 Y6.3289
G01 X21.8456 Y6.3167
G01 X21.8808 Y6.2522
G01 X21.8859 Y6.2421
G01 X21.8888 Y6.2352
G01 X21.8936 Y6.2210
G01 X21.8971 Y6.2064
G01 X21.8987 Y6.1953
G01 X21.9022 Y6.1607
G01 X21.9022 Y5.6676
G01 X21.9008 Y5.6532
G01 X21.8981 Y5.6389
G01 X21.8754 Y5.5612
G01 X21.8700 Y5.5470
G01 X21.8633 Y5.5334
G01 X21.8553 Y5.5205
G01 X21.8484 Y5.5114
G01 X21.8435 Y5.5056
G01 X21.8383 Y5.5001
G01 X21.8299 Y5.4923
G01 X21.7771 Y5.4466
G01 X21.7683 Y5.4395
G01 X21.7621 Y5.4351
G01 X21.7525 Y5.4292
G01 X21.7458 Y5.4256
G01 X21.7355 Y5.4209
G01 X21.7223 Y5.4155
G01 X21.6237 Y5.3787
G01 X21.5437 Y5.3188
G01 X21.4838 Y5.2388
G01 X21.4479 Y5.1425
G01 X21.4444 Y5.1102
G01 X21.4444 Y3.6148
G01 X21.4479 Y3.5824
G01 X21.4838 Y3.4862
G01 X21.5437 Y3.4062
G01 X21.6237 Y3.3463
G01 X21.7199 Y3.3104
G01 X21.7523 Y3.3069
G01 X22.6030 Y3.3067
G01 X22.6103 Y3.3062
G01 X22.6211 Y3.3048
G01 X22.6283 Y3.3034
G01 X22.6388 Y3.3007
G01 X22.7095 Y3.2799
G01 X22.7235 Y3.2746
G01 X22.7370 Y3.2680
G01 X22.7466 Y3.2622
G01 X22.7558 Y3.2557
G01 X22.7825 Y3.2341
G01 X22.7916 Y3.2258
G01 X23.7915 Y2.2258
G01 X23.8894 Y2.1604
G01 X23.9982 Y2.1153
G01 X24.1136 Y2.0924
G01 X36.2489 Y2.0924
G01 X36.3643 Y2.1153
G01 X36.4731 Y2.1604
G01 X36.5710 Y2.2258
G01 X36.6253 Y2.2801
G01 X36.6390 Y2.2918
G01 X36.6507 Y2.3004
G01 X36.6599 Y2.3061
G01 X36.6663 Y2.3096
G01 X36.6729 Y2.3127
G01 X36.6957 Y2.3223
G01 X36.7210 Y2.3359
G01 X36.7314 Y2.3405
G01 X36.7421 Y2.3443
G01 X36.7568 Y2.3480
G01 X36.7771 Y2.3515
G01 X36.7884 Y2.3528
G01 X36.7998 Y2.3532
G01 X36.8074 Y2.3530
G01 X36.8182 Y2.3521
G01 X36.8360 Y2.3524
G01 X36.8466 Y2.3519
G01 X36.8571 Y2.3506
G01 X36.9089 Y2.3424
G01 X37.0911 Y2.3424
G01 X37.2711 Y2.3709
G01 X37.4444 Y2.4272
G01 X37.6067 Y2.5099
G01 X37.7541 Y2.6170
G01 X37.8830 Y2.7459
G01 X37.9901 Y2.8933
G01 X38.0728 Y3.0556
G01 X38.1291 Y3.2289
G01 X38.1576 Y3.4089
G01 X38.1576 Y3.5911
G01 X38.1291 Y3.7711
G01 X38.0728 Y3.9444
G01 X37.9901 Y4.1067
G01 X37.8830 Y4.2541
G01 X37.7541 Y4.3830
G01 X37.6067 Y4.4901
G01 X37.4444 Y4.5728
G01 X37.3699 Y4.5970
G01 X36.6301 Y4.5970
G01 X36.5556 Y4.5728
G01 X36.3933 Y4.4901
G01 X36.2459 Y4.3830
G01 X36.1170 Y4.2541
G01 X36.0099 Y4.1067
G01 X35.9272 Y3.9444
G01 X35.8709 Y3.7711
G01 X35.8424 Y3.5911
G01 X35.8422 Y3.5572
G01 X35.8413 Y3.5464
G01 X35.8396 Y3.5356
G01 X35.8362 Y3.5214
G01 X35.8154 Y3.4508
G01 X35.8115 Y3.4401
G01 X35.8068 Y3.4297
G01 X35.8014 Y3.4197
G01 X35.7953 Y3.4101
G01 X35.7884 Y3.4010
G01 X35.7783 Y3.3897
G01 X35.7699 Y3.3819
G01 X35.7171 Y3.3362
G01 X35.7112 Y3.3313
G01 X35.7019 Y3.3246
G01 X35.6922 Y3.3186
G01 X35.6854 Y3.3150
G01 X35.6750 Y3.3103
G01 X35.6643 Y3.3063
G01 X35.6495 Y3.3023
G01 X35.5944 Y3.2904
G01 X35.5800 Y3.2883
G01 X35.5655 Y3.2876
G01 X30.5215 Y3.2877
G01 X30.5143 Y3.2880
G01 X30.5034 Y3.2892
G01 X30.4891 Y3.2919
G01 X30.4151 Y3.3135
G01 X30.4007 Y3.3185
G01 X30.3870 Y3.3249
G01 X30.3771 Y3.3306
G01 X30.3707 Y3.3347
G01 X30.3587 Y3.3440
G01 X30.3531 Y3.3491
G01 X30.3451 Y3.3572
G01 X30.2968 Y3.4129
G01 X30.2897 Y3.4218
G01 X30.2853 Y3.4280
G01 X30.2793 Y3.4376
G01 X30.2741 Y3.4478
G01 X30.2710 Y3.4547
G01 X30.2683 Y3.4618
G01 X30.2649 Y3.4727
G01 X30.2623 Y3.4837
G01 X30.2611 Y3.4912
G01 X30.2506 Y3.5642
G01 X30.2497 Y3.5755
G01 X30.2498 Y3.5907
G01 X30.2508 Y3.6020
G01 X30.2527 Y3.6133
G01 X30.2555 Y3.6243
G01 X30.2590 Y3.6351
G01 X30.2634 Y3.6457
G01 X30.2924 Y3.7092
G01 X30.2957 Y3.7160
G01 X30.3012 Y3.7258
G01 X30.3053 Y3.7321
G01 X30.3120 Y3.7411
G01 X30.3219 Y3.7524
G01 X30.3301 Y3.7602
G01 X30.3582 Y3.7844
G01 X30.4588 Y3.8851
G01 X30.5276 Y3.9988
G01 X30.5582 Y4.0971
G01 X30.3538 Y4.0971
G01 X30.3495 Y4.0865
G01 X30.3362 Y4.0587
G01 X30.3205 Y4.0321
G01 X30.3141 Y4.0228
G01 X30.2978 Y4.0011
G01 X30.2797 Y3.9809
G01 X30.2718 Y3.9729
G01 X30.2489 Y3.9522
G01 X30.2241 Y3.9337
G01 X30.2147 Y3.9276
G01 X30.1913 Y3.9138
G01 X30.1669 Y3.9020
G01 X30.1566 Y3.8976
G01 X30.1274 Y3.8873
G01 X30.1012 Y3.8805
G01 X30.0902 Y3.8782
G01 X30.0596 Y3.8738
G01 X30.0250 Y3.8721
G01 X29.6250 Y3.8721
G01 X29.5942 Y3.8735
G01 X29.5830 Y3.8747
G01 X29.5562 Y3.8789
G01 X29.5226 Y3.8873
G01 X29.4900 Y3.8990
G01 X29.4620 Y3.9121
G01 X29.4521 Y3.9175
G01 X29.4321 Y3.9295
G01 X29.4259 Y3.9337
G01 X29.4041 Y3.9499
G01 X29.3955 Y3.9571
G01 X29.3755 Y3.9755
G01 X29.3571 Y3.9955
G01 X29.3499 Y4.0041
G01 X29.3359 Y4.0228
G01 X29.3295 Y4.0321
G01 X29.3156 Y4.0554
G01 X29.3104 Y4.0654
G01 X29.3005 Y4.0865
G01 X29.2963 Y4.0970
G01 X29.2884 Y4.1190
G01 X29.2863 Y4.1262
G01 X29.2805 Y4.1488
G01 X29.2782 Y4.1598
G01 X29.2742 Y4.1867
G01 X29.2733 Y4.1979
G01 X29.2722 Y4.2212
G01 X29.2721 Y4.6579
G01 X28.8319 Y5.0982
G01 X28.8182 Y5.1078
G01 X28.8072 Y5.1173
G01 X28.7152 Y5.2092
G01 X28.6014 Y5.2780
G01 X28.4722 Y5.3183
G01 X28.4247 Y5.3226
G01 X27.9253 Y5.3226
G01 X27.8778 Y5.3183
G01 X27.7486 Y5.2780
G01 X27.6348 Y5.2092
G01 X27.5408 Y5.1152
G01 X27.5278 Y5.0938
G01 X27.5218 Y5.0846
G01 X27.5152 Y5.0759
G01 X27.5080 Y5.0678
G01 X27.5002 Y5.0601
G01 X27.4487 Y5.0129
G01 X27.4401 Y5.0057
G01 X27.4280 Y4.9970
G01 X27.4183 Y4.9913
G01 X27.4083 Y4.9863
G01 X27.3944 Y4.9808
G01 X27.3800 Y4.9767
G01 X27.3254 Y4.9641
G01 X27.3140 Y4.9619
G01 X27.3024 Y4.9606
G01 X27.2908 Y4.9601
G01 X26.0063 Y4.9602
G01 X25.9918 Y4.9612
G01 X25.9810 Y4.9629
G01 X25.9739 Y4.9644
G01 X25.8998 Y4.9860
G01 X25.8927 Y4.9883
G01 X25.8822 Y4.9924
G01 X25.8720 Y4.9972
G01 X25.8623 Y5.0028
G01 X25.8560 Y5.0069
G01 X25.8470 Y5.0136
G01 X25.8263 Y5.0303
G01 X25.8171 Y5.0384
G01 X25.6877 Y5.1677
G01 X25.5533 Y5.2653
G01 X25.4052 Y5.3408
G01 X25.2472 Y5.3921
G01 X25.0831 Y5.4181
G01 X24.9169 Y5.4181
G01 X24.7528 Y5.3921
G01 X24.5948 Y5.3408
G01 X24.4467 Y5.2653
G01 X24.3123 Y5.1677
G01 X24.1948 Y5.0502
G01 X24.0972 Y4.9158
G01 X24.0757 Y4.8741
G01 X24.0700 Y4.8649
G01 X24.0613 Y4.8532
G01 X24.0541 Y4.8450
G01 X24.0062 Y4.7942
G01 X23.9980 Y4.7862
G01 X23.9893 Y4.7788
G01 X23.9801 Y4.7721
G01 X23.9704 Y4.7662
G01 X23.9603 Y4.7609
G01 X23.9463 Y4.7551
G01 X23.9354 Y4.7517
G01 X23.8565 Y4.7323
G01 X23.8415 Y4.7301
G01 X23.8301 Y4.7295
G01 X23.8150 Y4.7300
G01 X23.8036 Y4.7313
G01 X23.7925 Y4.7335
G01 X23.7779 Y4.7376
G01 X23.7082 Y4.7614
G01 X23.6942 Y4.7674
G01 X23.6809 Y4.7747
G01 X23.6714 Y4.7810
G01 X23.6654 Y4.7856
G01 X23.6540 Y4.7957
G01 X23.6437 Y4.8069
G01 X23.5979 Y4.8645
G01 X23.5910 Y4.8738
G01 X23.5849 Y4.8836
G01 X23.5796 Y4.8939
G01 X23.5750 Y4.9045
G01 X23.5713 Y4.9154
G01 X23.5676 Y4.9303
G01 X23.5585 Y4.9769
G01 X23.5572 Y4.9842
G01 X23.5560 Y4.9952
G01 X23.5556 Y5.0062
G01 X23.5556 Y5.1102
G01 X23.5521 Y5.1425
G01 X23.5162 Y5.2388
G01 X23.4563 Y5.3188
G01 X23.3763 Y5.3787
G01 X23.2743 Y5.4168
G01 X23.2677 Y5.4197
G01 X23.2579 Y5.4246
G01 X23.2485 Y5.4301
G01 X23.2425 Y5.4342
G01 X23.1836 Y5.4782
G01 X23.1748 Y5.4854
G01 X23.1665 Y5.4932
G01 X23.1563 Y5.5045
G01 X23.1474 Y5.5168
G01 X23.1397 Y5.5299
G01 X23.1334 Y5.5436
G01 X23.1076 Y5.6127
G01 X23.1040 Y5.6234
G01 X23.1021 Y5.6307
G01 X23.0999 Y5.6418
G01 X23.0989 Y5.6493
G01 X23.0980 Y5.6606
G01 X23.0976 Y5.6749
G01 X23.0978 Y6.1598
G01 X23.0992 Y6.1743
G01 X23.1004 Y6.1815
G01 X23.1028 Y6.1921
G01 X23.1235 Y6.2627
G01 X23.1271 Y6.2733
G01 X23.1314 Y6.2837
G01 X23.1347 Y6.2905
G01 X23.1423 Y6.3034
G01 X23.1511 Y6.3155
G01 X23.1731 Y6.3424
G01 X23.3052 Y6.4748
G01 X23.4028 Y6.6092
G01 X23.4783 Y6.7573
G01 X23.4891 Y6.7900
G01 X23.4918 Y6.7967
G01 X23.4965 Y6.8066
G01 X23.5000 Y6.8129
G01 X23.5059 Y6.8222
G01 X23.5453 Y6.8798
G01 X23.5545 Y6.8919
G01 X23.5648 Y6.9030
G01 X23.5762 Y6.9131
G01 X23.5854 Y6.9198
G01 X23.5918 Y6.9240
G01 X23.6051 Y6.9312
G01 X23.6834 Y6.9643
G01 X23.6906 Y6.9668
G01 X23.7016 Y6.9697
G01 X23.7166 Y6.9724
G01 X23.7241 Y6.9732
G01 X23.7355 Y6.9736
G01 X23.7469 Y6.9732
G01 X23.7544 Y6.9725
G01 X23.8382 Y6.9580
G01 X23.8492 Y6.9551
G01 X23.8635 Y6.9499
G01 X23.8772 Y6.9434
G01 X23.8902 Y6.9356
G01 X23.8994 Y6.9288
G01 X23.9053 Y6.9240
G01 X23.9623 Y6.8716
G01 X23.9677 Y6.8662
G01 X23.9752 Y6.8575
G01 X23.9842 Y6.8451
G01 X23.9901 Y6.8353
G01 X23.9936 Y6.8285
G01 X24.0084 Y6.7962
G01 X24.0122 Y6.7864
G01 X24.0217 Y6.7573
G01 X24.0972 Y6.6092
G01 X24.1948 Y6.4748
G01 X24.3123 Y6.3573
G01 X24.4467 Y6.2597
G01 X24.5948 Y6.1842
G01 X24.7528 Y6.1329
G01 X24.9169 Y6.1069
G01 X25.0831 Y6.1069
G01 X25.2472 Y6.1329
G01 X25.4052 Y6.1842
G01 X25.5533 Y6.2597
G01 X25.6877 Y6.3573
G01 X25.8052 Y6.4748
G01 X25.9028 Y6.6092
G01 X25.9783 Y6.7573
G01 X26.0296 Y6.9153
G01 X26.0556 Y7.0794
G01 X26.0556 Y7.2456
G01 X26.0296 Y7.4097
G01 X25.9783 Y7.5677
G01 X25.9028 Y7.7158
G01 X25.8052 Y7.8502
G01 X25.6877 Y7.9677
G01 X25.5533 Y8.0653
G01 X25.4052 Y8.1408
G01 X25.2472 Y8.1921
G01 X25.0831 Y8.2181
G01 X24.9169 Y8.2181
G01 X24.8060 Y8.2006
G01 X24.7952 Y8.1992
G01 X24.7843 Y8.1987
G01 X24.7770 Y8.1988
G01 X24.7661 Y8.1995
G01 X24.6895 Y8.2094
G01 X24.6783 Y8.2116
G01 X24.6637 Y8.2157
G01 X24.6531 Y8.2198
G01 X24.6428 Y8.2246
G01 X24.6297 Y8.2322
G01 X24.5830 Y8.2643
G01 X24.5747 Y8.2710
G01 X24.5669 Y8.2782
G01 X23.0185 Y9.8267
G01 X22.9206 Y9.8921
G01 X22.8118 Y9.9372
G01 X22.6964 Y9.9601
G01 X21.3622 Y9.9601
G01 X21.3513 Y9.9605
G01 X21.3369 Y9.9622
G01 X21.3227 Y9.9653
G01 X21.2521 Y9.9860
G01 X21.2379 Y9.9909
G01 X21.2243 Y9.9972
G01 X21.2114 Y10.0048
G01 X21.2022 Y10.0113
G01 X21.1755 Y10.0329
G01 X21.1664 Y10.0412
G01 X20.9258 Y10.2819
G01 X20.9183 Y10.2899
G01 X20.9094 Y10.3013
G01 X20.9015 Y10.3135
G01 X20.8644 Y10.3814
G01 X20.8611 Y10.3882
G01 X20.8568 Y10.3988
G01 X20.8533 Y10.4096
G01 X20.8499 Y10.4244
G01 X20.8480 Y10.4395
G01 X20.8476 Y10.4546
G01 X20.8532 Y10.5357
G01 X20.8554 Y10.5507
G01 X20.8591 Y10.5654
G01 X20.8628 Y10.5762
G01 X20.8673 Y10.5867
G01 X20.8726 Y10.5968
G01 X20.8786 Y10.6064
G01 X20.9272 Y10.6716
G01 X20.9346 Y10.6802
G01 X20.9426 Y10.6883
G01 X20.9541 Y10.6982
G01 X20.9666 Y10.7068
G01 X20.9799 Y10.7142
G01 X20.9903 Y10.7188
G01 X21.0593 Y10.7446
G01 X21.0703 Y10.7482
G01 X21.0815 Y10.7510
G01 X21.0890 Y10.7524
G01 X21.1005 Y10.7537
G01 X21.1082 Y10.7542
G01 X21.1197 Y10.7541
G01 X21.1274 Y10.7535
G01 X21.1857 Y10.7463
G01 X21.1965 Y10.7440
G01 X21.2036 Y10.7421
G01 X21.2290 Y10.7339
G01 X21.4089 Y10.7054
G01 X21.5911 Y10.7054
G01 X21.7710 Y10.7339
G01 X21.9442 Y10.7902
G01 X21.9829 Y10.8099
G01 X21.8328 Y10.9600
G01 X21.7866 Y10.9434
G01 X21.7759 Y10.9400
G01 X21.6952 Y10.9198
G01 X21.6842 Y10.9174
G01 X21.5944 Y10.9043
G01 X21.5038 Y10.8997
G01 X21.4925 Y10.8998
G01 X21.4131 Y10.9037
G01 X21.3982 Y10.9052
G01 X21.3122 Y10.9181
G01 X21.2277 Y10.9391
G01 X21.2169 Y10.9422
G01 X21.1385 Y10.9702
G01 X21.1247 Y10.9760
G01 X21.0461 Y11.0133
G01 X20.9714 Y11.0579
G01 X20.9589 Y11.0662
G01 X20.8892 Y11.1182
G01 X20.8246 Y11.1765
G01 X20.8165 Y11.1843
G01 X20.7557 Y11.2517
G01 X20.7037 Y11.3214
G01 X20.6954 Y11.3339
G01 X20.6508 Y11.4086
G01 X20.6104 Y11.4940
G01 X20.5809 Y11.5759
G01 X20.5766 Y11.5902
G01 X20.5556 Y11.6747
G01 X20.5418 Y11.7681
G01 X20.5373 Y11.8550
G01 X20.5373 Y11.8700
G01 X20.5418 Y11.9569
G01 X20.5556 Y12.0503
G01 X20.5766 Y12.1348
G01 X20.5809 Y12.1491
G01 X20.6077 Y12.2240
G01 X20.6119 Y12.2344
G01 X20.6474 Y12.3097
G01 X20.6545 Y12.3229
G01 X20.6994 Y12.3974
G01 X20.7511 Y12.4674
G01 X20.7606 Y12.4790
G01 X20.8191 Y12.5434
G01 X20.8835 Y12.6019
G01 X20.8951 Y12.6114
G01 X20.9651 Y12.6631
G01 X21.0396 Y12.7080
G01 X21.0528 Y12.7151
G01 X21.1315 Y12.7521
G01 X21.2134 Y12.7816
G01 X21.2277 Y12.7859
G01 X21.3122 Y12.8069
G01 X21.4019 Y12.8203
G01 X21.4131 Y12.8213
G01 X21.4925 Y12.8252
G01 X21.5075 Y12.8252
G01 X21.5944 Y12.8207
G01 X21.6805 Y12.8082
G01 X21.6952 Y12.8052
G01 X21.7795 Y12.7839
G01 X21.8615 Y12.7548
G01 X21.8753 Y12.7490
G01 X21.9539 Y12.7117
G01 X22.0349 Y12.6631
G01 X22.1108 Y12.6068
G01 X22.1782 Y12.5460
G01 X22.1860 Y12.5379
G01 X22.2443 Y12.4733
G01 X22.2985 Y12.4005
G01 X22.3046 Y12.3911
G01 X22.3474 Y12.3197
G01 X22.3526 Y12.3097
G01 X22.3735 Y12.2655
G01 X22.5857 Y12.2655
G01 X22.5723 Y12.3067
G01 X22.4887 Y12.4708
G01 X22.4810 Y12.4845
G01 X22.4751 Y12.4978
G01 X22.4504 Y12.5671
G01 X22.4470 Y12.5779
G01 X22.4451 Y12.5853
G01 X22.4426 Y12.6002
G01 X22.4415 Y12.6154
G01 X22.4420 Y12.6306
G01 X22.4433 Y12.6419
G01 X22.4455 Y12.6531
G01 X22.4613 Y12.7211
G01 X22.4643 Y12.7321
G01 X22.4667 Y12.7393
G01 X22.4727 Y12.7533
G01 X22.4800 Y12.7666
G01 X22.4886 Y12.7791
G01 X22.4983 Y12.7907
G01 X22.5592 Y12.8498
G01 X22.5706 Y12.8590
G01 X22.5829 Y12.8670
G01 X22.5893 Y12.8706
G01 X22.5992 Y12.8753
G01 X22.6095 Y12.8794
G01 X22.6165 Y12.8816
G01 X22.6887 Y12.8995
G01 X22.7034 Y12.9017
G01 X22.7182 Y12.9024
G01 X25.2849 Y12.9023
G01 X25.2994 Y12.9013
G01 X25.3101 Y12.8996
G01 X25.3173 Y12.8981
G01 X25.3913 Y12.8765
G01 X25.4021 Y12.8729
G01 X25.4126 Y12.8685
G01 X25.4228 Y12.8633
G01 X25.4293 Y12.8594
G01 X25.4387 Y12.8530
G01 X25.4476 Y12.8460
G01 X25.4560 Y12.8383
G01 X25.4613 Y12.8328
G01 X25.5144 Y12.7713
G01 X25.5231 Y12.7589
G01 X25.5306 Y12.7457
G01 X25.5353 Y12.7353
G01 X25.5393 Y12.7246
G01 X25.5424 Y12.7137
G01 X25.5447 Y12.7025
G01 X25.5558 Y12.6260
G01 X25.5567 Y12.6150
G01 X25.5566 Y12.6003
G01 X25.5557 Y12.5893
G01 X25.5546 Y12.5821
G01 X25.5524 Y12.5713
G01 X25.5494 Y12.5607
G01 X25.5456 Y12.5504
G01 X25.5217 Y12.4917
G01 X25.5169 Y12.4817
G01 X25.5109 Y12.4712
G01 X25.4272 Y12.3069
G01 X25.3709 Y12.1336
G01 X25.3424 Y11.9536
G01 X25.3424 Y11.7714
G01 X25.3709 Y11.5914
G01 X25.4272 Y11.4181
G01 X25.5099 Y11.2558
G01 X25.6170 Y11.1084
G01 X25.7459 Y10.9795
G01 X25.8412 Y10.9102
G01 X25.8523 Y10.9009
G01 X25.8625 Y10.8905
G01 X25.8695 Y10.8821
G01 X25.9121 Y10.8267
G01 X25.9187 Y10.8175
G01 X25.9246 Y10.8078
G01 X25.9313 Y10.7942
G01 X25.9355 Y10.7836
G01 X25.9388 Y10.7727
G01 X25.9413 Y10.7616
G01 X25.9504 Y10.7131
G01 X25.9520 Y10.6990
G01 X25.9524 Y10.6884
G01 X25.9524 Y9.4461
G01 X25.9734 Y9.3403
G01 X26.0147 Y9.2406
G01 X26.0746 Y9.1509
G01 X27.4610 Y7.7645
G01 X27.7387 Y7.7645
G01 X27.7129 Y7.7879
G01 X26.2504 Y9.2504
G01 X26.2296 Y9.2732
G01 X26.2225 Y9.2820
G01 X26.2065 Y9.3039
G01 X26.1887 Y9.3336
G01 X26.1739 Y9.3649
G01 X26.1634 Y9.3940
G01 X26.1602 Y9.4048
G01 X26.1538 Y9.4311
G01 X26.1496 Y9.4580
G01 X26.1484 Y9.4691
G01 X26.1471 Y9.4962
G01 X26.1470 Y10.9672
G01 X26.1281 Y10.9744
G01 X26.0461 Y11.0133
G01 X25.9714 Y11.0579
G01 X25.9589 Y11.0662
G01 X25.8892 Y11.1182
G01 X25.8246 Y11.1765
G01 X25.8140 Y11.1871
G01 X25.7606 Y11.2460
G01 X25.7511 Y11.2576
G01 X25.6994 Y11.3276
G01 X25.6545 Y11.4021
G01 X25.6474 Y11.4153
G01 X25.6104 Y11.4940
G01 X25.5786 Y11.5830
G01 X25.5573 Y11.6673
G01 X25.5543 Y11.6820
G01 X25.5427 Y11.7607
G01 X25.5414 Y11.7719
G01 X25.5371 Y11.8625
G01 X25.5412 Y11.9494
G01 X25.5427 Y11.9643
G01 X25.5543 Y12.0430
G01 X25.5573 Y12.0577
G01 X25.5786 Y12.1420
G01 X25.6104 Y12.2310
G01 X25.6508 Y12.3164
G01 X25.6954 Y12.3911
G01 X25.7037 Y12.4036
G01 X25.7511 Y12.4674
G01 X25.7606 Y12.4790
G01 X25.8191 Y12.5434
G01 X25.8892 Y12.6068
G01 X25.9589 Y12.6588
G01 X25.9714 Y12.6671
G01 X26.0461 Y12.7117
G01 X26.1315 Y12.7521
G01 X26.2134 Y12.7816
G01 X26.2277 Y12.7859
G01 X26.3122 Y12.8069
G01 X26.4056 Y12.8207
G01 X26.5000 Y12.8254
G01 X26.5869 Y12.8213
G01 X26.6018 Y12.8198
G01 X26.6805 Y12.8082
G01 X26.6952 Y12.8052
G01 X26.7795 Y12.7839
G01 X26.8685 Y12.7521
G01 X26.9539 Y12.7117
G01 X27.0286 Y12.6671
G01 X27.0411 Y12.6588
G01 X27.1049 Y12.6114
G01 X27.1165 Y12.6019
G01 X27.1809 Y12.5434
G01 X27.2419 Y12.4762
G01 X27.2489 Y12.4674
G01 X27.3006 Y12.3974
G01 X27.3492 Y12.3164
G01 X27.3896 Y12.2310
G01 X27.4214 Y12.1420
G01 X27.4444 Y12.0503
G01 X27.4582 Y11.9569
G01 X27.4629 Y11.8625
G01 X27.4588 Y11.7756
G01 X27.4573 Y11.7607
G01 X27.4444 Y11.6747
G01 X27.4234 Y11.5902
G01 X27.4191 Y11.5759
G01 X27.3896 Y11.4940
G01 X27.3526 Y11.4153
G01 X27.3455 Y11.4021
G01 X27.3006 Y11.3276
G01 X27.2467 Y11.2546
G01 X27.2394 Y11.2460
G01 X27.1860 Y11.1871
G01 X27.1754 Y11.1765
G01 X27.1108 Y11.1182
G01 X27.0411 Y11.0662
G01 X27.0286 Y11.0579
G01 X26.9539 Y11.0133
G01 X26.8719 Y10.9744
G01 X26.8530 Y10.9672
G01 X26.8530 Y9.6462
G01 X28.1087 Y8.3905
G01 X28.4599 Y8.3905
G01 X28.4483 Y8.3983
G01 X28.4266 Y8.4146
G01 X28.4009 Y8.4379
G01 X27.7452 Y9.0938
G01 X27.7271 Y9.1141
G01 X27.7108 Y9.1358
G01 X27.7045 Y9.1450
G01 X27.6887 Y9.1716
G01 X27.6754 Y9.1995
G01 X27.6712 Y9.2099
G01 X27.6622 Y9.2355
G01 X27.6546 Y9.2655
G01 X27.6525 Y9.2765
G01 X27.6487 Y9.3034
G01 X27.6471 Y9.3342
G01 X27.6470 Y9.8057
G01 X27.6412 Y9.8167
G01 X27.6277 Y9.8458
G01 X27.6167 Y9.8759
G01 X27.6123 Y9.8902
G01 X27.6047 Y9.9214
G01 X27.5999 Y9.9531
G01 X27.5986 Y9.9642
G01 X27.5970 Y9.9962
G01 X27.5970 Y12.8698
G01 X27.3698 Y13.0970
G01 X19.1669 Y13.0970
G01 X18.4605 Y12.3906
G01 X18.4831 Y12.3845
G01 X18.5132 Y12.3737
G01 X18.5236 Y12.3693
G01 X18.5458 Y12.3588
G01 X18.5558 Y12.3536
G01 X18.5864 Y12.3351
G01 X18.6122 Y12.3161
G01 X18.6210 Y12.3091
G01 X18.6448 Y12.2876
G01 X21.1669 Y9.7655
G01 X22.6413 Y9.7655
G01 X22.6770 Y9.7636
G01 X22.7161 Y9.7578
G01 X22.7545 Y9.7482
G01 X22.7847 Y9.7375
G01 X22.7952 Y9.7333
G01 X22.8275 Y9.7179
G01 X22.8614 Y9.6976
G01 X22.8932 Y9.6740
G01 X22.9225 Y9.6475
G01 X24.6307 Y7.9392
G01 X24.6637 Y7.9548
G01 X24.6740 Y7.9592
G01 X24.7430 Y7.9840
G01 X24.7537 Y7.9874
G01 X24.8321 Y8.0068
G01 X24.9119 Y8.0188
G01 X24.9231 Y8.0198
G01 X24.9925 Y8.0232
G01 X25.0075 Y8.0232
G01 X25.0844 Y8.0192
G01 X25.1643 Y8.0075
G01 X25.1753 Y8.0052
G01 X25.2427 Y7.9883
G01 X25.2570 Y7.9840
G01 X25.3294 Y7.9578
G01 X25.4058 Y7.9217
G01 X25.4719 Y7.8823
G01 X25.4844 Y7.8740
G01 X25.5461 Y7.8280
G01 X25.6033 Y7.7764
G01 X25.6139 Y7.7658
G01 X25.6606 Y7.7143
G01 X25.6701 Y7.7027
G01 X25.7158 Y7.6408
G01 X25.7555 Y7.5748
G01 X25.7626 Y7.5616
G01 X25.7953 Y7.4919
G01 X25.8215 Y7.4195
G01 X25.8258 Y7.4052
G01 X25.8443 Y7.3304
G01 X25.8558 Y7.2543
G01 X25.8573 Y7.2394
G01 X25.8609 Y7.1625
G01 X25.8567 Y7.0781
G01 X25.8456 Y7.0019
G01 X25.8427 Y6.9872
G01 X25.8258 Y6.9198
G01 X25.8215 Y6.9055
G01 X25.7953 Y6.8331
G01 X25.7626 Y6.7634
G01 X25.7555 Y6.7502
G01 X25.7158 Y6.6842
G01 X25.6701 Y6.6223
G01 X25.6606 Y6.6107
G01 X25.6087 Y6.5538
G01 X25.5461 Y6.4970
G01 X25.4783 Y6.4467
G01 X25.4123 Y6.4070
G01 X25.3991 Y6.3999
G01 X25.3294 Y6.3672
G01 X25.2499 Y6.3387
G01 X25.1753 Y6.3198
G01 X25.1606 Y6.3169
G01 X25.0918 Y6.3067
G01 X25.0769 Y6.3052
G01 X25.0000 Y6.3016
G01 X24.9231 Y6.3052
G01 X24.9082 Y6.3067
G01 X24.8321 Y6.3182
G01 X24.7573 Y6.3367
G01 X24.7430 Y6.3410
G01 X24.6776 Y6.3645
G01 X24.6637 Y6.3702
G01 X24.5942 Y6.4033
G01 X24.5217 Y6.4467
G01 X24.4539 Y6.4970
G01 X24.3913 Y6.5538
G01 X24.3345 Y6.6164
G01 X24.2885 Y6.6781
G01 X24.2802 Y6.6906
G01 X24.2408 Y6.7567
G01 X24.2077 Y6.8262
G01 X24.2020 Y6.8401
G01 X24.1773 Y6.9090
G01 X24.1742 Y6.9198
G01 X24.1557 Y6.9946
G01 X24.1442 Y7.0707
G01 X24.1429 Y7.0819
G01 X24.1393 Y7.1550
G01 X24.1392 Y7.1663
G01 X24.1429 Y7.2431
G01 X24.1442 Y7.2543
G01 X24.1483 Y7.2818
G01 X22.4706 Y8.9595
G01 X20.9925 Y8.9597
G01 X20.9605 Y8.9614
G01 X20.9288 Y8.9660
G01 X20.9141 Y8.9689
G01 X20.8830 Y8.9768
G01 X20.8528 Y8.9875
G01 X20.8389 Y8.9932
G01 X20.8100 Y9.0071
G01 X20.7824 Y9.0234
G01 X20.7700 Y9.0317
G01 X20.7443 Y9.0510
G01 X20.7150 Y9.0775
G01 X18.3108 Y11.4817
G01 X18.2985 Y11.4620
G01 X18.2467 Y11.3921
G01 X18.2394 Y11.3835
G01 X18.1809 Y11.3191
G01 X18.1108 Y11.2557
G01 X18.0349 Y11.1994
G01 X17.9539 Y11.1508
G01 X17.8685 Y11.1104
G01 X17.7795 Y11.0786
G01 X17.6878 Y11.0556
G01 X17.5944 Y11.0418
G01 X17.5000 Y11.0371
G01 X17.4056 Y11.0418
G01 X17.3122 Y11.0556
G01 X17.2205 Y11.0786
G01 X17.1315 Y11.1104
G01 X17.0461 Y11.1508
G01 X16.9714 Y11.1954
G01 X16.9589 Y11.2037
G01 X16.8892 Y11.2557
G01 X16.8191 Y11.3191
G01 X16.7557 Y11.3892
G01 X16.6994 Y11.4651
G01 X16.6508 Y11.5461
G01 X16.6104 Y11.6315
G01 X16.5786 Y11.7205
G01 X16.5573 Y11.8048
G01 X16.5543 Y11.8195
G01 X16.5418 Y11.9056
G01 X16.5373 Y11.9925
G01 X16.5373 Y12.0075
G01 X16.5412 Y12.0869
G01 X16.5427 Y12.1018
G01 X16.5556 Y12.1878
G01 X16.5786 Y12.2795
G01 X16.6104 Y12.3685
G01 X16.6508 Y12.4539
G01 X16.6994 Y12.5349
G01 X16.7557 Y12.6108
G01 X16.8191 Y12.6809
G01 X16.8835 Y12.7394
G01 X16.8951 Y12.7489
G01 X16.9589 Y12.7963
G01 X16.9714 Y12.8046
G01 X17.0461 Y12.8492
G01 X17.1247 Y12.8865
G01 X17.1350 Y12.8910
G01 X17.2205 Y12.9214
G01 X17.3122 Y12.9444
G01 X17.4056 Y12.9582
G01 X17.4962 Y12.9628
G01 X17.5075 Y12.9627
G01 X17.5944 Y12.9582
G01 X17.6842 Y12.9451
G01 X17.6952 Y12.9427
G01 X17.7759 Y12.9225
G01 X17.7866 Y12.9191
G01 X17.8327 Y12.9026
G01 X18.7150 Y13.7850
G01 X18.7387 Y13.8066
G01 X18.7503 Y13.8161
G01 X18.7700 Y13.8308
G01 X18.7792 Y13.8371
G01 X18.8100 Y13.8554
G01 X18.8423 Y13.8708
G01 X18.8528 Y13.8750
G01 X18.8759 Y13.8833
G01 X18.8902 Y13.8877
G01 X18.9214 Y13.8953
G01 X18.9568 Y13.9007
G01 X18.9680 Y13.9016
G01 X19.0000 Y13.9030
G01 X27.5367 Y13.9030
G01 X27.5687 Y13.9016
G01 X27.5836 Y13.9001
G01 X27.6153 Y13.8953
G01 X27.6501 Y13.8867
G01 X27.6608 Y13.8833
G01 X27.6909 Y13.8723
G01 X27.7267 Y13.8554
G01 X27.7606 Y13.8351
G01 X27.7864 Y13.8161
G01 X27.7980 Y13.8066
G01 X27.8217 Y13.7850
G01 X28.2876 Y13.3190
G01 X28.3115 Y13.2924
G01 X28.3308 Y13.2667
G01 X28.3391 Y13.2543
G01 X28.3554 Y13.2267
G01 X28.3693 Y13.1978
G01 X28.3750 Y13.1839
G01 X28.3857 Y13.1537
G01 X28.3945 Y13.1190
G01 X28.3965 Y13.1079
G01 X28.4011 Y13.0762
G01 X28.4030 Y13.0367
G01 X28.4030 Y10.0000
G01 X28.4016 Y9.9680
G01 X28.4001 Y9.9531
G01 X28.3953 Y9.9214
G01 X28.3877 Y9.8902
G01 X28.3833 Y9.8759
G01 X28.3723 Y9.8458
G01 X28.3588 Y9.8167
G01 X28.3530 Y9.8057
G01 X28.3530 Y9.4842
G01 X28.7967 Y9.0405
G01 X28.9156 Y9.0405
G01 X28.9107 Y9.0505
G01 X28.9079 Y9.0575
G01 X28.9042 Y9.0681
G01 X28.9022 Y9.0754
G01 X28.9006 Y9.0827
G01 X28.8988 Y9.0938
G01 X28.8977 Y9.1087
G01 X28.8977 Y9.5663
G01 X28.8988 Y9.5812
G01 X28.9006 Y9.5923
G01 X28.9032 Y9.6033
G01 X28.9066 Y9.6140
G01 X28.9107 Y9.6245
G01 X28.9157 Y9.6346
G01 X28.9213 Y9.6443
G01 X28.9278 Y9.6537
G01 X28.8874 Y9.6942
G01 X28.8635 Y9.7208
G01 X28.8399 Y9.7526
G01 X28.8233 Y9.7800
G01 X28.8179 Y9.7899
G01 X28.8042 Y9.8188
G01 X28.8000 Y9.8293
G01 X28.7917 Y9.8524
G01 X28.7873 Y9.8667
G01 X28.7805 Y9.8942
G01 X28.7785 Y9.9053
G01 X28.7739 Y9.9370
G01 X28.7720 Y9.9765
G01 X28.7720 Y11.2990
G01 X28.7511 Y11.3147
G01 X28.7309 Y11.3328
G01 X28.7229 Y11.3407
G01 X28.7071 Y11.3580
G01 X28.6999 Y11.3666
G01 X28.6837 Y11.3884
G01 X28.6776 Y11.3978
G01 X28.6656 Y11.4179
G01 X28.6604 Y11.4279
G01 X28.6490 Y11.4525
G01 X28.6373 Y11.4851
G01 X28.6289 Y11.5187
G01 X28.6247 Y11.5455
G01 X28.6235 Y11.5567
G01 X28.6221 Y11.5875
G01 X28.6221 Y12.1375
G01 X28.6238 Y12.1721
G01 X28.6282 Y12.2027
G01 X28.6305 Y12.2137
G01 X28.6373 Y12.2399
G01 X28.6490 Y12.2725
G01 X28.6638 Y12.3038
G01 X28.6795 Y12.3304
G01 X28.6859 Y12.3397
G01 X28.7022 Y12.3614
G01 X28.7229 Y12.3843
G01 X28.7309 Y12.3922
G01 X28.7483 Y12.4079
G01 X28.7541 Y12.4126
G01 X28.7720 Y12.4260
G01 X28.7720 Y13.2990
G01 X28.7541 Y13.3124
G01 X28.7483 Y13.3171
G01 X28.7309 Y13.3328
G01 X28.7229 Y13.3407
G01 X28.7022 Y13.3636
G01 X28.6859 Y13.3853
G01 X28.6795 Y13.3946
G01 X28.6638 Y13.4212
G01 X28.6490 Y13.4525
G01 X28.6373 Y13.4851
G01 X28.6305 Y13.5113
G01 X28.6282 Y13.5223
G01 X28.6238 Y13.5529
G01 X28.6221 Y13.5875
G01 X28.6222 Y14.1413
G01 X28.6238 Y14.1721
G01 X28.6289 Y14.2063
G01 X28.6373 Y14.2399
G01 X28.6463 Y14.2655
G01 X28.6505 Y14.2760
G01 X28.6604 Y14.2971
G01 X28.6675 Y14.3104
G01 X28.6795 Y14.3304
G01 X28.6837 Y14.3366
G01 X28.6976 Y14.3554
G01 X28.7046 Y14.3642
G01 X28.7255 Y14.3870
G01 X28.7511 Y14.4103
G01 X28.7790 Y14.4309
G01 X28.8054 Y14.4469
G01 X28.8154 Y14.4521
G01 X28.8365 Y14.4620
G01 X28.8434 Y14.4649
G01 X28.8654 Y14.4728
G01 X28.8762 Y14.4762
G01 X28.8988 Y14.4820
G01 X28.9135 Y14.4849
G01 X28.9404 Y14.4887
G01 X28.9750 Y14.4904
G01 X29.3788 Y14.4903
G01 X29.4096 Y14.4887
G01 X29.4402 Y14.4843
G01 X29.4475 Y14.4828
G01 X29.4702 Y14.4772
G01 X29.4846 Y14.4728
G01 X29.5100 Y14.4635
G01 X29.5346 Y14.4521
G01 X29.5446 Y14.4469
G01 X29.5710 Y14.4309
G01 X29.5959 Y14.4126
G01 X29.6045 Y14.4054
G01 X29.6245 Y14.3870
G01 X29.6454 Y14.3642
G01 X29.6524 Y14.3554
G01 X29.6684 Y14.3335
G01 X29.6844 Y14.3071
G01 X29.6896 Y14.2971
G01 X29.7010 Y14.2725
G01 X29.7116 Y14.2435
G01 X29.7137 Y14.2363
G01 X29.7195 Y14.2137
G01 X29.7218 Y14.2027
G01 X29.7262 Y14.1721
G01 X29.7279 Y14.1375
G01 X29.7279 Y13.5875
G01 X29.7262 Y13.5529
G01 X29.7224 Y13.5260
G01 X29.7203 Y13.5150
G01 X29.7137 Y13.4887
G01 X29.7103 Y13.4779
G01 X29.7024 Y13.4559
G01 X29.6980 Y13.4456
G01 X29.6862 Y13.4212
G01 X29.6705 Y13.3946
G01 X29.6641 Y13.3853
G01 X29.6478 Y13.3636
G01 X29.6271 Y13.3407
G01 X29.6191 Y13.3328
G01 X29.6017 Y13.3171
G01 X29.5959 Y13.3124
G01 X29.5780 Y13.2990
G01 X29.5780 Y12.4260
G01 X29.5959 Y12.4126
G01 X29.6017 Y12.4079
G01 X29.6191 Y12.3922
G01 X29.6271 Y12.3843
G01 X29.6478 Y12.3614
G01 X29.6641 Y12.3397
G01 X29.6705 Y12.3304
G01 X29.6862 Y12.3038
G01 X29.7010 Y12.2725
G01 X29.7127 Y12.2399
G01 X29.7195 Y12.2137
G01 X29.7218 Y12.2027
G01 X29.7262 Y12.1721
G01 X29.7279 Y12.1375
G01 X29.7277 Y11.5800
G01 X29.7262 Y11.5529
G01 X29.7224 Y11.5260
G01 X29.7203 Y11.5150
G01 X29.7147 Y11.4923
G01 X29.7116 Y11.4815
G01 X29.7010 Y11.4525
G01 X29.6862 Y11.4212
G01 X29.6684 Y11.3915
G01 X29.6501 Y11.3666
G01 X29.6429 Y11.3580
G01 X29.6271 Y11.3407
G01 X29.6191 Y11.3328
G01 X29.5989 Y11.3147
G01 X29.5780 Y11.2990
G01 X29.5780 Y10.7655
G01 X34.8331 Y10.7655
G01 X35.3525 Y11.2850
G01 X35.3818 Y11.3115
G01 X35.4075 Y11.3308
G01 X35.4199 Y11.3391
G01 X35.4410 Y11.3517
G01 X35.4509 Y11.3571
G01 X35.4764 Y11.3693
G01 X35.4868 Y11.3737
G01 X35.5134 Y11.3833
G01 X35.5241 Y11.3867
G01 X35.5552 Y11.3945
G01 X35.5663 Y11.3965
G01 X35.5980 Y11.4011
G01 X35.6337 Y11.4030
G01 X35.8347 Y11.4030
G01 X35.8473 Y11.4139
G01 X35.8730 Y11.4330
G01 X35.8824 Y11.4391
G01 X35.9035 Y11.4517
G01 X35.9134 Y11.4571
G01 X35.9458 Y11.4723
G01 X35.9759 Y11.4833
G01 X35.9902 Y11.4877
G01 X36.0141 Y11.4936
G01 X36.0251 Y11.4959
G01 X36.0605 Y11.5011
G01 X36.1000 Y11.5030
G01 X39.8773 Y11.5030
G01 X39.8913 Y11.5332
G01 X39.8984 Y11.5464
G01 X39.9150 Y11.5738
G01 X39.9386 Y11.6056
G01 X39.9599 Y11.6294
G01 X39.9706 Y11.6401
G01 X39.9944 Y11.6614
G01 X40.0200 Y11.6807
G01 X40.0325 Y11.6890
G01 X40.0601 Y11.7053
G01 X40.0890 Y11.7192
G01 X40.1028 Y11.7249
G01 X40.1331 Y11.7355
G01 X40.1677 Y11.7444
G01 X40.1788 Y11.7464
G01 X40.2031 Y11.7500
G01 X40.2180 Y11.7515
G01 X40.2500 Y11.7529
G01 X45.2538 Y11.7528
G01 X45.2820 Y11.7515
G01 X45.2932 Y11.7505
G01 X45.3249 Y11.7458
G01 X45.3359 Y11.7435
G01 X45.3669 Y11.7355
G01 X45.3972 Y11.7249
G01 X45.4076 Y11.7207
G01 X45.4366 Y11.7070
G01 X45.4464 Y11.7016
G01 X45.4738 Y11.6850
G01 X45.5056 Y11.6614
G01 X45.5349 Y11.6349
G01 X45.5565 Y11.6113
G01 X45.5660 Y11.5997
G01 X45.5850 Y11.5738
G01 X45.6016 Y11.5464
G01 X45.6087 Y11.5332
G01 X45.6222 Y11.5042
G01 X45.6355 Y11.4669
G01 X45.6435 Y11.4359
G01 X45.6464 Y11.4212
G01 X45.6509 Y11.3895
G01 X45.6529 Y11.3500
G01 X45.6529 Y10.8500
G01 X45.6509 Y10.8105
G01 X45.6464 Y10.7788
G01 X45.6435 Y10.7641
G01 X45.6355 Y10.7331
G01 X45.6222 Y10.6958
G01 X45.6053 Y10.6601
G01 X45.5890 Y10.6325
G01 X45.5807 Y10.6200
G01 X45.5660 Y10.6003
G01 X45.5590 Y10.5915
G01 X45.5349 Y10.5651
G01 X45.5113 Y10.5435
G01 X45.5027 Y10.5362
G01 X45.4800 Y10.5193
G01 X45.4675 Y10.5110
G01 X45.4399 Y10.4947
G01 X45.4042 Y10.4778
G01 X45.3669 Y10.4645
G01 X45.3359 Y10.4565
G01 X45.3212 Y10.4536
G01 X45.2895 Y10.4491
G01 X45.2500 Y10.4471
G01 X40.2462 Y10.4472
G01 X40.2105 Y10.4491
G01 X40.1788 Y10.4536
G01 X40.1641 Y10.4565
G01 X40.1331 Y10.4645
G01 X40.0958 Y10.4778
G01 X40.0668 Y10.4913
G01 X40.0536 Y10.4984
G01 X40.0262 Y10.5150
G01 X39.9944 Y10.5386
G01 X39.9706 Y10.5599
G01 X39.9599 Y10.5706
G01 X39.9386 Y10.5944
G01 X39.9150 Y10.6262
G01 X39.8984 Y10.6536
G01 X39.8913 Y10.6668
G01 X39.8773 Y10.6970
G01 X36.2653 Y10.6970
G01 X36.2527 Y10.6861
G01 X36.2270 Y10.6670
G01 X36.2176 Y10.6609
G01 X36.1965 Y10.6483
G01 X36.1866 Y10.6429
G01 X36.1542 Y10.6277
G01 X36.1241 Y10.6167
G01 X36.1134 Y10.6133
G01 X36.0823 Y10.6055
G01 X36.0712 Y10.6035
G01 X36.0395 Y10.5989
G01 X36.0038 Y10.5970
G01 X35.8044 Y10.5970
G01 X35.2850 Y10.0775
G01 X35.2557 Y10.0510
G01 X35.2239 Y10.0274
G01 X35.1965 Y10.0108
G01 X35.1833 Y10.0037
G01 X35.1542 Y9.9902
G01 X35.1241 Y9.9792
G01 X35.1098 Y9.9748
G01 X35.0786 Y9.9672
G01 X35.0432 Y9.9618
G01 X35.0320 Y9.9609
G01 X35.0000 Y9.9595
G01 X29.7619 Y9.9595
G01 X30.0061 Y9.7154
G01 X30.5255 Y9.7154
G01 X30.5367 Y9.7150
G01 X30.5479 Y9.7137
G01 X30.5590 Y9.7117
G01 X30.5699 Y9.7088
G01 X30.5805 Y9.7051
G01 X30.5875 Y9.7023
G01 X30.5942 Y9.6991
G01 X30.6041 Y9.6936
G01 X30.6135 Y9.6875
G01 X30.6225 Y9.6807
G01 X30.6309 Y9.6732
G01 X30.6388 Y9.6652
G01 X30.6460 Y9.6566
G01 X30.6505 Y9.6505
G01 X30.6566 Y9.6411
G01 X30.6621 Y9.6312
G01 X30.6653 Y9.6245
G01 X30.6694 Y9.6140
G01 X30.6728 Y9.6033
G01 X30.6754 Y9.5923
G01 X30.6776 Y9.5775
G01 X30.6783 Y9.5663
G01 X30.6782 Y9.1050
G01 X30.6767 Y9.0901
G01 X30.6747 Y9.0790
G01 X30.6718 Y9.0681
G01 X30.6667 Y9.0540
G01 X30.6621 Y9.0438
G01 X30.6547 Y9.0307
G01 X30.6483 Y9.0214
G01 X30.6411 Y9.0125
G01 X30.6483 Y9.0036
G01 X30.6547 Y8.9943
G01 X30.6603 Y8.9846
G01 X30.6667 Y8.9710
G01 X30.6707 Y8.9605
G01 X30.6738 Y8.9496
G01 X30.6767 Y8.9349
G01 X30.6780 Y8.9237
G01 X30.6784 Y8.9125
G01 X30.6783 Y8.4587
G01 X30.6776 Y8.4475
G01 X30.6754 Y8.4327
G01 X30.6728 Y8.4217
G01 X30.6681 Y8.4075
G01 X30.6621 Y8.3938
G01 X30.6566 Y8.3839
G01 X30.6483 Y8.3714
G01 X30.6411 Y8.3625
G01 X30.6483 Y8.3536
G01 X30.6547 Y8.3443
G01 X30.6603 Y8.3346
G01 X30.6667 Y8.3210
G01 X30.6707 Y8.3105
G01 X30.6738 Y8.2996
G01 X30.6767 Y8.2849
G01 X30.6780 Y8.2737
G01 X30.6784 Y8.2625
G01 X30.6783 Y7.8087
G01 X30.6776 Y7.7975
G01 X30.6754 Y7.7827
G01 X30.6728 Y7.7717
G01 X30.6681 Y7.7575
G01 X30.6637 Y7.7471
G01 X30.6566 Y7.7339
G01 X30.6483 Y7.7214
G01 X30.6411 Y7.7125
G01 X30.6460 Y7.7066
G01 X30.6526 Y7.6974
G01 X30.6585 Y7.6879
G01 X30.6637 Y7.6779
G01 X30.6681 Y7.6675
G01 X30.6718 Y7.6569
G01 X30.6738 Y7.6496
G01 X30.6761 Y7.6386
G01 X30.6776 Y7.6275
G01 X30.6783 Y7.6163
G01 X30.6784 Y7.4901
G01 X30.6895 Y7.5004
G01 X30.6958 Y7.5057
G01 X30.7738 Y7.5642
G01 X30.8337 Y7.6442
G01 X30.8696 Y7.7405
G01 X30.8731 Y7.7728
G01 X30.8731 Y8.3022
G01 X30.8694 Y8.3370
G01 X30.8689 Y8.3492
G01 X30.8692 Y8.3839
G01 X30.8731 Y8.4228
G01 X30.8731 Y8.9522
G01 X30.8692 Y8.9911
G01 X30.8689 Y9.0258
G01 X30.8694 Y9.0380
G01 X30.8731 Y9.0728
G01 X30.8733 Y9.4953
G01 X30.8742 Y9.5062
G01 X30.8752 Y9.5134
G01 X30.8783 Y9.5276
G01 X30.8990 Y9.5981
G01 X30.9040 Y9.6124
G01 X30.9104 Y9.6262
G01 X30.9161 Y9.6361
G01 X30.9202 Y9.6424
G01 X30.9295 Y9.6544
G01 X30.9400 Y9.6655
G01 X31.0043 Y9.7212
G01 X31.0136 Y9.7279
G01 X31.0200 Y9.7320
G01 X31.0335 Y9.7392
G01 X31.0476 Y9.7450
G01 X31.0549 Y9.7473
G01 X31.0660 Y9.7502
G01 X31.1211 Y9.7621
G01 X31.1355 Y9.7642
G01 X31.1464 Y9.7648
G01 X32.8536 Y9.7648
G01 X32.8682 Y9.7638
G01 X32.8754 Y9.7628
G01 X32.8860 Y9.7606
G01 X32.9673 Y9.7367
G01 X32.9814 Y9.7310
G01 X32.9916 Y9.7258
G01 X33.0044 Y9.7178
G01 X33.0164 Y9.7085
G01 X33.0248 Y9.7008
G01 X33.0301 Y9.6953
G01 X33.0808 Y9.6367
G01 X33.0899 Y9.6244
G01 X33.0978 Y9.6113
G01 X33.1012 Y9.6045
G01 X33.1056 Y9.5940
G01 X33.1093 Y9.5831
G01 X33.1113 Y9.5757
G01 X33.1241 Y9.5169
G01 X33.1258 Y9.5062
G01 X33.1267 Y9.4953
G01 X33.1269 Y9.0728
G01 X33.1306 Y9.0380
G01 X33.1311 Y9.0258
G01 X33.1308 Y8.9911
G01 X33.1269 Y8.9522
G01 X33.1269 Y8.4228
G01 X33.1306 Y8.3880
G01 X33.1311 Y8.3758
G01 X33.1308 Y8.3411
G01 X33.1269 Y8.3022
G01 X33.1269 Y7.7728
G01 X33.1308 Y7.7339
G01 X33.1311 Y7.6993
G01 X33.1306 Y7.6870
G01 X33.1269 Y7.6522
G01 X33.1269 Y7.1228
G01 X33.1304 Y7.0904
G01 X33.1663 Y6.9942
G01 X33.2262 Y6.9142
G01 X33.3062 Y6.8543
G01 X33.4024 Y6.8184
G01 X33.4348 Y6.8149
G01 X34.9892 Y6.8149
G01 X35.0215 Y6.8184
G01 X35.1178 Y6.8543
G01 X35.1978 Y6.9142
G01 X35.2577 Y6.9942
G01 X35.2936 Y7.0905
G01 X35.2971 Y7.1228
G01 X35.2971 Y7.6522
G01 X35.2934 Y7.6870
G01 X35.2929 Y7.6992
G01 X35.2932 Y7.7339
G01 X35.2971 Y7.7728
G01 X35.2971 Y8.3022
G01 X35.2935 Y8.3366
G01 X35.2923 Y8.3695
G01 X35.2930 Y8.3844
G01 X35.2971 Y8.4228
G01 X35.2971 Y8.4934
G01 X35.2978 Y8.5060
G01 X35.2991 Y8.5169
G01 X35.3012 Y8.5276
G01 X35.3041 Y8.5381
G01 X35.3147 Y8.5697
G01 X35.3241 Y8.6017
G01 X35.3266 Y8.6089
G01 X35.3310 Y8.6194
G01 X35.3381 Y8.6328
G01 X35.3460 Y8.6451
G01 X35.3528 Y8.6543
G01 X35.3628 Y8.6657
G01 X35.3739 Y8.6760
G01 X35.4000 Y8.6969
G01 X35.4253 Y8.7188
G01 X35.4376 Y8.7279
G01 X35.4473 Y8.7339
G01 X35.4575 Y8.7392
G01 X35.4706 Y8.7449
G01 X35.4814 Y8.7487
G01 X35.4961 Y8.7524
G01 X35.5111 Y8.7548
G01 X35.5486 Y8.7628
G01 X35.5631 Y8.7645
G01 X35.5740 Y8.7649
G01 X35.8505 Y8.7649
G01 X35.8650 Y8.7642
G01 X35.8759 Y8.7628
G01 X35.8901 Y8.7597
G01 X35.9642 Y8.7379
G01 X35.9784 Y8.7325
G01 X35.9887 Y8.7276
G01 X35.9953 Y8.7239
G01 X36.0018 Y8.7199
G01 X36.0110 Y8.7133
G01 X36.0198 Y8.7060
G01 X36.0280 Y8.6980
G01 X36.0837 Y8.6337
G01 X36.0925 Y8.6212
G01 X36.1000 Y8.6079
G01 X36.1061 Y8.5940
G01 X36.1098 Y8.5831
G01 X36.1118 Y8.5757
G01 X36.1246 Y8.5169
G01 X36.1263 Y8.5062
G01 X36.1272 Y8.4953
G01 X36.1274 Y8.2161
G01 X36.1503 Y8.1007
G01 X36.1954 Y7.9919
G01 X36.2608 Y7.8940
G01 X36.3310 Y7.8236
G01 X36.3444 Y7.8072
G01 X36.3505 Y7.7983
G01 X36.3543 Y7.7920
G01 X36.3609 Y7.7791
G01 X36.3706 Y7.7561
G01 X36.3843 Y7.7306
G01 X36.3874 Y7.7237
G01 X36.3915 Y7.7131
G01 X36.3956 Y7.6985
G01 X36.3998 Y7.6749
G01 X36.4014 Y7.6598
G01 X36.4015 Y7.6484
G01 X36.4004 Y7.6333
G01 X36.3957 Y7.6048
G01 X36.3934 Y7.5760
G01 X36.3916 Y7.5647
G01 X36.3900 Y7.5573
G01 X36.3856 Y7.5428
G01 X36.3764 Y7.5207
G01 X36.3695 Y7.5072
G01 X36.3613 Y7.4944
G01 X36.3519 Y7.4825
G01 X36.3350 Y7.4639
G01 X36.3176 Y7.4410
G01 X36.3075 Y7.4300
G01 X36.2993 Y7.4224
G01 X36.2935 Y7.4177
G01 X36.2459 Y7.3830
G01 X36.1170 Y7.2541
G01 X36.0099 Y7.1067
G01 X35.9272 Y6.9444
G01 X35.8709 Y6.7711
G01 X35.8424 Y6.5911
G01 X35.8424 Y6.4089
G01 X35.8709 Y6.2289
G01 X35.9272 Y6.0556
G01 X36.0099 Y5.8933
G01 X36.1170 Y5.7459
G01 X36.2459 Y5.6170
G01 X36.3933 Y5.5099
G01 X36.5556 Y5.4272
G01 X36.6301 Y5.4030
G01 X37.3699 Y5.4030
G01 X37.4444 Y5.4272
G01 X37.6067 Y5.5099
G01 X37.7541 Y5.6170
G01 X37.8830 Y5.7459
G01 X37.9901 Y5.8933
G01 X38.0728 Y6.0556
G01 X38.1291 Y6.2289
G01 X38.1576 Y6.4089
G01 X38.1576 Y6.5911
G01 X38.1291 Y6.7711
G01 X38.0728 Y6.9444
G01 X37.9901 Y7.1067
G01 X37.8830 Y7.2541
G01 X37.7541 Y7.3830
G01 X37.7088 Y7.4160
G01 X37.7004 Y7.4229
G01 X37.6925 Y7.4304
G01 X37.6875 Y7.4357
G01 X37.6805 Y7.4441
G01 X37.6334 Y7.5056
G01 X37.6254 Y7.5184
G01 X37.6202 Y7.5286
G01 X37.6158 Y7.5390
G01 X37.6122 Y7.5498
G01 X37.6087 Y7.5646
G01 X37.6002 Y7.6096
G01 X37.5983 Y7.6236
G01 X37.5976 Y7.6378
G01 X37.5976 Y8.0589
G01 X37.5747 Y8.1743
G01 X37.5661 Y8.1951
G01 X37.5626 Y8.2050
G01 X37.5581 Y8.2210
G01 X37.5555 Y8.2353
G01 X37.5542 Y8.2498
G01 X37.5537 Y8.2759
G01 X37.5510 Y8.3020
G01 X37.5505 Y8.3172
G01 X37.5511 Y8.3285
G01 X37.5526 Y8.3398
G01 X37.5571 Y8.3609
G01 X37.5591 Y8.3682
G01 X37.5640 Y8.3826
G01 X37.5704 Y8.3964
G01 X37.5740 Y8.4030
G01 X37.5879 Y8.4254
G01 X37.6015 Y8.4522
G01 X37.6096 Y8.4650
G01 X37.6141 Y8.4711
G01 X37.6214 Y8.4798
G01 X37.6367 Y8.4951
G01 X37.6481 Y8.5051
G01 X37.6605 Y8.5138
G01 X37.6737 Y8.5214
G01 X37.6974 Y8.5327
G01 X37.7200 Y8.5461
G01 X37.7267 Y8.5496
G01 X37.7371 Y8.5543
G01 X37.7442 Y8.5570
G01 X37.7587 Y8.5613
G01 X37.7836 Y8.5662
G01 X37.7949 Y8.5675
G01 X37.8025 Y8.5678
G01 X37.8177 Y8.5674
G01 X37.8472 Y8.5638
G01 X37.8721 Y8.5629
G01 X37.8721 Y8.7791
G01 X37.8464 Y8.7943
G01 X37.8339 Y8.8026
G01 X37.8103 Y8.8204
G01 X37.7882 Y8.8401
G01 X37.7802 Y8.8480
G01 X37.7579 Y8.8728
G01 X37.7379 Y8.8995
G01 X37.7318 Y8.9089
G01 X37.7167 Y8.9344
G01 X37.7039 Y8.9610
G01 X37.6995 Y8.9714
G01 X37.6884 Y9.0028
G01 X37.6802 Y9.0351
G01 X37.6781 Y9.0462
G01 X37.6739 Y9.0755
G01 X37.6723 Y9.1050
G01 X37.6721 Y9.6125
G01 X37.6739 Y9.6495
G01 X37.6787 Y9.6825
G01 X37.6810 Y9.6935
G01 X37.6873 Y9.7186
G01 X37.6895 Y9.7258
G01 X37.6982 Y9.7501
G01 X37.7024 Y9.7606
G01 X37.7134 Y9.7839
G01 X37.7204 Y9.7972
G01 X37.7358 Y9.8224
G01 X37.7579 Y9.8522
G01 X37.7828 Y9.8797
G01 X37.8074 Y9.9022
G01 X37.8132 Y9.9069
G01 X37.8339 Y9.9224
G01 X37.8464 Y9.9307
G01 X37.8719 Y9.9458
G01 X37.9054 Y9.9616
G01 X37.9367 Y9.9730
G01 X37.9475 Y9.9761
G01 X37.9763 Y9.9831
G01 X38.0092 Y9.9881
G01 X38.0204 Y9.9891
G01 X38.0500 Y9.9904
G01 X38.5000 Y9.9904
G01 X38.5370 Y9.9886
G01 X38.5700 Y9.9838
G01 X38.5810 Y9.9815
G01 X38.6097 Y9.9741
G01 X38.6376 Y9.9643
G01 X38.6481 Y9.9601
G01 X38.6781 Y9.9458
G01 X38.7068 Y9.9287
G01 X38.7161 Y9.9224
G01 X38.7397 Y9.9046
G01 X38.7618 Y9.8849
G01 X38.7698 Y9.8770
G01 X38.7921 Y9.8522
G01 X38.8121 Y9.8255
G01 X38.8182 Y9.8161
G01 X38.8333 Y9.7906
G01 X38.8453 Y9.7655
G01 X39.0520 Y9.7655
G01 X39.0220 Y9.8559
G01 X38.9518 Y9.9698
G01 X38.8893 Y10.0323
G01 X38.8821 Y10.0405
G01 X38.8734 Y10.0521
G01 X38.8658 Y10.0646
G01 X38.8288 Y10.1326
G01 X38.8243 Y10.1431
G01 X38.8217 Y10.1502
G01 X38.8175 Y10.1648
G01 X38.8154 Y10.1760
G01 X38.8141 Y10.1873
G01 X38.8137 Y10.1949
G01 X38.8138 Y10.2063
G01 X38.8193 Y10.2835
G01 X38.8215 Y10.2985
G01 X38.8252 Y10.3133
G01 X38.8289 Y10.3240
G01 X38.8334 Y10.3345
G01 X38.8387 Y10.3446
G01 X38.8426 Y10.3511
G01 X38.8491 Y10.3605
G01 X38.8933 Y10.4194
G01 X38.8981 Y10.4252
G01 X38.9059 Y10.4335
G01 X38.9172 Y10.4437
G01 X38.9295 Y10.4526
G01 X38.9393 Y10.4585
G01 X38.9460 Y10.4620
G01 X38.9599 Y10.4680
G01 X39.0290 Y10.4937
G01 X39.0362 Y10.4960
G01 X39.0471 Y10.4987
G01 X39.0621 Y10.5011
G01 X39.0696 Y10.5018
G01 X39.0877 Y10.5024
G01 X39.6414 Y10.5023
G01 X39.6523 Y10.5017
G01 X39.6631 Y10.5003
G01 X39.6738 Y10.4981
G01 X39.6808 Y10.4962
G01 X39.7515 Y10.4754
G01 X39.7655 Y10.4701
G01 X39.7790 Y10.4635
G01 X39.7886 Y10.4577
G01 X39.7948 Y10.4534
G01 X39.8245 Y10.4296
G01 X39.8336 Y10.4213
G01 X39.8768 Y10.3780
G01 X39.9957 Y10.3047
G01 X40.1294 Y10.2604
G01 X40.2078 Y10.2524
G01 X43.2614 Y10.2524
G01 X43.2687 Y10.2522
G01 X43.2795 Y10.2513
G01 X43.2867 Y10.2503
G01 X43.2974 Y10.2481
G01 X43.3715 Y10.2265
G01 X43.3858 Y10.2215
G01 X43.3996 Y10.2151
G01 X43.4127 Y10.2074
G01 X43.4249 Y10.1984
G01 X43.4362 Y10.1883
G01 X43.4440 Y10.1799
G01 X43.4922 Y10.1242
G01 X43.5012 Y10.1120
G01 X43.5053 Y10.1056
G01 X43.5108 Y10.0957
G01 X43.5140 Y10.0888
G01 X43.5182 Y10.0782
G01 X43.5206 Y10.0710
G01 X43.5235 Y10.0600
G01 X43.5255 Y10.0488
G01 X43.5354 Y9.9796
G01 X43.5366 Y9.9683
G01 X43.5369 Y9.9531
G01 X43.5361 Y9.9417
G01 X43.5338 Y9.9268
G01 X43.5300 Y9.9121
G01 X43.5247 Y9.8978
G01 X43.4942 Y9.8308
G01 X43.4909 Y9.8241
G01 X43.4854 Y9.8144
G01 X43.4793 Y9.8051
G01 X43.4748 Y9.7992
G01 X43.4675 Y9.7907
G01 X43.4597 Y9.7828
G01 X43.4225 Y9.7510
G01 X43.4100 Y9.7419
G01 X43.3771 Y9.7216
G01 X43.2784 Y9.6229
G01 X43.2051 Y9.5041
G01 X43.1609 Y9.3705
G01 X43.1529 Y9.2922
G01 X43.1529 Y9.1030
G01 X43.3471 Y9.1030
G01 X43.3472 Y9.2538
G01 X43.3491 Y9.2895
G01 X43.3536 Y9.3212
G01 X43.3556 Y9.3323
G01 X43.3634 Y9.3633
G01 X43.3668 Y9.3741
G01 X43.3751 Y9.3972
G01 X43.3808 Y9.4110
G01 X43.3930 Y9.4366
G01 X43.3984 Y9.4464
G01 X43.4130 Y9.4707
G01 X43.4193 Y9.4800
G01 X43.4386 Y9.5056
G01 X43.4599 Y9.5294
G01 X43.4678 Y9.5375
G01 X43.4915 Y9.5590
G01 X43.5003 Y9.5660
G01 X43.5200 Y9.5807
G01 X43.5293 Y9.5870
G01 X43.5568 Y9.6035
G01 X43.5668 Y9.6087
G01 X43.5924 Y9.6207
G01 X43.6028 Y9.6249
G01 X43.6295 Y9.6344
G01 X43.6403 Y9.6375
G01 X43.6641 Y9.6435
G01 X43.6788 Y9.6464
G01 X43.7105 Y9.6509
G01 X43.7500 Y9.6529
G01 X45.3829 Y9.6529
G01 X45.6099 Y9.8799
G01 X45.5972 Y9.8862
G01 X45.5843 Y9.8942
G01 X45.5723 Y9.9035
G01 X45.5613 Y9.9140
G01 X45.5056 Y9.9782
G01 X45.4989 Y9.9875
G01 X45.4949 Y9.9939
G01 X45.4877 Y10.0073
G01 X45.4832 Y10.0177
G01 X45.4807 Y10.0249
G01 X45.4775 Y10.0358
G01 X45.4759 Y10.0432
G01 X45.4642 Y10.1237
G01 X45.4633 Y10.1350
G01 X45.4634 Y10.1502
G01 X45.4650 Y10.1653
G01 X45.4681 Y10.1801
G01 X45.4713 Y10.1911
G01 X45.4754 Y10.2017
G01 X45.5076 Y10.2721
G01 X45.5128 Y10.2819
G01 X45.5167 Y10.2883
G01 X45.5254 Y10.3003
G01 X45.5326 Y10.3088
G01 X45.5405 Y10.3167
G01 X45.5776 Y10.3485
G01 X45.5901 Y10.3576
G01 X45.6232 Y10.3780
G01 X45.7220 Y10.4768
G01 X45.7953 Y10.5957
G01 X45.8396 Y10.7294
G01 X45.8476 Y10.8078
G01 X45.8476 Y11.3922
G01 X45.8396 Y11.4706
G01 X45.7953 Y11.6043
G01 X45.7220 Y11.7232
G01 X45.6232 Y11.8220
G01 X45.5509 Y11.8666
G01 X45.5420 Y11.8729
G01 X45.5308 Y11.8822
G01 X45.5206 Y11.8925
G01 X45.4714 Y11.9473
G01 X45.4643 Y11.9562
G01 X45.4579 Y11.9657
G01 X45.4522 Y11.9755
G01 X45.4459 Y11.9893
G01 X45.4409 Y12.0036
G01 X45.4373 Y12.0184
G01 X45.4244 Y12.0986
G01 X45.4236 Y12.1100
G01 X45.4235 Y12.1176
G01 X45.4237 Y12.1252
G01 X45.4249 Y12.1365
G01 X45.4269 Y12.1477
G01 X45.4286 Y12.1551
G01 X45.4333 Y12.1696
G01 X45.4640 Y12.2407
G01 X45.4689 Y12.2509
G01 X45.4746 Y12.2608
G01 X45.4809 Y12.2702
G01 X45.4880 Y12.2791
G01 X45.4931 Y12.2848
G01 X45.5012 Y12.2928
G01 X45.5342 Y12.3214
G01 X45.5424 Y12.3280
G01 X45.5540 Y12.3360
G01 X45.6229 Y12.3784
G01 X45.7216 Y12.4771
G01 X45.7949 Y12.5959
G01 X45.8283 Y12.6970
G01 X45.6227 Y12.6970
G01 X45.6087 Y12.6668
G01 X45.6016 Y12.6536
G01 X45.5850 Y12.6262
G01 X45.5614 Y12.5944
G01 X45.5401 Y12.5706
G01 X45.5294 Y12.5599
G01 X45.5056 Y12.5386
G01 X45.4738 Y12.5150
G01 X45.4464 Y12.4984
G01 X45.4332 Y12.4913
G01 X45.4042 Y12.4778
G01 X45.3669 Y12.4645
G01 X45.3359 Y12.4565
G01 X45.3212 Y12.4536
G01 X45.2895 Y12.4491
G01 X45.2575 Y12.4473
G01 X40.2500 Y12.4471
G01 X40.2180 Y12.4485
G01 X40.2031 Y12.4500
G01 X40.1714 Y12.4549
G01 X40.1331 Y12.4645
G01 X40.0958 Y12.4778
G01 X40.0668 Y12.4913
G01 X40.0536 Y12.4984
G01 X40.0262 Y12.5150
G01 X39.9944 Y12.5386
G01 X39.9706 Y12.5599
G01 X39.9599 Y12.5706
G01 X39.9386 Y12.5944
G01 X39.9150 Y12.6262
G01 X39.8984 Y12.6536
G01 X39.8913 Y12.6668
G01 X39.8773 Y12.6970
G01 X39.6717 Y12.6970
G01 X39.7051 Y12.5959
G01 X39.7784 Y12.4771
G01 X39.8771 Y12.3784
G01 X39.9491 Y12.3340
G01 X39.9580 Y12.3277
G01 X39.9664 Y12.3208
G01 X39.9769 Y12.3107
G01 X39.9966 Y12.2890
G01 X40.0203 Y12.2657
G01 X40.0278 Y12.2570
G01 X40.0346 Y12.2479
G01 X40.0407 Y12.2383
G01 X40.0495 Y12.2217
G01 X40.0541 Y12.2113
G01 X40.0591 Y12.1969
G01 X40.0627 Y12.1822
G01 X40.0675 Y12.1531
G01 X40.0748 Y12.1206
G01 X40.0765 Y12.1094
G01 X40.0772 Y12.0980
G01 X40.0769 Y12.0828
G01 X40.0746 Y12.0603
G01 X40.0714 Y12.0455
G01 X40.0667 Y12.0310
G01 X40.0536 Y12.0004
G01 X40.0424 Y11.9694
G01 X40.0362 Y11.9561
G01 X40.0307 Y11.9465
G01 X40.0245 Y11.9374
G01 X40.0146 Y11.9246
G01 X40.0072 Y11.9161
G01 X39.9794 Y11.8892
G01 X39.9731 Y11.8837
G01 X39.9615 Y11.8748
G01 X39.9515 Y11.8681
G01 X39.8768 Y11.8220
G01 X39.8251 Y11.7704
G01 X39.8164 Y11.7627
G01 X39.8012 Y11.7511
G01 X39.7920 Y11.7451
G01 X39.7824 Y11.7399
G01 X39.7725 Y11.7353
G01 X39.7528 Y11.7276
G01 X39.7341 Y11.7174
G01 X39.7273 Y11.7141
G01 X39.7169 Y11.7099
G01 X39.7026 Y11.7054
G01 X39.6916 Y11.7029
G01 X39.6674 Y11.6993
G01 X39.6560 Y11.6983
G01 X39.6378 Y11.6976
G01 X36.0411 Y11.6976
G01 X35.9257 Y11.6747
G01 X35.7974 Y11.6215
G01 X35.7873 Y11.6177
G01 X35.7770 Y11.6147
G01 X35.7208 Y11.6016
G01 X35.7093 Y11.5994
G01 X35.6939 Y11.5978
G01 X35.6676 Y11.5976
G01 X35.6448 Y11.5749
G01 X35.6238 Y11.5559
G01 X35.6152 Y11.5486
G01 X35.5864 Y11.5274
G01 X35.5558 Y11.5089
G01 X35.5458 Y11.5037
G01 X35.5236 Y11.4932
G01 X35.5097 Y11.4875
G01 X35.4795 Y11.4768
G01 X35.4411 Y11.4672
G01 X35.4020 Y11.4614
G01 X35.3663 Y11.4595
G01 X34.8476 Y11.4595
G01 X34.8357 Y11.4344
G01 X34.8303 Y11.4245
G01 X34.8152 Y11.3998
G01 X34.7981 Y11.3764
G01 X34.7911 Y11.3676
G01 X34.7690 Y11.3435
G01 X34.7420 Y11.3190
G01 X34.7127 Y11.2973
G01 X34.6847 Y11.2803
G01 X34.6747 Y11.2751
G01 X34.6485 Y11.2629
G01 X34.6213 Y11.2530
G01 X34.6105 Y11.2496
G01 X34.5788 Y11.2418
G01 X34.5427 Y11.2364
G01 X34.5100 Y11.2347
G01 X34.0650 Y11.2347
G01 X34.0323 Y11.2364
G01 X33.9962 Y11.2418
G01 X33.9609 Y11.2506
G01 X33.9300 Y11.2615
G01 X33.9231 Y11.2644
G01 X33.9003 Y11.2751
G01 X33.8903 Y11.2803
G01 X33.8623 Y11.2973
G01 X33.8389 Y11.3144
G01 X33.8301 Y11.3214
G01 X33.8060 Y11.3435
G01 X33.7839 Y11.3676
G01 X33.7769 Y11.3764
G01 X33.7598 Y11.3998
G01 X33.7447 Y11.4245
G01 X33.7393 Y11.4344
G01 X33.7254 Y11.4640
G01 X33.7131 Y11.4984
G01 X33.7059 Y11.5264
G01 X33.7036 Y11.5374
G01 X33.6989 Y11.5698
G01 X33.6971 Y11.6063
G01 X33.6971 Y12.1187
G01 X33.6989 Y12.1552
G01 X33.7030 Y12.1839
G01 X33.7059 Y12.1986
G01 X33.7121 Y12.2230
G01 X33.7155 Y12.2338
G01 X33.7240 Y12.2575
G01 X33.7269 Y12.2644
G01 X33.7376 Y12.2872
G01 X33.7428 Y12.2972
G01 X33.7598 Y12.3252
G01 X33.7815 Y12.3545
G01 X33.8060 Y12.3815
G01 X33.8273 Y12.4011
G01 X33.8389 Y12.4106
G01 X33.8592 Y12.4256
G01 X33.8654 Y12.4298
G01 X33.8936 Y12.4465
G01 X33.9231 Y12.4606
G01 X33.9300 Y12.4635
G01 X33.9537 Y12.4720
G01 X33.9681 Y12.4764
G01 X33.9962 Y12.4832
G01 X34.0286 Y12.4882
G01 X34.0398 Y12.4891
G01 X34.0688 Y12.4904
G01 X34.5062 Y12.4904
G01 X34.5427 Y12.4886
G01 X34.5751 Y12.4839
G01 X34.5861 Y12.4816
G01 X34.6141 Y12.4744
G01 X34.6415 Y12.4648
G01 X34.6519 Y12.4606
G01 X34.6814 Y12.4465
G01 X34.7096 Y12.4298
G01 X34.7189 Y12.4234
G01 X34.7420 Y12.4060
G01 X34.7636 Y12.3867
G01 X34.7717 Y12.3788
G01 X34.7935 Y12.3545
G01 X34.8131 Y12.3283
G01 X34.8193 Y12.3189
G01 X34.8340 Y12.2939
G01 X34.8476 Y12.2655
G01 X35.0537 Y12.2655
G01 X35.0226 Y12.3595
G01 X34.9531 Y12.4721
G01 X34.8596 Y12.5656
G01 X34.7578 Y12.6285
G01 X34.7489 Y12.6348
G01 X34.7404 Y12.6417
G01 X34.7299 Y12.6518
G01 X34.6807 Y12.7064
G01 X34.6734 Y12.7151
G01 X34.6690 Y12.7212
G01 X34.6609 Y12.7341
G01 X34.6542 Y12.7477
G01 X34.6488 Y12.7619
G01 X34.6458 Y12.7729
G01 X34.6435 Y12.7841
G01 X34.6317 Y12.8568
G01 X34.6306 Y12.8681
G01 X34.6304 Y12.8833
G01 X34.6317 Y12.8984
G01 X34.6337 Y12.9096
G01 X34.6376 Y12.9243
G01 X34.6415 Y12.9350
G01 X34.6740 Y13.0095
G01 X34.6775 Y13.0162
G01 X34.6835 Y13.0259
G01 X34.6901 Y13.0352
G01 X34.6949 Y13.0411
G01 X34.7026 Y13.0494
G01 X34.7081 Y13.0547
G01 X34.7410 Y13.0833
G01 X34.7521 Y13.0920
G01 X34.7609 Y13.0979
G01 X34.8599 Y13.1590
G01 X34.9535 Y13.2526
G01 X35.0230 Y13.3653
G01 X35.0650 Y13.4920
G01 X35.0726 Y13.5661
G01 X35.0726 Y14.1589
G01 X35.0684 Y14.2010
G01 X35.0679 Y14.2119
G01 X35.0682 Y14.2228
G01 X35.0693 Y14.2337
G01 X35.0705 Y14.2408
G01 X35.0832 Y14.3095
G01 X35.0868 Y14.3243
G01 X35.0917 Y14.3386
G01 X35.0981 Y14.3524
G01 X35.1058 Y14.3655
G01 X35.1147 Y14.3778
G01 X35.1222 Y14.3864
G01 X35.1755 Y14.4427
G01 X35.1840 Y14.4503
G01 X35.1901 Y14.4550
G01 X35.1995 Y14.4616
G01 X35.2061 Y14.4655
G01 X35.2128 Y14.4691
G01 X35.2233 Y14.4739
G01 X35.2340 Y14.4778
G01 X35.2414 Y14.4800
G01 X35.3112 Y14.4988
G01 X35.3258 Y14.5013
G01 X35.3405 Y14.5023
G01 X39.6378 Y14.5024
G01 X39.6487 Y14.5020
G01 X39.6595 Y14.5008
G01 X39.6738 Y14.4981
G01 X39.6883 Y14.4940
G01 X39.6998 Y14.4930
G01 X39.7110 Y14.4913
G01 X39.7256 Y14.4878
G01 X39.7328 Y14.4855
G01 X39.7433 Y14.4814
G01 X39.7535 Y14.4766
G01 X39.7631 Y14.4711
G01 X39.7765 Y14.4649
G01 X39.7898 Y14.4569
G01 X39.8070 Y14.4446
G01 X39.8223 Y14.4323
G01 X39.8768 Y14.3780
G01 X39.9582 Y14.3275
G01 X39.9755 Y14.3142
G01 X39.9836 Y14.3069
G01 X39.9911 Y14.2990
G01 X39.9980 Y14.2905
G01 X40.0123 Y14.2709
G01 X40.0310 Y14.2498
G01 X40.0400 Y14.2375
G01 X40.0441 Y14.2311
G01 X40.0495 Y14.2211
G01 X40.0595 Y14.1979
G01 X40.0633 Y14.1871
G01 X40.0654 Y14.1798
G01 X40.0671 Y14.1724
G01 X40.0690 Y14.1612
G01 X40.0698 Y14.1537
G01 X40.0712 Y14.1293
G01 X40.0751 Y14.1051
G01 X40.0760 Y14.0976
G01 X40.0765 Y14.0862
G01 X40.0764 Y14.0786
G01 X40.0751 Y14.0635
G01 X40.0707 Y14.0386
G01 X40.0667 Y14.0240
G01 X40.0627 Y14.0133
G01 X40.0563 Y13.9996
G01 X40.0443 Y13.9783
G01 X40.0345 Y13.9559
G01 X40.0293 Y13.9457
G01 X40.0213 Y13.9329
G01 X40.0120 Y13.9208
G01 X39.9974 Y13.9050
G01 X39.9893 Y13.8971
G01 X39.9805 Y13.8898
G01 X39.9705 Y13.8827
G01 X39.9576 Y13.8720
G01 X39.9460 Y13.8641
G01 X39.8771 Y13.8216
G01 X39.7784 Y13.7229
G01 X39.7051 Y13.6041
G01 X39.6717 Y13.5030
G01 X39.8773 Y13.5030
G01 X39.8913 Y13.5332
G01 X39.8984 Y13.5464
G01 X39.9150 Y13.5738
G01 X39.9386 Y13.6056
G01 X39.9599 Y13.6294
G01 X39.9706 Y13.6401
G01 X39.9944 Y13.6614
G01 X40.0262 Y13.6850
G01 X40.0536 Y13.7016
G01 X40.0668 Y13.7087
G01 X40.0958 Y13.7222
G01 X40.1331 Y13.7355
G01 X40.1641 Y13.7435
G01 X40.1788 Y13.7464
G01 X40.2105 Y13.7509
G01 X40.2425 Y13.7527
G01 X45.2500 Y13.7529
G01 X45.2820 Y13.7515
G01 X45.2969 Y13.7500
G01 X45.3286 Y13.7451
G01 X45.3669 Y13.7355
G01 X45.4042 Y13.7222
G01 X45.4332 Y13.7087
G01 X45.4464 Y13.7016
G01 X45.4738 Y13.6850
G01 X45.5056 Y13.6614
G01 X45.5294 Y13.6401
G01 X45.5401 Y13.6294
G01 X45.5614 Y13.6056
G01 X45.5850 Y13.5738
G01 X45.6016 Y13.5464
G01 X45.6087 Y13.5332
G01 X45.6227 Y13.5030
G01 X45.8283 Y13.5030
G01 X45.7949 Y13.6041
G01 X45.7216 Y13.7229
G01 X45.6229 Y13.8216
G01 X45.5509 Y13.8660
G01 X45.5391 Y13.8745
G01 X45.5308 Y13.8816
G01 X45.5206 Y13.8919
G01 X45.4739 Y13.9439
G01 X45.4666 Y13.9526
G01 X45.4621 Y13.9587
G01 X45.4541 Y13.9716
G01 X45.4489 Y13.9818
G01 X45.4432 Y13.9958
G01 X45.4398 Y14.0067
G01 X45.4367 Y14.0216
G01 X45.4249 Y14.0943
G01 X45.4236 Y14.1094
G01 X45.4235 Y14.1170
G01 X45.4240 Y14.1284
G01 X45.4254 Y14.1397
G01 X45.4269 Y14.1471
G01 X45.4308 Y14.1618
G01 X45.4361 Y14.1760
G01 X45.4655 Y14.2435
G01 X45.4726 Y14.2570
G01 X45.4809 Y14.2696
G01 X45.4905 Y14.2814
G01 X45.4984 Y14.2896
G01 X45.5342 Y14.3208
G01 X45.5424 Y14.3274
G01 X45.5540 Y14.3354
G01 X45.6232 Y14.3780
G01 X45.7220 Y14.4768
G01 X45.7953 Y14.5957
G01 X45.8396 Y14.7294
G01 X45.8476 Y14.8078
G01 X45.8476 Y15.3922
G01 X45.8396 Y15.4706
G01 X45.7953 Y15.6043
G01 X45.7220 Y15.7232
G01 X45.6232 Y15.8220
G01 X45.5873 Y15.8443
G01 X45.5785 Y15.8508
G01 X45.5676 Y15.8604
G01 X45.5600 Y15.8682
G01 X45.5108 Y15.9230
G01 X45.5015 Y15.9350
G01 X45.4934 Y15.9479
G01 X45.4899 Y15.9546
G01 X45.4852 Y15.9650
G01 X45.4814 Y15.9757
G01 X45.4783 Y15.9867
G01 X45.4760 Y15.9979
G01 X45.4643 Y16.0706
G01 X45.4629 Y16.0857
G01 X45.4631 Y16.1009
G01 X45.4643 Y16.1122
G01 X45.4671 Y16.1271
G01 X45.4702 Y16.1381
G01 X45.4740 Y16.1488
G01 X45.5065 Y16.2233
G01 X45.5120 Y16.2333
G01 X45.5181 Y16.2429
G01 X45.5226 Y16.2490
G01 X45.5299 Y16.2577
G01 X45.5406 Y16.2685
G01 X45.5523 Y16.2781
G01 X45.6197 Y16.3234
G01 X45.6293 Y16.3290
G01 X45.6394 Y16.3339
G01 X45.6497 Y16.3381
G01 X45.6603 Y16.3415
G01 X45.6748 Y16.3448
G01 X45.7156 Y16.3511
G01 X45.7233 Y16.3521
G01 X45.7349 Y16.3528
G01 X46.2922 Y16.3529
G01 X46.3705 Y16.3609
G01 X46.5041 Y16.4051
G01 X46.5970 Y16.4625
G01 X46.5970 Y16.7459
G01 X46.5850 Y16.7262
G01 X46.5638 Y16.6973
G01 X46.5565 Y16.6887
G01 X46.5375 Y16.6678
G01 X46.5294 Y16.6599
G01 X46.5056 Y16.6386
G01 X46.4800 Y16.6193
G01 X46.4707 Y16.6130
G01 X46.4432 Y16.5965
G01 X46.4332 Y16.5913
G01 X46.4042 Y16.5778
G01 X46.3741 Y16.5668
G01 X46.3597 Y16.5625
G01 X46.3286 Y16.5549
G01 X46.2969 Y16.5500
G01 X46.2858 Y16.5487
G01 X46.2500 Y16.5471
G01 X43.7500 Y16.5471
G01 X43.7105 Y16.5491
G01 X43.6714 Y16.5549
G01 X43.6403 Y16.5625
G01 X43.6259 Y16.5668
G01 X43.5993 Y16.5764
G01 X43.5890 Y16.5808
G01 X43.5601 Y16.5947
G01 X43.5325 Y16.6110
G01 X43.5200 Y16.6193
G01 X43.4944 Y16.6386
G01 X43.4651 Y16.6651
G01 X43.4386 Y16.6944
G01 X43.4150 Y16.7262
G01 X43.3947 Y16.7601
G01 X43.3778 Y16.7958
G01 X43.3645 Y16.8331
G01 X43.3565 Y16.8641
G01 X43.3542 Y16.8751
G01 X43.3491 Y16.9105
G01 X43.3472 Y16.9462
G01 X43.3471 Y17.0970
G01 X43.1529 Y17.0970
G01 X43.1529 Y16.9078
G01 X43.1609 Y16.8295
G01 X43.2051 Y16.6959
G01 X43.2784 Y16.5771
G01 X43.3771 Y16.4784
G01 X43.4128 Y16.4562
G01 X43.4244 Y16.4474
G01 X43.4326 Y16.4401
G01 X43.4401 Y16.4323
G01 X43.4869 Y16.3803
G01 X43.4942 Y16.3716
G01 X43.4987 Y16.3655
G01 X43.5048 Y16.3559
G01 X43.5119 Y16.3424
G01 X43.5176 Y16.3284
G01 X43.5209 Y16.3175
G01 X43.5241 Y16.3026
G01 X43.5353 Y16.2337
G01 X43.5363 Y16.2262
G01 X43.5372 Y16.2148
G01 X43.5373 Y16.2072
G01 X43.5367 Y16.1958
G01 X43.5353 Y16.1845
G01 X43.5339 Y16.1771
G01 X43.5300 Y16.1624
G01 X43.5246 Y16.1482
G01 X43.4952 Y16.0807
G01 X43.4919 Y16.0739
G01 X43.4862 Y16.0640
G01 X43.4775 Y16.0515
G01 X43.4702 Y16.0428
G01 X43.4650 Y16.0373
G01 X43.4567 Y16.0295
G01 X43.4508 Y16.0247
G01 X43.4416 Y16.0180
G01 X43.3804 Y15.9771
G01 X43.3675 Y15.9698
G01 X43.3539 Y15.9637
G01 X43.3398 Y15.9590
G01 X43.3253 Y15.9557
G01 X43.2807 Y15.9488
G01 X43.2691 Y15.9478
G01 X43.2614 Y15.9476
G01 X40.2078 Y15.9476
G01 X40.1294 Y15.9396
G01 X39.9957 Y15.8953
G01 X39.8768 Y15.8220
G01 X39.8283 Y15.7737
G01 X39.8200 Y15.7666
G01 X39.8141 Y15.7623
G01 X39.8081 Y15.7582
G01 X39.7987 Y15.7526
G01 X39.7341 Y15.7174
G01 X39.7239 Y15.7126
G01 X39.7134 Y15.7086
G01 X39.7026 Y15.7054
G01 X39.6879 Y15.7023
G01 X39.6541 Y15.6985
G01 X39.6419 Y15.6977
G01 X34.6161 Y15.6976
G01 X34.5007 Y15.6747
G01 X34.4348 Y15.6474
G01 X34.4244 Y15.6438
G01 X34.4139 Y15.6410
G01 X34.3996 Y15.6384
G01 X34.3265 Y15.6305
G01 X34.3151 Y15.6297
G01 X34.3075 Y15.6297
G01 X34.2924 Y15.6307
G01 X34.2774 Y15.6332
G01 X34.2628 Y15.6372
G01 X34.2486 Y15.6426
G01 X34.1724 Y15.6807
G01 X34.1594 Y15.6890
G01 X34.1472 Y15.6986
G01 X34.1364 Y15.7088
G01 X32.8810 Y16.9642
G01 X32.7831 Y17.0296
G01 X32.6743 Y17.0747
G01 X32.5589 Y17.0976
G01 X27.9411 Y17.0976
G01 X27.8257 Y17.0747
G01 X27.7169 Y17.0296
G01 X27.6190 Y16.9642
G01 X25.8310 Y15.1762
G01 X25.8200 Y15.1666
G01 X25.8111 Y15.1602
G01 X25.8050 Y15.1563
G01 X25.7341 Y15.1174
G01 X25.7239 Y15.1126
G01 X25.7134 Y15.1086
G01 X25.7026 Y15.1054
G01 X25.6916 Y15.1029
G01 X25.6805 Y15.1013
G01 X25.6541 Y15.0985
G01 X25.6378 Y15.0976
G01 X16.9411 Y15.0976
G01 X16.8257 Y15.0747
G01 X16.7169 Y15.0296
G01 X16.6190 Y14.9642
G01 X14.5358 Y12.8810
G01 X14.4704 Y12.7831
G01 X14.4253 Y12.6743
G01 X14.4024 Y12.5589
G01 X14.4024 Y10.9411
G01 X14.4253 Y10.8257
G01 X14.4704 Y10.7169
G01 X14.5358 Y10.6190
G01 X15.5278 Y9.6270
G01 X15.5352 Y9.6190
G01 X15.5442 Y9.6076
G01 X15.5521 Y9.5954
G01 X15.5874 Y9.5309
G01 X15.5940 Y9.5172
G01 X15.5992 Y9.5030
G01 X15.6030 Y9.4882
G01 X15.6053 Y9.4732
G01 X15.6059 Y9.4657
G01 X15.6060 Y9.4543
G01 X15.6000 Y9.3694
G01 X15.5974 Y9.3544
G01 X15.5933 Y9.3396
G01 X15.5892 Y9.3289
G01 X15.5861 Y9.3219
G01 X15.5788 Y9.3085
G01 X15.5463 Y9.2579
G01 X15.5399 Y9.2491
G01 X15.5328 Y9.2407
G01 X14.3336 Y8.0412
G01 X14.3256 Y8.0338
G01 X14.3141 Y8.0248
G01 X14.3019 Y8.0169
G01 X14.2374 Y7.9817
G01 X14.2273 Y7.9766
G01 X14.2204 Y7.9737
G01 X14.2062 Y7.9689
G01 X14.1916 Y7.9654
G01 X14.1805 Y7.9638
G01 X14.1460 Y7.9603
G01 X13.1799 Y7.9601
G01 X13.1690 Y7.9605
G01 X13.1581 Y7.9617
G01 X13.1509 Y7.9629
G01 X13.1403 Y7.9653
G01 X13.0698 Y7.9860
G01 X13.0590 Y7.9896
G01 X13.0485 Y7.9940
G01 X13.0383 Y7.9992
G01 X13.0318 Y8.0031
G01 X13.0224 Y8.0095
G01 X13.0106 Y8.0190
G01 X12.9998 Y8.0297
G01 X12.9491 Y8.0883
G01 X12.9444 Y8.0943
G01 X12.9380 Y8.1036
G01 X12.9322 Y8.1135
G01 X12.9288 Y8.1203
G01 X12.9244 Y8.1307
G01 X12.9218 Y8.1379
G01 X12.9196 Y8.1452
G01 X12.9170 Y8.1562
G01 X12.9053 Y8.2367
G01 X12.9044 Y8.2480
G01 X12.9043 Y8.2594
G01 X12.9056 Y8.2745
G01 X12.9075 Y8.2858
G01 X12.9113 Y8.3004
G01 X12.9165 Y8.3147
G01 X12.9471 Y8.3817
G01 X12.9523 Y8.3920
G01 X12.9604 Y8.4051
G01 X12.9698 Y8.4173
G01 X12.9803 Y8.4285
G01 X12.9918 Y8.4385
