(G-CODE GENERATED BY FLATCAM v8.994 - www.flatcam.org - Version Date: 2020/11/7)

(Name: Photoeye PCB_V1-F_Cu.gbr_iso_combined_cnc)
(Type: G-code from Geometry)
(Units: MM)

(Created on Monday, 09 March 2026 at 13:58)

(This preprocessor is the default preprocessor used by FlatCAM.)
(It is made to work with MACH3 compatible motion controllers.)

(TOOL DIAMETER: 0.1141 mm)
(Feedrate_XY: 90.0 mm/min)
(Feedrate_Z: 40.0 mm/min)
(Feedrate rapids 1500.0 mm/min)

(Z_Cut: -0.04 mm)
(Z_Move: 2.0 mm)
(Z Start: None mm)
(Z End: 20.0 mm)
(X,Y End: None mm)
(Steps per circle: 64)
(Preprocessor Geometry: default)

(X range:   -0.0415 ...   50.0415  mm)
(Y range:   -0.0415 ...   20.0415  mm)

(Spindle Speed: 10000.0 RPM)
G21
G90
G94

G01 F90.00

M5
G00 Z15.0000
G00 X0.0000 Y0.0000
T2
M6    
(MSG, Change to Tool Dia = 0.1141)
M0
G00 Z15.0000

M03 S10000.0
G01 F90.00
G00 X3.6788 Y4.0280
G01 F40.00
G01 Z-0.0400
G01 F90.00
G01 X3.6884 Y4.0184
G01 X3.7026 Y4.0097
G01 X3.6870 Y4.0214
G01 X3.6788 Y4.0280
G00 Z2.0000
G00 X3.7750 Y3.9650
G01 F40.00
G01 Z-0.0400
G01 F90.00
G01 X3.7877 Y3.9572
G01 X3.8010 Y3.9528
G01 X3.7970 Y3.9546
G01 X3.7750 Y3.9650
G00 Z2.0000
G00 X3.8829 Y3.9257
G01 F40.00
G01 Z-0.0400
G01 F90.00
G01 X3.9002 Y3.9199
G01 X3.9260 Y3.9173
G01 X3.9023 Y3.9211
G01 X3.8829 Y3.9257
G00 Z2.0000
G00 X3.5972 Y4.1151
G01 F40.00
G01 Z-0.0400
G01 F90.00
G01 X3.6059 Y4.1009
G01 X3.6155 Y4.0913
G01 X3.6089 Y4.0995
G01 X3.5972 Y4.1151
G00 Z2.0000
G00 X3.5403 Y4.2135
G01 F40.00
G01 Z-0.0400
G01 F90.00
G01 X3.5447 Y4.2002
G01 X3.5525 Y4.1875
G01 X3.5421 Y4.2095
G01 X3.5403 Y4.2135
G00 Z2.0000
G00 X3.5048 Y4.3385
G01 F40.00
G01 Z-0.0400
G01 F90.00
G01 X3.5074 Y4.3127
G01 X3.5132 Y4.2954
G01 X3.5086 Y4.3148
G01 X3.5048 Y4.3385
G00 Z2.0000
G00 X3.4040 Y4.5583
G01 F40.00
G01 Z-0.0400
G01 F90.00
G01 X3.4040 Y4.3704
G01 X3.4120 Y4.2922
G01 X3.4562 Y4.1589
G01 X3.5293 Y4.0403
G01 X3.6278 Y3.9418
G01 X3.7464 Y3.8687
G01 X3.8797 Y3.8245
G01 X3.9579 Y3.8165
G01 X4.8460 Y3.8165
G01 X4.8460 Y4.0085
G01 X3.9924 Y4.0087
G01 X3.9642 Y4.0101
G01 X3.9529 Y4.0113
G01 X3.9212 Y4.0162
G01 X3.8900 Y4.0238
G01 X3.8791 Y4.0270
G01 X3.8489 Y4.0378
G01 X3.8385 Y4.0423
G01 X3.8129 Y4.0544
G01 X3.8030 Y4.0599
G01 X3.7787 Y4.0745
G01 X3.7693 Y4.0809
G01 X3.7496 Y4.0955
G01 X3.7408 Y4.1026
G01 X3.7198 Y4.1216
G01 X3.7091 Y4.1323
G01 X3.6877 Y4.1562
G01 X3.6641 Y4.1880
G01 X3.6437 Y4.2220
G01 X3.6282 Y4.2544
G01 X3.6240 Y4.2649
G01 X3.6157 Y4.2880
G01 X3.6113 Y4.3025
G01 X3.6037 Y4.3337
G01 X3.5979 Y4.3729
G01 X3.5960 Y4.4125
G01 X3.5960 Y4.5583
G01 X3.4040 Y4.5583
G00 Z2.0000
G00 X3.3071 Y4.6553
G01 F40.00
G01 Z-0.0400
G01 F90.00
G01 X3.3071 Y4.3654
G01 X3.3166 Y4.2718
G01 X3.3677 Y4.1177
G01 X3.4527 Y3.9798
G01 X3.5673 Y3.8652
G01 X3.7051 Y3.7802
G01 X3.8593 Y3.7291
G01 X3.9529 Y3.7196
G01 X4.9429 Y3.7196
G01 X4.9429 Y4.1054
G01 X3.9986 Y4.1055
G01 X3.9699 Y4.1069
G01 X3.9429 Y4.1109
G01 X3.9374 Y4.1120
G01 X3.9095 Y4.1191
G01 X3.8825 Y4.1288
G01 X3.8528 Y4.1431
G01 X3.8271 Y4.1588
G01 X3.8052 Y4.1751
G01 X3.7849 Y4.1935
G01 X3.7626 Y4.2177
G01 X3.7447 Y4.2419
G01 X3.7292 Y4.2678
G01 X3.7163 Y4.2950
G01 X3.7062 Y4.3234
G01 X3.6995 Y4.3499
G01 X3.6984 Y4.3554
G01 X3.6943 Y4.3838
G01 X3.6930 Y4.4125
G01 X3.6930 Y4.6553
G01 X3.3071 Y4.6553
G00 Z2.0000
G00 X3.3070 Y5.2697
G01 F40.00
G01 Z-0.0400
G01 F90.00
G01 X3.6930 Y5.2697
G01 X3.6930 Y5.5125
G01 X3.6943 Y5.5412
G01 X3.6984 Y5.5696
G01 X3.6995 Y5.5751
G01 X3.7062 Y5.6016
G01 X3.7169 Y5.6313
G01 X3.7306 Y5.6597
G01 X3.7447 Y5.6831
G01 X3.7609 Y5.7051
G01 X3.7829 Y5.7296
G01 X3.8052 Y5.7499
G01 X3.8318 Y5.7693
G01 X3.8553 Y5.7833
G01 X3.8799 Y5.7950
G01 X3.9109 Y5.8063
G01 X3.9415 Y5.8139
G01 X3.9699 Y5.8181
G01 X4.0000 Y5.8195
G01 X6.5000 Y5.8195
G01 X6.5329 Y5.8177
G01 X6.5599 Y5.8137
G01 X6.5864 Y5.8071
G01 X6.6175 Y5.7962
G01 X6.6472 Y5.7819
G01 X6.6706 Y5.7678
G01 X6.6926 Y5.7516
G01 X6.7171 Y5.7296
G01 X6.7391 Y5.7051
G01 X6.7553 Y5.6831
G01 X6.7701 Y5.6585
G01 X6.7837 Y5.6300
G01 X6.7938 Y5.6016
G01 X6.8012 Y5.5724
G01 X6.8056 Y5.5426
G01 X6.8070 Y5.5125
G01 X6.8070 Y5.2695
G01 X7.1929 Y5.2695
G01 X7.1929 Y5.5596
G01 X7.1834 Y5.6532
G01 X7.1323 Y5.8073
G01 X7.0473 Y5.9452
G01 X6.9327 Y6.0598
G01 X6.8924 Y6.0846
G01 X6.8870 Y6.0887
G01 X6.8830 Y6.0923
G01 X6.8317 Y6.1495
G01 X6.8277 Y6.1554
G01 X6.8245 Y6.1617
G01 X6.8225 Y6.1670
G01 X6.8207 Y6.1739
G01 X6.8091 Y6.2456
G01 X6.8085 Y6.2527
G01 X6.8091 Y6.2611
G01 X6.8105 Y6.2681
G01 X6.8127 Y6.2748
G01 X6.8411 Y6.3402
G01 X6.8458 Y6.3489
G01 X6.8520 Y6.3567
G01 X6.8594 Y6.3632
G01 X6.9198 Y6.4037
G01 X6.9257 Y6.4072
G01 X6.9321 Y6.4100
G01 X6.9401 Y6.4122
G01 X6.9814 Y6.4186
G01 X6.9886 Y6.4191
G01 X10.0471 Y6.4191
G01 X10.1408 Y6.4286
G01 X10.2951 Y6.4797
G01 X10.4330 Y6.5648
G01 X10.4852 Y6.6170
G01 X10.4893 Y6.6205
G01 X10.4949 Y6.6244
G01 X10.5585 Y6.6592
G01 X10.5649 Y6.6622
G01 X10.5702 Y6.6640
G01 X10.5770 Y6.6655
G01 X10.6107 Y6.6690
G01 X14.5683 Y6.6690
G01 X14.7023 Y6.6957
G01 X14.8285 Y6.7480
G01 X14.9420 Y6.8239
G01 X15.8668 Y7.7486
G01 X15.8719 Y7.7529
G01 X15.8776 Y7.7567
G01 X15.9414 Y7.7915
G01 X15.9465 Y7.7938
G01 X15.9519 Y7.7956
G01 X15.9574 Y7.7969
G01 X15.9630 Y7.7976
G01 X15.9715 Y7.7977
G01 X16.0454 Y7.7922
G01 X16.0524 Y7.7908
G01 X16.0591 Y7.7884
G01 X16.0654 Y7.7853
G01 X16.0713 Y7.7814
G01 X16.1284 Y7.7387
G01 X16.1347 Y7.7330
G01 X16.1392 Y7.7275
G01 X16.1430 Y7.7215
G01 X16.1460 Y7.7152
G01 X16.1710 Y7.6484
G01 X16.1733 Y7.6403
G01 X16.1744 Y7.6319
G01 X16.1743 Y7.6235
G01 X16.1683 Y7.5850
G01 X16.1682 Y7.5751
G01 X16.1665 Y7.5655
G01 X16.0926 Y7.3379
G01 X16.0570 Y7.1136
G01 X16.0570 Y6.8864
G01 X16.0926 Y6.6621
G01 X16.1628 Y6.4461
G01 X16.2659 Y6.2437
G01 X16.2842 Y6.2185
G01 X16.5677 Y6.5019
G01 X16.5234 Y6.5955
G01 X16.4893 Y6.6905
G01 X16.4877 Y6.6959
G01 X16.4633 Y6.7938
G01 X16.4484 Y6.8936
G01 X16.4478 Y6.8992
G01 X16.4430 Y7.0000
G01 X16.4478 Y7.1008
G01 X16.4484 Y7.1064
G01 X16.4633 Y7.2062
G01 X16.4877 Y7.3041
G01 X16.4893 Y7.3095
G01 X16.5234 Y7.4045
G01 X16.5665 Y7.4958
G01 X16.5691 Y7.5007
G01 X16.6219 Y7.5884
G01 X16.6829 Y7.6706
G01 X16.7506 Y7.7454
G01 X16.7546 Y7.7494
G01 X16.8294 Y7.8171
G01 X16.9104 Y7.8773
G01 X16.9151 Y7.8804
G01 X17.0017 Y7.9322
G01 X17.0929 Y7.9755
G01 X17.0981 Y7.9776
G01 X17.1932 Y8.0115
G01 X17.2910 Y8.0361
G01 X17.2965 Y8.0372
G01 X17.3964 Y8.0520
G01 X17.4972 Y8.0570
G01 X17.5028 Y8.0570
G01 X17.6036 Y8.0520
G01 X17.7062 Y8.0367
G01 X17.8041 Y8.0123
G01 X17.8095 Y8.0107
G01 X17.9019 Y7.9776
G01 X17.9071 Y7.9755
G01 X17.9983 Y7.9322
G01 X18.0849 Y7.8804
G01 X18.0896 Y7.8773
G01 X18.1706 Y7.8171
G01 X18.2474 Y7.7474
G01 X18.3171 Y7.6706
G01 X18.3773 Y7.5896
G01 X18.3804 Y7.5849
G01 X18.4322 Y7.4983
G01 X18.4755 Y7.4071
G01 X18.4776 Y7.4019
G01 X18.5115 Y7.3068
G01 X18.5361 Y7.2090
G01 X18.5372 Y7.2035
G01 X18.5520 Y7.1036
G01 X18.5570 Y7.0028
G01 X18.5570 Y6.9972
G01 X18.5520 Y6.8964
G01 X18.5372 Y6.7965
G01 X18.5361 Y6.7910
G01 X18.5115 Y6.6932
G01 X18.4776 Y6.5981
G01 X18.4755 Y6.5929
G01 X18.4323 Y6.5019
G01 X18.7158 Y6.2185
G01 X18.7341 Y6.2437
G01 X18.8372 Y6.4461
G01 X18.9074 Y6.6621
G01 X18.9430 Y6.8864
G01 X18.9430 Y7.1136
G01 X18.9424 Y7.1239
G01 X18.9519 Y7.2000
G01 X18.9543 Y7.2097
G01 X18.9576 Y7.2175
G01 X18.9605 Y7.2224
G01 X18.9638 Y7.2270
G01 X19.0097 Y7.2815
G01 X19.0146 Y7.2866
G01 X19.0212 Y7.2919
G01 X19.0273 Y7.2955
G01 X19.0351 Y7.2988
G01 X19.1032 Y7.3199
G01 X19.1129 Y7.3220
G01 X19.1228 Y7.3224
G01 X19.1326 Y7.3211
G01 X19.2027 Y7.3017
G01 X19.2094 Y7.2993
G01 X19.2145 Y7.2969
G01 X19.2206 Y7.2931
G01 X19.2450 Y7.2738
G01 X19.2545 Y7.2648
G01 X19.2597 Y7.2585
G01 X19.2633 Y7.2528
G01 X19.2967 Y7.1915
G01 X19.2997 Y7.1851
G01 X19.3015 Y7.1798
G01 X19.3030 Y7.1730
G01 X19.3065 Y7.1393
G01 X19.3065 Y5.4317
G01 X19.3332 Y5.2977
G01 X19.3855 Y5.1715
G01 X19.4614 Y5.0579
G01 X20.6955 Y3.8239
G01 X20.8090 Y3.7480
G01 X20.9361 Y3.6953
G01 X20.9428 Y3.6930
G01 X20.9582 Y3.6854
G01 X20.9627 Y3.6825
G01 X20.9670 Y3.6791
G01 X20.9900 Y3.6583
G01 X21.0153 Y3.6378
G01 X21.0212 Y3.6317
G01 X21.0246 Y3.6271
G01 X21.0304 Y3.6181
G01 X21.0331 Y3.6131
G01 X21.0352 Y3.6079
G01 X21.0442 Y3.5751
G01 X21.0544 Y3.5442
G01 X21.0561 Y3.5357
G01 X21.0565 Y3.5245
G01 X21.0565 Y3.3177
G01 X21.0619 Y3.2682
G01 X21.1068 Y3.1478
G01 X21.1832 Y3.0457
G01 X21.2853 Y2.9693
G01 X21.4057 Y2.9244
G01 X21.4552 Y2.9190
G01 X22.8891 Y2.9190
G01 X22.8959 Y2.9185
G01 X22.9025 Y2.9171
G01 X22.9749 Y2.8957
G01 X22.9825 Y2.8922
G01 X22.9884 Y2.8884
G01 X23.0112 Y2.8701
G01 X23.0158 Y2.8660
G01 X23.7305 Y2.1514
G01 X23.8440 Y2.0755
G01 X23.9702 Y2.0232
G01 X24.1042 Y1.9966
G01 X36.2583 Y1.9966
G01 X36.3923 Y2.0232
G01 X36.5211 Y2.0765
G01 X36.5265 Y2.0794
G01 X36.5317 Y2.0815
G01 X36.5411 Y2.0840
G01 X36.5512 Y2.0848
G01 X36.5915 Y2.0975
G01 X36.5971 Y2.0988
G01 X36.6028 Y2.0996
G01 X36.6085 Y2.0997
G01 X36.6143 Y2.0993
G01 X36.6462 Y2.0946
G01 X36.6531 Y2.0939
G01 X36.6602 Y2.0924
G01 X36.8864 Y2.0565
G01 X37.1136 Y2.0565
G01 X37.3380 Y2.0921
G01 X37.5541 Y2.1623
G01 X37.7565 Y2.2655
G01 X37.9403 Y2.3990
G01 X38.1010 Y2.5597
G01 X38.2345 Y2.7435
G01 X38.3377 Y2.9459
G01 X38.4079 Y3.1620
G01 X38.4435 Y3.3864
G01 X38.4435 Y3.6136
G01 X38.4079 Y3.8380
G01 X38.3377 Y4.0541
G01 X38.2345 Y4.2565
G01 X38.1010 Y4.4403
G01 X37.9403 Y4.6010
G01 X37.8140 Y4.6928
G01 X36.1860 Y4.6928
G01 X36.0597 Y4.6010
G01 X35.8990 Y4.4403
G01 X35.7655 Y4.2565
G01 X35.6623 Y4.0541
G01 X35.5921 Y3.8380
G01 X35.5565 Y3.6136
G01 X35.5565 Y3.5631
G01 X35.5558 Y3.5550
G01 X35.5542 Y3.5484
G01 X35.5346 Y3.4814
G01 X35.5321 Y3.4747
G01 X35.5296 Y3.4697
G01 X35.5266 Y3.4649
G01 X35.5232 Y3.4604
G01 X35.5193 Y3.4563
G01 X35.4644 Y3.4086
G01 X35.4563 Y3.4027
G01 X35.4500 Y3.3995
G01 X35.4419 Y3.3966
G01 X35.3850 Y3.3842
G01 X35.3755 Y3.3835
G01 X30.5238 Y3.3835
G01 X30.5157 Y3.3842
G01 X30.5091 Y3.3858
G01 X30.4407 Y3.4059
G01 X30.4341 Y3.4084
G01 X30.4291 Y3.4111
G01 X30.4221 Y3.4159
G01 X30.4160 Y3.4218
G01 X30.3693 Y3.4756
G01 X30.3642 Y3.4824
G01 X30.3608 Y3.4886
G01 X30.3582 Y3.4952
G01 X30.3564 Y3.5021
G01 X30.3458 Y3.5754
G01 X30.3454 Y3.5839
G01 X30.3463 Y3.5924
G01 X30.3480 Y3.5992
G01 X30.3505 Y3.6058
G01 X30.3802 Y3.6707
G01 X30.3852 Y3.6791
G01 X30.3887 Y3.6835
G01 X30.3926 Y3.6875
G01 X30.4220 Y3.7127
G01 X30.5348 Y3.8256
G01 X30.6156 Y3.9592
G01 X30.6623 Y4.1091
G01 X30.6680 Y4.1710
G01 X30.6680 Y4.1930
G01 X30.2799 Y4.1930
G01 X30.2771 Y4.1749
G01 X30.2710 Y4.1504
G01 X30.2625 Y4.1266
G01 X30.2530 Y4.1063
G01 X30.2503 Y4.1014
G01 X30.2371 Y4.0799
G01 X30.2237 Y4.0619
G01 X30.2077 Y4.0442
G01 X30.1902 Y4.0281
G01 X30.1859 Y4.0246
G01 X30.1678 Y4.0113
G01 X30.1462 Y3.9983
G01 X30.1234 Y3.9875
G01 X30.1023 Y3.9799
G01 X30.0969 Y3.9783
G01 X30.0738 Y3.9726
G01 X30.0502 Y3.9692
G01 X30.0250 Y3.9680
G01 X29.6222 Y3.9680
G01 X29.5998 Y3.9692
G01 X29.5776 Y3.9724
G01 X29.5531 Y3.9783
G01 X29.5266 Y3.9875
G01 X29.5026 Y3.9990
G01 X29.4822 Y4.0113
G01 X29.4598 Y4.0281
G01 X29.4432 Y4.0432
G01 X29.4281 Y4.0598
G01 X29.4129 Y4.0799
G01 X29.3983 Y4.1038
G01 X29.3875 Y4.1266
G01 X29.3790 Y4.1504
G01 X29.3729 Y4.1749
G01 X29.3692 Y4.1998
G01 X29.3680 Y4.2250
G01 X29.3680 Y4.6976
G01 X28.8924 Y5.1732
G01 X28.8796 Y5.1815
G01 X28.8733 Y5.1867
G01 X28.7747 Y5.2852
G01 X28.6410 Y5.3661
G01 X28.4910 Y5.4128
G01 X28.4290 Y5.4185
G01 X27.9210 Y5.4185
G01 X27.8590 Y5.4128
G01 X27.7090 Y5.3661
G01 X27.5753 Y5.2852
G01 X27.4648 Y5.1747
G01 X27.4451 Y5.1422
G01 X27.4419 Y5.1377
G01 X27.4384 Y5.1336
G01 X27.3819 Y5.0818
G01 X27.3774 Y5.0784
G01 X27.3726 Y5.0755
G01 X27.3676 Y5.0731
G01 X27.3624 Y5.0712
G01 X27.3037 Y5.0574
G01 X27.2980 Y5.0564
G01 X27.2908 Y5.0560
G01 X26.3713 Y5.0560
G01 X26.3632 Y5.0567
G01 X26.3566 Y5.0583
G01 X26.2882 Y5.0784
G01 X26.2829 Y5.0804
G01 X26.2778 Y5.0829
G01 X26.2730 Y5.0859
G01 X26.2675 Y5.0902
G01 X26.2331 Y5.1226
G01 X26.2278 Y5.1285
G01 X26.1010 Y5.3028
G01 X25.9403 Y5.4635
G01 X25.7565 Y5.5971
G01 X25.7460 Y5.6025
G01 X25.7393 Y5.6070
G01 X25.7351 Y5.6105
G01 X25.6814 Y5.6615
G01 X25.6778 Y5.6659
G01 X25.6739 Y5.6718
G01 X25.6708 Y5.6782
G01 X25.6689 Y5.6835
G01 X25.6510 Y5.7555
G01 X25.6498 Y5.7639
G01 X25.6498 Y5.7710
G01 X25.6506 Y5.7780
G01 X25.6523 Y5.7849
G01 X25.6757 Y5.8536
G01 X25.6779 Y5.8587
G01 X25.6812 Y5.8647
G01 X25.6852 Y5.8702
G01 X25.6889 Y5.8743
G01 X25.7402 Y5.9187
G01 X25.7460 Y5.9225
G01 X25.7565 Y5.9279
G01 X25.9403 Y6.0615
G01 X26.1010 Y6.2222
G01 X26.2345 Y6.4060
G01 X26.3377 Y6.6084
G01 X26.4079 Y6.8245
G01 X26.4435 Y7.0489
G01 X26.4435 Y7.2761
G01 X26.4079 Y7.5005
G01 X26.3377 Y7.7166
G01 X26.3260 Y7.7396
G01 X25.5771 Y8.4885
G01 X25.5541 Y8.5002
G01 X25.3380 Y8.5704
G01 X25.1136 Y8.6060
G01 X24.8864 Y8.6060
G01 X24.6620 Y8.5704
G01 X24.4459 Y8.5002
G01 X24.2435 Y8.3970
G01 X24.0597 Y8.2635
G01 X23.8990 Y8.1028
G01 X23.8940 Y8.0962
G01 X23.8893 Y8.0912
G01 X23.8275 Y8.0434
G01 X23.8227 Y8.0404
G01 X23.8163 Y8.0373
G01 X23.8110 Y8.0355
G01 X23.8041 Y8.0339
G01 X23.7302 Y8.0274
G01 X23.7246 Y8.0272
G01 X23.7189 Y8.0276
G01 X23.7120 Y8.0288
G01 X23.7065 Y8.0304
G01 X23.7013 Y8.0325
G01 X23.6370 Y8.0664
G01 X23.6287 Y8.0718
G01 X23.6214 Y8.0785
G01 X23.6055 Y8.0968
G01 X23.6010 Y8.1028
G01 X23.4403 Y8.2635
G01 X23.2565 Y8.3970
G01 X23.0541 Y8.5002
G01 X22.8380 Y8.5704
G01 X22.6136 Y8.6060
G01 X22.3864 Y8.6060
G01 X22.1620 Y8.5704
G01 X22.0775 Y8.5430
G01 X22.0696 Y8.5410
G01 X22.0615 Y8.5402
G01 X21.9903 Y8.5382
G01 X21.9831 Y8.5386
G01 X21.9775 Y8.5396
G01 X21.9720 Y8.5411
G01 X21.9654 Y8.5438
G01 X21.9043 Y8.5787
G01 X21.8987 Y8.5826
G01 X21.8936 Y8.5871
G01 X18.9609 Y11.5197
G01 X18.9564 Y11.5248
G01 X18.9512 Y11.5327
G01 X18.9164 Y11.5966
G01 X18.9142 Y11.6018
G01 X18.9122 Y11.6086
G01 X18.9112 Y11.6141
G01 X18.9108 Y11.6198
G01 X18.9095 Y11.6655
G01 X18.9098 Y11.6735
G01 X18.9435 Y11.8864
G01 X18.9435 Y12.1136
G01 X18.9101 Y12.3239
G01 X18.9095 Y12.3307
G01 X18.9099 Y12.3401
G01 X18.9191 Y12.4108
G01 X18.9214 Y12.4204
G01 X18.9254 Y12.4295
G01 X18.9542 Y12.4721
G01 X18.9600 Y12.4793
G01 X19.2352 Y12.7545
G01 X19.2404 Y12.7589
G01 X19.2472 Y12.7633
G01 X19.3098 Y12.7974
G01 X19.3162 Y12.8002
G01 X19.3215 Y12.8019
G01 X19.3298 Y12.8034
G01 X19.3561 Y12.8062
G01 X19.3622 Y12.8065
G01 X20.0688 Y12.8065
G01 X20.0756 Y12.8058
G01 X20.0809 Y12.8046
G01 X20.1519 Y12.7837
G01 X20.1584 Y12.7809
G01 X20.1634 Y12.7782
G01 X20.1692 Y12.7741
G01 X20.1734 Y12.7703
G01 X20.2229 Y12.7133
G01 X20.2278 Y12.7064
G01 X20.2311 Y12.7001
G01 X20.2339 Y12.6921
G01 X20.2354 Y12.6851
G01 X20.2455 Y12.6146
G01 X20.2459 Y12.6089
G01 X20.2456 Y12.6018
G01 X20.2436 Y12.5920
G01 X20.2310 Y12.5520
G01 X20.2286 Y12.5457
G01 X20.1628 Y12.4164
G01 X20.0926 Y12.2004
G01 X20.0570 Y11.9761
G01 X20.0570 Y11.7489
G01 X20.0926 Y11.5246
G01 X20.1628 Y11.3086
G01 X20.2659 Y11.1062
G01 X20.2842 Y11.0810
G01 X20.5677 Y11.3644
G01 X20.5234 Y11.4580
G01 X20.4893 Y11.5530
G01 X20.4877 Y11.5584
G01 X20.4633 Y11.6563
G01 X20.4484 Y11.7561
G01 X20.4478 Y11.7617
G01 X20.4430 Y11.8597
G01 X20.4430 Y11.8653
G01 X20.4480 Y11.9661
G01 X20.4633 Y12.0687
G01 X20.4885 Y12.1693
G01 X20.5224 Y12.2644
G01 X20.5245 Y12.2696
G01 X20.5678 Y12.3608
G01 X20.6211 Y12.4498
G01 X20.6829 Y12.5331
G01 X20.7526 Y12.6099
G01 X20.8294 Y12.6796
G01 X20.9127 Y12.7414
G01 X21.0017 Y12.7947
G01 X21.0955 Y12.8391
G01 X21.1932 Y12.8740
G01 X21.2938 Y12.8992
G01 X21.3964 Y12.9145
G01 X21.4972 Y12.9195
G01 X21.5028 Y12.9195
G01 X21.6008 Y12.9147
G01 X21.6064 Y12.9141
G01 X21.7062 Y12.8992
G01 X21.8041 Y12.8748
G01 X21.8095 Y12.8732
G01 X21.9045 Y12.8391
G01 X21.9981 Y12.7948
G01 X22.3102 Y13.1069
G01 X22.3097 Y13.1167
G01 X22.3104 Y13.1248
G01 X22.3259 Y13.1986
G01 X22.3281 Y13.2054
G01 X22.3311 Y13.2118
G01 X22.3349 Y13.2177
G01 X22.3395 Y13.2232
G01 X22.3905 Y13.2749
G01 X22.3958 Y13.2795
G01 X22.4016 Y13.2833
G01 X22.4079 Y13.2864
G01 X22.4145 Y13.2888
G01 X22.4760 Y13.3047
G01 X22.4845 Y13.3063
G01 X22.4903 Y13.3065
G01 X25.4746 Y13.3065
G01 X25.4814 Y13.3061
G01 X25.4894 Y13.3046
G01 X25.5617 Y13.2832
G01 X25.5682 Y13.2803
G01 X25.5731 Y13.2774
G01 X25.5776 Y13.2741
G01 X25.5829 Y13.2693
G01 X25.6314 Y13.2133
G01 X25.6363 Y13.2064
G01 X25.6396 Y13.2001
G01 X25.6420 Y13.1934
G01 X25.6437 Y13.1865
G01 X25.6541 Y13.1132
G01 X25.6544 Y13.1061
G01 X25.6537 Y13.0990
G01 X25.6522 Y13.0921
G01 X25.6498 Y13.0854
G01 X25.6196 Y13.0193
G01 X25.6161 Y13.0131
G01 X25.6127 Y13.0085
G01 X25.6079 Y13.0032
G01 X25.5841 Y12.9814
G01 X25.5597 Y12.9635
G01 X25.3990 Y12.8028
G01 X25.2655 Y12.6190
G01 X25.1623 Y12.4166
G01 X25.0921 Y12.2005
G01 X25.0565 Y11.9761
G01 X25.0565 Y11.7489
G01 X25.0921 Y11.5245
G01 X25.1623 Y11.3084
G01 X25.2655 Y11.1060
G01 X25.3990 Y10.9222
G01 X25.5597 Y10.7615
G01 X25.7435 Y10.6280
G01 X25.7601 Y10.6194
G01 X25.7668 Y10.6149
G01 X25.8238 Y10.5614
G01 X25.8275 Y10.5571
G01 X25.8315 Y10.5512
G01 X25.8342 Y10.5462
G01 X25.8364 Y10.5409
G01 X25.8549 Y10.4730
G01 X25.8560 Y10.4676
G01 X25.8565 Y10.4608
G01 X25.8565 Y9.4366
G01 X25.8813 Y9.3123
G01 X25.9298 Y9.1952
G01 X26.0002 Y9.0898
G01 X27.4213 Y7.6687
G01 X29.0074 Y7.6687
G01 X29.0350 Y7.6674
G01 X29.0421 Y7.6689
G01 X29.0505 Y7.6695
G01 X30.5255 Y7.6695
G01 X30.5339 Y7.6689
G01 X30.5407 Y7.6675
G01 X30.5486 Y7.6647
G01 X30.5560 Y7.6607
G01 X30.5628 Y7.6557
G01 X30.5696 Y7.6487
G01 X30.5751 Y7.6406
G01 X30.5787 Y7.6330
G01 X30.5812 Y7.6250
G01 X30.5824 Y7.6167
G01 X30.5825 Y7.1611
G01 X30.5819 Y7.1541
G01 X30.5808 Y7.1486
G01 X30.5787 Y7.1420
G01 X30.5765 Y7.1368
G01 X30.5729 Y7.1308
G01 X30.5687 Y7.1252
G01 X30.5638 Y7.1202
G01 X30.5572 Y7.1151
G01 X30.5512 Y7.1115
G01 X30.5434 Y7.1083
G01 X30.5366 Y7.1065
G01 X30.5297 Y7.1056
G01 X30.0700 Y7.1055
G01 X30.0700 Y6.7195
G01 X30.5703 Y6.7195
G01 X30.6196 Y6.7249
G01 X30.7400 Y6.7697
G01 X30.8419 Y6.8461
G01 X30.9183 Y6.9480
G01 X30.9631 Y7.0683
G01 X30.9671 Y7.1055
G01 X30.8649 Y7.1055
G01 X30.8568 Y7.1060
G01 X30.8489 Y7.1078
G01 X30.7805 Y7.1279
G01 X30.7726 Y7.1311
G01 X30.7653 Y7.1354
G01 X30.7597 Y7.1398
G01 X30.7557 Y7.1438
G01 X30.7090 Y7.1976
G01 X30.7040 Y7.2044
G01 X30.7005 Y7.2106
G01 X30.6979 Y7.2172
G01 X30.6959 Y7.2255
G01 X30.6857 Y7.2960
G01 X30.6851 Y7.3045
G01 X30.6855 Y7.3102
G01 X30.6863 Y7.3158
G01 X30.6878 Y7.3212
G01 X30.6897 Y7.3266
G01 X30.7199 Y7.3927
G01 X30.7226 Y7.3976
G01 X30.7266 Y7.4033
G01 X30.7323 Y7.4095
G01 X30.7552 Y7.4305
G01 X30.8423 Y7.4957
G01 X30.9187 Y7.5978
G01 X30.9636 Y7.7182
G01 X30.9690 Y7.7677
G01 X30.9689 Y8.3073
G01 X30.9651 Y8.3431
G01 X30.9648 Y8.3492
G01 X30.9649 Y8.3788
G01 X30.9690 Y8.4177
G01 X30.9689 Y8.9573
G01 X30.9651 Y8.9931
G01 X30.9648 Y8.9992
G01 X30.9649 Y9.0288
G01 X30.9690 Y9.0677
G01 X30.9688 Y9.6132
G01 X30.9697 Y9.6240
G01 X30.9827 Y9.6941
G01 X30.9858 Y9.7034
G01 X30.9882 Y9.7085
G01 X30.9912 Y9.7133
G01 X30.9965 Y9.7199
G01 X31.0450 Y9.7720
G01 X31.0512 Y9.7775
G01 X31.0569 Y9.7813
G01 X31.0642 Y9.7850
G01 X31.0707 Y9.7872
G01 X31.1353 Y9.8049
G01 X31.1408 Y9.8059
G01 X31.1463 Y9.8065
G01 X32.8509 Y9.8065
G01 X32.8577 Y9.8061
G01 X32.8630 Y9.8052
G01 X32.9381 Y9.7832
G01 X32.9432 Y9.7809
G01 X32.9494 Y9.7774
G01 X32.9550 Y9.7732
G01 X32.9601 Y9.7682
G01 X33.0077 Y9.7133
G01 X33.0117 Y9.7078
G01 X33.0151 Y9.7018
G01 X33.0177 Y9.6954
G01 X33.0198 Y9.6875
G01 X33.0310 Y9.6190
G01 X33.0312 Y9.6117
G01 X33.0310 Y9.0677
G01 X33.0349 Y9.0319
G01 X33.0352 Y9.0258
G01 X33.0351 Y8.9962
G01 X33.0310 Y8.9573
G01 X33.0310 Y8.4177
G01 X33.0351 Y8.3788
G01 X33.0352 Y8.3493
G01 X33.0349 Y8.3432
G01 X33.0310 Y8.3073
G01 X33.0310 Y7.7677
G01 X33.0351 Y7.7288
G01 X33.0352 Y7.6993
G01 X33.0349 Y7.6932
G01 X33.0310 Y7.6573
G01 X33.0310 Y7.1177
G01 X33.0364 Y7.0682
G01 X33.0813 Y6.9478
G01 X33.1577 Y6.8457
G01 X33.2598 Y6.7693
G01 X33.3802 Y6.7244
G01 X33.4297 Y6.7190
G01 X34.9943 Y6.7191
G01 X35.0438 Y6.7244
G01 X35.1642 Y6.7693
G01 X35.2834 Y6.8583
G01 X35.2895 Y6.8617
G01 X35.2947 Y6.8639
G01 X35.3000 Y6.8655
G01 X35.3062 Y6.8668
G01 X35.3359 Y6.8831
G01 X35.3424 Y6.8859
G01 X35.3478 Y6.8876
G01 X35.3534 Y6.8887
G01 X35.3590 Y6.8893
G01 X35.3647 Y6.8894
G01 X35.4372 Y6.8843
G01 X35.4428 Y6.8835
G01 X35.4496 Y6.8817
G01 X35.4587 Y6.8778
G01 X35.4659 Y6.8733
G01 X35.5231 Y6.8306
G01 X35.5273 Y6.8269
G01 X35.5321 Y6.8217
G01 X35.5370 Y6.8147
G01 X35.5407 Y6.8071
G01 X35.5658 Y6.7404
G01 X35.5679 Y6.7336
G01 X35.5691 Y6.7265
G01 X35.5694 Y6.7208
G01 X35.5680 Y6.6868
G01 X35.5565 Y6.6136
G01 X35.5565 Y6.3864
G01 X35.5921 Y6.1620
G01 X35.6623 Y5.9459
G01 X35.7655 Y5.7435
G01 X35.8990 Y5.5597
G01 X36.0597 Y5.3990
G01 X36.1860 Y5.3072
G01 X37.8140 Y5.3072
G01 X37.9403 Y5.3990
G01 X38.1010 Y5.5597
G01 X38.2345 Y5.7435
G01 X38.3377 Y5.9459
G01 X38.4079 Y6.1620
G01 X38.4435 Y6.3864
G01 X38.4435 Y6.6136
G01 X38.4079 Y6.8380
G01 X38.3377 Y7.0541
G01 X38.2345 Y7.2565
G01 X38.1010 Y7.4403
G01 X37.9403 Y7.6010
G01 X37.7681 Y7.7262
G01 X37.7609 Y7.7324
G01 X37.7564 Y7.7375
G01 X37.7138 Y7.7928
G01 X37.7105 Y7.7975
G01 X37.7078 Y7.8024
G01 X37.7051 Y7.8089
G01 X37.7032 Y7.8157
G01 X37.6942 Y7.8634
G01 X37.6935 Y7.8726
G01 X37.6935 Y8.0683
G01 X37.6668 Y8.2023
G01 X37.6542 Y8.2329
G01 X37.6506 Y8.2455
G01 X37.6493 Y8.2522
G01 X37.6488 Y8.2589
G01 X37.6492 Y8.2844
G01 X37.6465 Y8.3099
G01 X37.6464 Y8.3184
G01 X37.6476 Y8.3268
G01 X37.6502 Y8.3353
G01 X37.6515 Y8.3428
G01 X37.6531 Y8.3482
G01 X37.6553 Y8.3535
G01 X37.6587 Y8.3597
G01 X37.6728 Y8.3810
G01 X37.6843 Y8.4038
G01 X37.6872 Y8.4087
G01 X37.6934 Y8.4164
G01 X37.7012 Y8.4232
G01 X37.7073 Y8.4298
G01 X37.7129 Y8.4342
G01 X37.7189 Y8.4379
G01 X37.7448 Y8.4494
G01 X37.7681 Y8.4631
G01 X37.7732 Y8.4655
G01 X37.7785 Y8.4674
G01 X37.7854 Y8.4690
G01 X37.7916 Y8.4696
G01 X37.8003 Y8.4718
G01 X37.8101 Y8.4726
G01 X37.8172 Y8.4721
G01 X37.8422 Y8.4681
G01 X37.8704 Y8.4670
G01 X37.8758 Y8.4661
G01 X37.8810 Y8.4648
G01 X37.9144 Y8.4538
G01 X37.9680 Y8.4483
G01 X37.9680 Y8.8427
G01 X37.9421 Y8.8519
G01 X37.9195 Y8.8625
G01 X37.8933 Y8.8780
G01 X37.8711 Y8.8945
G01 X37.8526 Y8.9111
G01 X37.8320 Y8.9336
G01 X37.8155 Y8.9558
G01 X37.8026 Y8.9771
G01 X37.7894 Y9.0046
G01 X37.7801 Y9.0306
G01 X37.7740 Y9.0547
G01 X37.7729 Y9.0602
G01 X37.7692 Y9.0862
G01 X37.7680 Y9.1125
G01 X37.7680 Y9.6125
G01 X37.7695 Y9.6415
G01 X37.7734 Y9.6675
G01 X37.7801 Y9.6944
G01 X37.7894 Y9.7204
G01 X37.8000 Y9.7430
G01 X37.8026 Y9.7479
G01 X37.8171 Y9.7715
G01 X37.8320 Y9.7914
G01 X37.8526 Y9.8139
G01 X37.8711 Y9.8305
G01 X37.8933 Y9.8470
G01 X37.9170 Y9.8612
G01 X37.9395 Y9.8719
G01 X37.9447 Y9.8741
G01 X37.9708 Y9.8832
G01 X37.9950 Y9.8891
G01 X38.0210 Y9.8930
G01 X38.0500 Y9.8945
G01 X38.5000 Y9.8945
G01 X38.5276 Y9.8932
G01 X38.5578 Y9.8885
G01 X38.5819 Y9.8824
G01 X38.6079 Y9.8731
G01 X38.6330 Y9.8612
G01 X38.6543 Y9.8485
G01 X38.6590 Y9.8454
G01 X38.6811 Y9.8287
G01 X38.6994 Y9.8119
G01 X38.7180 Y9.7914
G01 X38.7345 Y9.7692
G01 X38.7474 Y9.7479
G01 X38.7500 Y9.7430
G01 X38.7616 Y9.7178
G01 X38.7699 Y9.6944
G01 X38.7762 Y9.6697
G01 X39.1667 Y9.6697
G01 X39.1587 Y9.7481
G01 X39.1095 Y9.8967
G01 X39.0275 Y10.0296
G01 X38.9596 Y10.0975
G01 X38.9535 Y10.1047
G01 X38.9499 Y10.1105
G01 X38.9164 Y10.1718
G01 X38.9134 Y10.1782
G01 X38.9116 Y10.1836
G01 X38.9103 Y10.1891
G01 X38.9096 Y10.1947
G01 X38.9095 Y10.2004
G01 X38.9146 Y10.2729
G01 X38.9155 Y10.2799
G01 X38.9173 Y10.2868
G01 X38.9200 Y10.2933
G01 X38.9234 Y10.2995
G01 X38.9685 Y10.3601
G01 X38.9743 Y10.3663
G01 X38.9797 Y10.3709
G01 X38.9870 Y10.3753
G01 X38.9934 Y10.3782
G01 X39.0602 Y10.4031
G01 X39.0698 Y10.4055
G01 X39.0754 Y10.4061
G01 X39.0877 Y10.4065
G01 X39.6391 Y10.4065
G01 X39.6472 Y10.4058
G01 X39.6538 Y10.4042
G01 X39.7222 Y10.3841
G01 X39.7275 Y10.3822
G01 X39.7337 Y10.3790
G01 X39.7395 Y10.3751
G01 X39.7636 Y10.3556
G01 X39.8170 Y10.3023
G01 X39.9549 Y10.2172
G01 X40.1092 Y10.1661
G01 X40.2029 Y10.1565
G01 X43.2614 Y10.1566
G01 X43.2695 Y10.1560
G01 X43.2761 Y10.1546
G01 X43.3445 Y10.1346
G01 X43.3498 Y10.1327
G01 X43.3562 Y10.1296
G01 X43.3610 Y10.1266
G01 X43.3655 Y10.1232
G01 X43.3706 Y10.1182
G01 X43.4182 Y10.0633
G01 X43.4224 Y10.0576
G01 X43.4258 Y10.0514
G01 X43.4288 Y10.0434
G01 X43.4304 Y10.0365
G01 X43.4408 Y9.9646
G01 X43.4411 Y9.9547
G01 X43.4405 Y9.9490
G01 X43.4393 Y9.9435
G01 X43.4360 Y9.9342
G01 X43.4070 Y9.8706
G01 X43.4037 Y9.8645
G01 X43.3998 Y9.8588
G01 X43.3931 Y9.8517
G01 X43.3600 Y9.8238
G01 X43.3173 Y9.7973
G01 X43.2027 Y9.6827
G01 X43.1177 Y9.5449
G01 X43.0666 Y9.3907
G01 X43.0570 Y9.2971
G01 X43.0570 Y9.0072
G01 X43.4430 Y9.0072
G01 X43.4430 Y9.2500
G01 X43.4443 Y9.2787
G01 X43.4484 Y9.3071
G01 X43.4495 Y9.3126
G01 X43.4562 Y9.3391
G01 X43.4669 Y9.3688
G01 X43.4806 Y9.3972
G01 X43.4947 Y9.4206
G01 X43.5109 Y9.4426
G01 X43.5329 Y9.4671
G01 X43.5552 Y9.4874
G01 X43.5794 Y9.5053
G01 X43.6078 Y9.5221
G01 X43.6325 Y9.5337
G01 X43.6582 Y9.5430
G01 X43.6887 Y9.5509
G01 X43.7199 Y9.5556
G01 X43.7500 Y9.5570
G01 X45.4226 Y9.5570
G01 X45.8085 Y9.9430
G01 X45.7374 Y9.9430
G01 X45.7280 Y9.9440
G01 X45.6530 Y9.9658
G01 X45.6439 Y9.9699
G01 X45.6357 Y9.9754
G01 X45.6286 Y9.9823
G01 X45.5819 Y10.0362
G01 X45.5770 Y10.0431
G01 X45.5738 Y10.0494
G01 X45.5713 Y10.0561
G01 X45.5697 Y10.0630
G01 X45.5596 Y10.1335
G01 X45.5590 Y10.1420
G01 X45.5597 Y10.1505
G01 X45.5612 Y10.1574
G01 X45.5636 Y10.1641
G01 X45.5932 Y10.2289
G01 X45.5972 Y10.2362
G01 X45.6022 Y10.2428
G01 X45.6081 Y10.2487
G01 X45.6401 Y10.2757
G01 X45.6830 Y10.3023
G01 X45.7977 Y10.4170
G01 X45.8828 Y10.5549
G01 X45.9339 Y10.7092
G01 X45.9435 Y10.8029
G01 X45.9434 Y11.3971
G01 X45.9339 Y11.4908
G01 X45.8828 Y11.6451
G01 X45.7977 Y11.7830
G01 X45.6830 Y11.8977
G01 X45.6043 Y11.9462
G01 X45.5988 Y11.9501
G01 X45.5919 Y11.9566
G01 X45.5442 Y12.0096
G01 X45.5407 Y12.0141
G01 X45.5371 Y12.0201
G01 X45.5342 Y12.0266
G01 X45.5321 Y12.0334
G01 X45.5200 Y12.1065
G01 X45.5193 Y12.1164
G01 X45.5196 Y12.1220
G01 X45.5206 Y12.1276
G01 X45.5220 Y12.1331
G01 X45.5240 Y12.1384
G01 X45.5530 Y12.2051
G01 X45.5574 Y12.2124
G01 X45.5627 Y12.2189
G01 X45.5969 Y12.2489
G01 X45.6021 Y12.2530
G01 X45.6827 Y12.3027
G01 X45.7973 Y12.4173
G01 X45.8823 Y12.5552
G01 X45.9334 Y12.7093
G01 X45.9419 Y12.7928
G01 X45.5516 Y12.7928
G01 X45.5438 Y12.7609
G01 X45.5347 Y12.7351
G01 X45.5325 Y12.7299
G01 X45.5194 Y12.7028
G01 X45.5053 Y12.6794
G01 X45.4874 Y12.6552
G01 X45.4671 Y12.6329
G01 X45.4448 Y12.6126
G01 X45.4206 Y12.5947
G01 X45.3972 Y12.5806
G01 X45.3922 Y12.5779
G01 X45.3649 Y12.5653
G01 X45.3391 Y12.5562
G01 X45.3099 Y12.5488
G01 X45.2801 Y12.5444
G01 X45.2528 Y12.5430
G01 X40.2500 Y12.5430
G01 X40.2199 Y12.5444
G01 X40.1929 Y12.5484
G01 X40.1874 Y12.5495
G01 X40.1582 Y12.5570
G01 X40.1325 Y12.5663
G01 X40.1053 Y12.5792
G01 X40.0794 Y12.5947
G01 X40.0552 Y12.6126
G01 X40.0329 Y12.6329
G01 X40.0126 Y12.6552
G01 X39.9947 Y12.6794
G01 X39.9806 Y12.7028
G01 X39.9779 Y12.7078
G01 X39.9653 Y12.7351
G01 X39.9562 Y12.7609
G01 X39.9484 Y12.7928
G01 X39.5581 Y12.7928
G01 X39.5666 Y12.7093
G01 X39.6177 Y12.5552
G01 X39.7027 Y12.4173
G01 X39.8173 Y12.3027
G01 X39.8957 Y12.2544
G01 X39.9012 Y12.2505
G01 X39.9072 Y12.2450
G01 X39.9275 Y12.2225
G01 X39.9483 Y12.2023
G01 X39.9530 Y12.1971
G01 X39.9564 Y12.1925
G01 X39.9592 Y12.1876
G01 X39.9642 Y12.1779
G01 X39.9672 Y12.1700
G01 X39.9688 Y12.1630
G01 X39.9734 Y12.1345
G01 X39.9810 Y12.1007
G01 X39.9815 Y12.0922
G01 X39.9804 Y12.0786
G01 X39.9791 Y12.0716
G01 X39.9771 Y12.0648
G01 X39.9645 Y12.0356
G01 X39.9547 Y12.0084
G01 X39.9521 Y12.0021
G01 X39.9471 Y11.9939
G01 X39.9401 Y11.9849
G01 X39.9364 Y11.9807
G01 X39.9149 Y11.9600
G01 X39.9037 Y11.9513
G01 X39.8170 Y11.8977
G01 X39.7591 Y11.8399
G01 X39.7463 Y11.8296
G01 X39.7417 Y11.8267
G01 X39.7368 Y11.8243
G01 X39.7123 Y11.8146
G01 X39.6877 Y11.8014
G01 X39.6785 Y11.7981
G01 X39.6555 Y11.7944
G01 X39.6378 Y11.7935
G01 X36.0317 Y11.7935
G01 X35.8977 Y11.7668
G01 X35.7607 Y11.7100
G01 X35.7527 Y11.7074
G01 X35.7426 Y11.7058
G01 X35.7000 Y11.6952
G01 X35.6931 Y11.6939
G01 X35.6862 Y11.6935
G01 X35.6279 Y11.6935
G01 X35.5777 Y11.6434
G01 X35.5574 Y11.6251
G01 X35.5320 Y11.6063
G01 X35.5073 Y11.5916
G01 X35.4801 Y11.5787
G01 X35.4517 Y11.5686
G01 X35.4224 Y11.5612
G01 X35.3926 Y11.5568
G01 X35.3625 Y11.5553
G01 X34.7772 Y11.5553
G01 X34.7761 Y11.5497
G01 X34.7693 Y11.5235
G01 X34.7611 Y11.5007
G01 X34.7495 Y11.4762
G01 X34.7356 Y11.4530
G01 X34.7212 Y11.4335
G01 X34.7013 Y11.4112
G01 X34.6812 Y11.3931
G01 X34.6618 Y11.3785
G01 X34.6363 Y11.3630
G01 X34.6092 Y11.3504
G01 X34.5863 Y11.3423
G01 X34.5614 Y11.3360
G01 X34.5333 Y11.3318
G01 X34.5062 Y11.3305
G01 X34.0673 Y11.3305
G01 X34.0417 Y11.3318
G01 X34.0149 Y11.3357
G01 X33.9887 Y11.3423
G01 X33.9632 Y11.3514
G01 X33.9363 Y11.3644
G01 X33.9155 Y11.3769
G01 X33.8938 Y11.3931
G01 X33.8718 Y11.4133
G01 X33.8556 Y11.4313
G01 X33.8394 Y11.4530
G01 X33.8243 Y11.4787
G01 X33.8139 Y11.5007
G01 X33.8048 Y11.5262
G01 X33.7978 Y11.5552
G01 X33.7943 Y11.5792
G01 X33.7930 Y11.6035
G01 X33.7930 Y12.1187
G01 X33.7943 Y12.1458
G01 X33.7980 Y12.1712
G01 X33.8048 Y12.1988
G01 X33.8139 Y12.2243
G01 X33.8255 Y12.2488
G01 X33.8394 Y12.2720
G01 X33.8556 Y12.2937
G01 X33.8737 Y12.3138
G01 X33.8938 Y12.3319
G01 X33.9155 Y12.3481
G01 X33.9412 Y12.3632
G01 X33.9632 Y12.3736
G01 X33.9860 Y12.3818
G01 X34.0149 Y12.3893
G01 X34.0431 Y12.3933
G01 X34.0688 Y12.3945
G01 X34.5062 Y12.3945
G01 X34.5361 Y12.3929
G01 X34.5601 Y12.3893
G01 X34.5863 Y12.3827
G01 X34.6118 Y12.3736
G01 X34.6338 Y12.3632
G01 X34.6387 Y12.3606
G01 X34.6618 Y12.3465
G01 X34.6812 Y12.3319
G01 X34.6992 Y12.3157
G01 X34.7032 Y12.3117
G01 X34.7212 Y12.2915
G01 X34.7356 Y12.2720
G01 X34.7495 Y12.2488
G01 X34.7611 Y12.2243
G01 X34.7693 Y12.2015
G01 X34.7761 Y12.1753
G01 X34.7772 Y12.1697
G01 X35.1673 Y12.1697
G01 X35.1588 Y12.2531
G01 X35.1100 Y12.4003
G01 X35.0288 Y12.5320
G01 X34.9195 Y12.6413
G01 X34.8067 Y12.7112
G01 X34.7996 Y12.7175
G01 X34.7511 Y12.7715
G01 X34.7468 Y12.7772
G01 X34.7439 Y12.7821
G01 X34.7410 Y12.7885
G01 X34.7389 Y12.7953
G01 X34.7269 Y12.8684
G01 X34.7261 Y12.8783
G01 X34.7265 Y12.8839
G01 X34.7274 Y12.8895
G01 X34.7289 Y12.8950
G01 X34.7309 Y12.9003
G01 X34.7599 Y12.9670
G01 X34.7642 Y12.9743
G01 X34.7696 Y12.9809
G01 X34.8038 Y13.0109
G01 X34.8090 Y13.0149
G01 X34.9198 Y13.0833
G01 X35.0292 Y13.1927
G01 X35.1105 Y13.3245
G01 X35.1593 Y13.4718
G01 X35.1685 Y13.5612
G01 X35.1685 Y14.1638
G01 X35.1640 Y14.2071
G01 X35.1638 Y14.2152
G01 X35.1647 Y14.2233
G01 X35.1780 Y14.2948
G01 X35.1801 Y14.3016
G01 X35.1824 Y14.3068
G01 X35.1851 Y14.3117
G01 X35.1883 Y14.3164
G01 X35.1920 Y14.3207
G01 X35.2409 Y14.3726
G01 X35.2462 Y14.3773
G01 X35.2521 Y14.3814
G01 X35.2584 Y14.3847
G01 X35.2665 Y14.3875
G01 X35.3305 Y14.4049
G01 X35.3359 Y14.4060
G01 X35.3428 Y14.4065
G01 X39.6378 Y14.4065
G01 X39.6432 Y14.4063
G01 X39.6499 Y14.4052
G01 X39.6705 Y14.3994
G01 X39.6892 Y14.3977
G01 X39.6947 Y14.3968
G01 X39.7015 Y14.3949
G01 X39.7067 Y14.3928
G01 X39.7117 Y14.3903
G01 X39.7202 Y14.3847
G01 X39.7250 Y14.3832
G01 X39.7303 Y14.3809
G01 X39.7365 Y14.3772
G01 X39.7465 Y14.3703
G01 X39.7591 Y14.3601
G01 X39.8170 Y14.3023
G01 X39.9025 Y14.2496
G01 X39.9134 Y14.2413
G01 X39.9192 Y14.2356
G01 X39.9377 Y14.2105
G01 X39.9558 Y14.1904
G01 X39.9593 Y14.1859
G01 X39.9642 Y14.1773
G01 X39.9673 Y14.1691
G01 X39.9710 Y14.1611
G01 X39.9727 Y14.1557
G01 X39.9740 Y14.1487
G01 X39.9758 Y14.1189
G01 X39.9804 Y14.0907
G01 X39.9807 Y14.0836
G01 X39.9802 Y14.0766
G01 X39.9783 Y14.0680
G01 X39.9768 Y14.0579
G01 X39.9751 Y14.0524
G01 X39.9724 Y14.0459
G01 X39.9584 Y14.0211
G01 X39.9476 Y13.9962
G01 X39.9449 Y13.9912
G01 X39.9392 Y13.9832
G01 X39.9329 Y13.9769
G01 X39.9282 Y13.9713
G01 X39.9230 Y13.9665
G01 X39.9184 Y13.9631
G01 X39.9139 Y13.9604
G01 X39.9021 Y13.9502
G01 X39.8979 Y13.9470
G01 X39.8173 Y13.8973
G01 X39.7027 Y13.7827
G01 X39.6177 Y13.6449
G01 X39.5666 Y13.4907
G01 X39.5581 Y13.4072
G01 X39.9484 Y13.4072
G01 X39.9562 Y13.4391
G01 X39.9653 Y13.4649
G01 X39.9675 Y13.4701
G01 X39.9806 Y13.4972
G01 X39.9947 Y13.5206
G01 X40.0126 Y13.5448
G01 X40.0329 Y13.5671
G01 X40.0552 Y13.5874
G01 X40.0794 Y13.6053
G01 X40.1028 Y13.6194
G01 X40.1078 Y13.6221
G01 X40.1351 Y13.6347
G01 X40.1609 Y13.6438
G01 X40.1901 Y13.6512
G01 X40.2199 Y13.6556
G01 X40.2472 Y13.6570
G01 X45.2500 Y13.6570
G01 X45.2801 Y13.6556
G01 X45.3071 Y13.6516
G01 X45.3126 Y13.6505
G01 X45.3418 Y13.6430
G01 X45.3675 Y13.6337
G01 X45.3947 Y13.6208
G01 X45.4206 Y13.6053
G01 X45.4448 Y13.5874
G01 X45.4671 Y13.5671
G01 X45.4874 Y13.5448
G01 X45.5053 Y13.5206
G01 X45.5194 Y13.4972
G01 X45.5221 Y13.4922
G01 X45.5347 Y13.4649
G01 X45.5438 Y13.4391
G01 X45.5516 Y13.4072
G01 X45.9419 Y13.4072
G01 X45.9334 Y13.4907
G01 X45.8823 Y13.6448
G01 X45.7973 Y13.7827
G01 X45.6827 Y13.8973
G01 X45.6043 Y13.9456
G01 X45.5988 Y13.9495
G01 X45.5919 Y13.9560
G01 X45.5424 Y14.0112
G01 X45.5384 Y14.0171
G01 X45.5358 Y14.0221
G01 X45.5337 Y14.0274
G01 X45.5321 Y14.0328
G01 X45.5198 Y14.1073
G01 X45.5193 Y14.1144
G01 X45.5196 Y14.1214
G01 X45.5209 Y14.1284
G01 X45.5229 Y14.1352
G01 X45.5524 Y14.2032
G01 X45.5558 Y14.2094
G01 X45.5599 Y14.2152
G01 X45.5668 Y14.2223
G01 X45.6010 Y14.2516
G01 X45.6830 Y14.3023
G01 X45.7977 Y14.4170
G01 X45.8828 Y14.5549
G01 X45.9339 Y14.7092
G01 X45.9435 Y14.8029
G01 X45.9434 Y15.3971
G01 X45.9339 Y15.4908
G01 X45.8828 Y15.6451
G01 X45.7977 Y15.7830
G01 X45.6830 Y15.8977
G01 X45.6426 Y15.9226
G01 X45.6382 Y15.9258
G01 X45.6341 Y15.9294
G01 X45.5845 Y15.9843
G01 X45.5786 Y15.9922
G01 X45.5758 Y15.9971
G01 X45.5735 Y16.0023
G01 X45.5718 Y16.0077
G01 X45.5706 Y16.0132
G01 X45.5590 Y16.0850
G01 X45.5587 Y16.0935
G01 X45.5599 Y16.1033
G01 X45.5628 Y16.1128
G01 X45.5918 Y16.1795
G01 X45.5960 Y16.1869
G01 X45.6002 Y16.1926
G01 X45.6051 Y16.1976
G01 X45.6107 Y16.2021
G01 X45.6699 Y16.2417
G01 X45.6784 Y16.2464
G01 X45.6876 Y16.2496
G01 X45.7301 Y16.2564
G01 X45.7388 Y16.2571
G01 X46.2971 Y16.2571
G01 X46.3907 Y16.2666
G01 X46.5448 Y16.3177
G01 X46.6827 Y16.4027
G01 X46.6928 Y16.4128
G01 X46.6928 Y16.8728
G01 X46.5570 Y17.0085
G01 X46.5570 Y16.9486
G01 X46.5556 Y16.9199
G01 X46.5512 Y16.8901
G01 X46.5442 Y16.8622
G01 X46.5337 Y16.8325
G01 X46.5208 Y16.8053
G01 X46.5053 Y16.7794
G01 X46.4882 Y16.7563
G01 X46.4671 Y16.7329
G01 X46.4448 Y16.7126
G01 X46.4206 Y16.6947
G01 X46.3947 Y16.6792
G01 X46.3675 Y16.6663
G01 X46.3391 Y16.6562
G01 X46.3099 Y16.6488
G01 X46.2787 Y16.6443
G01 X46.2500 Y16.6430
G01 X43.7500 Y16.6430
G01 X43.7199 Y16.6444
G01 X43.6874 Y16.6495
G01 X43.6609 Y16.6562
G01 X43.6351 Y16.6653
G01 X43.6053 Y16.6792
G01 X43.5794 Y16.6947
G01 X43.5531 Y16.7145
G01 X43.5329 Y16.7329
G01 X43.5145 Y16.7531
G01 X43.4947 Y16.7794
G01 X43.4786 Y16.8065
G01 X43.4663 Y16.8325
G01 X43.4562 Y16.8609
G01 X43.4488 Y16.8901
G01 X43.4444 Y16.9199
G01 X43.4430 Y16.9500
G01 X43.4430 Y17.1928
G01 X43.0571 Y17.1928
G01 X43.0571 Y16.9029
G01 X43.0666 Y16.8093
G01 X43.1177 Y16.6552
G01 X43.2027 Y16.5173
G01 X43.3173 Y16.4027
G01 X43.3576 Y16.3779
G01 X43.3630 Y16.3738
G01 X43.3670 Y16.3702
G01 X43.4183 Y16.3130
G01 X43.4223 Y16.3071
G01 X43.4249 Y16.3021
G01 X43.4275 Y16.2955
G01 X43.4290 Y16.2900
G01 X43.4409 Y16.2169
G01 X43.4415 Y16.2098
G01 X43.4411 Y16.2028
G01 X43.4399 Y16.1958
G01 X43.4373 Y16.1877
G01 X43.4077 Y16.1197
G01 X43.4042 Y16.1136
G01 X43.3999 Y16.1079
G01 X43.3950 Y16.1029
G01 X43.3895 Y16.0984
G01 X43.3279 Y16.0573
G01 X43.3192 Y16.0530
G01 X43.3112 Y16.0506
G01 X43.2700 Y16.0441
G01 X43.2614 Y16.0435
G01 X40.2029 Y16.0435
G01 X40.1092 Y16.0339
G01 X39.9549 Y15.9828
G01 X39.8170 Y15.8977
G01 X39.7648 Y15.8455
G01 X39.7607 Y15.8420
G01 X39.7551 Y15.8381
G01 X39.6915 Y15.8033
G01 X39.6851 Y15.8003
G01 X39.6798 Y15.7985
G01 X39.6730 Y15.7970
G01 X39.6393 Y15.7935
G01 X34.6067 Y15.7935
G01 X34.4727 Y15.7668
G01 X34.4015 Y15.7373
G01 X34.3924 Y15.7344
G01 X34.3857 Y15.7333
G01 X34.3163 Y15.7258
G01 X34.3092 Y15.7255
G01 X34.3035 Y15.7259
G01 X34.2979 Y15.7268
G01 X34.2911 Y15.7287
G01 X34.2859 Y15.7309
G01 X34.2209 Y15.7634
G01 X34.2136 Y15.7681
G01 X34.2081 Y15.7727
G01 X32.9421 Y17.0386
G01 X32.8285 Y17.1145
G01 X32.7023 Y17.1668
G01 X32.5683 Y17.1935
G01 X27.9317 Y17.1935
G01 X27.7977 Y17.1668
G01 X27.6715 Y17.1145
G01 X27.5580 Y17.0386
G01 X26.2658 Y15.7465
G01 X26.2607 Y15.7420
G01 X26.2540 Y15.7374
G01 X26.1915 Y15.7033
G01 X26.1851 Y15.7003
G01 X26.1798 Y15.6985
G01 X26.1730 Y15.6970
G01 X26.1408 Y15.6935
G01 X25.2888 Y15.6935
G01 X25.2820 Y15.6940
G01 X25.2754 Y15.6954
G01 X25.2044 Y15.7163
G01 X25.1966 Y15.7197
G01 X25.1905 Y15.7234
G01 X25.1850 Y15.7278
G01 X25.1800 Y15.7328
G01 X25.1333 Y15.7867
G01 X25.1284 Y15.7936
G01 X25.1246 Y15.8012
G01 X25.1223 Y15.8079
G01 X25.1209 Y15.8149
G01 X25.1108 Y15.8854
G01 X25.1104 Y15.8909
G01 X25.1105 Y15.8963
G01 X25.1117 Y15.9045
G01 X25.1141 Y15.9123
G01 X25.1370 Y15.9688
G01 X25.1400 Y15.9751
G01 X25.1437 Y15.9809
G01 X25.2345 Y16.1060
G01 X25.3377 Y16.3084
G01 X25.4079 Y16.5245
G01 X25.4435 Y16.7489
G01 X25.4435 Y16.9761
G01 X25.4079 Y17.2005
G01 X25.3377 Y17.4166
G01 X25.2345 Y17.6190
G01 X25.1010 Y17.8028
G01 X24.9403 Y17.9635
G01 X24.7565 Y18.0970
G01 X24.5686 Y18.1928
G01 X23.4314 Y18.1928
G01 X23.2435 Y18.0970
G01 X23.0597 Y17.9635
G01 X22.8990 Y17.8028
G01 X22.7738 Y17.6306
G01 X22.7704 Y17.6263
G01 X22.7667 Y17.6225
G01 X22.7072 Y17.5763
G01 X22.7025 Y17.5730
G01 X22.6976 Y17.5703
G01 X22.6911 Y17.5676
G01 X22.6843 Y17.5657
G01 X22.6379 Y17.5569
G01 X22.6313 Y17.5561
G01 X16.4317 Y17.5560
G01 X16.2977 Y17.5293
G01 X16.1715 Y17.4770
G01 X16.0580 Y17.4011
G01 X10.7658 Y12.1090
G01 X10.7607 Y12.1045
G01 X10.7551 Y12.1006
G01 X10.7277 Y12.0855
G01 X10.7011 Y12.0685
G01 X10.6960 Y12.0659
G01 X10.6892 Y12.0634
G01 X10.6730 Y12.0595
G01 X10.6423 Y12.0561
G01 X10.6068 Y12.0562
G01 X10.6014 Y12.0570
G01 X10.5962 Y12.0583
G01 X10.5251 Y12.0793
G01 X10.5175 Y12.0828
G01 X10.5116 Y12.0866
G01 X10.4864 Y12.1069
G01 X10.4330 Y12.1602
G01 X10.2951 Y12.2453
G01 X10.1408 Y12.2964
G01 X10.0471 Y12.3060
G01 X6.9886 Y12.3060
G01 X6.9805 Y12.3065
G01 X6.9739 Y12.3079
G01 X6.9055 Y12.3279
G01 X6.9002 Y12.3298
G01 X6.8938 Y12.3329
G01 X6.8890 Y12.3359
G01 X6.8845 Y12.3393
G01 X6.8794 Y12.3443
G01 X6.8318 Y12.3992
G01 X6.8276 Y12.4049
G01 X6.8242 Y12.4111
G01 X6.8212 Y12.4191
G01 X6.8196 Y12.4260
G01 X6.8092 Y12.4979
G01 X6.8089 Y12.5078
G01 X6.8095 Y12.5135
G01 X6.8107 Y12.5190
G01 X6.8140 Y12.5283
G01 X6.8430 Y12.5919
G01 X6.8463 Y12.5980
G01 X6.8502 Y12.6037
G01 X6.8569 Y12.6108
G01 X6.8900 Y12.6387
G01 X6.9327 Y12.6652
G01 X7.0473 Y12.7798
G01 X7.1323 Y12.9177
G01 X7.1834 Y13.0718
G01 X7.1929 Y13.1654
G01 X7.1929 Y13.4553
G01 X6.8070 Y13.4553
G01 X6.8070 Y13.2125
G01 X6.8057 Y13.1838
G01 X6.8016 Y13.1554
G01 X6.8005 Y13.1499
G01 X6.7938 Y13.1234
G01 X6.7831 Y13.0937
G01 X6.7694 Y13.0653
G01 X6.7553 Y13.0419
G01 X6.7391 Y13.0199
G01 X6.7171 Y12.9954
G01 X6.6948 Y12.9751
G01 X6.6682 Y12.9557
G01 X6.6447 Y12.9417
G01 X6.6201 Y12.9300
G01 X6.5891 Y12.9187
G01 X6.5585 Y12.9111
G01 X6.5301 Y12.9069
G01 X6.5000 Y12.9055
G01 X4.0000 Y12.9055
G01 X3.9671 Y12.9073
G01 X3.9401 Y12.9113
G01 X3.9136 Y12.9179
G01 X3.8825 Y12.9288
G01 X3.8528 Y12.9431
G01 X3.8294 Y12.9572
G01 X3.8074 Y12.9734
G01 X3.7829 Y12.9954
G01 X3.7609 Y13.0199
G01 X3.7447 Y13.0419
G01 X3.7299 Y13.0665
G01 X3.7163 Y13.0950
G01 X3.7062 Y13.1234
G01 X3.6988 Y13.1526
G01 X3.6944 Y13.1824
G01 X3.6930 Y13.2125
G01 X3.6930 Y13.4553
G01 X3.3897 Y13.4553
G01 X3.3071 Y13.3726
G01 X3.3071 Y13.1654
G01 X3.3166 Y13.0718
G01 X3.3677 Y12.9177
G01 X3.4527 Y12.7798
G01 X3.5673 Y12.6652
G01 X3.7051 Y12.5802
G01 X3.8593 Y12.5291
G01 X3.9529 Y12.5196
G01 X4.5112 Y12.5196
G01 X4.5180 Y12.5191
G01 X4.5247 Y12.5179
G01 X4.5957 Y12.4971
G01 X4.6036 Y12.4940
G01 X4.6120 Y12.4888
G01 X4.6164 Y12.4852
G01 X4.6204 Y12.4812
G01 X4.6689 Y12.4252
G01 X4.6730 Y12.4194
G01 X4.6756 Y12.4144
G01 X4.6778 Y12.4091
G01 X4.6794 Y12.4037
G01 X4.6805 Y12.3981
G01 X4.6906 Y12.3276
G01 X4.6910 Y12.3205
G01 X4.6905 Y12.3134
G01 X4.6892 Y12.3065
G01 X4.6864 Y12.2985
G01 X4.6550 Y12.2299
G01 X4.6505 Y12.2229
G01 X4.6450 Y12.2166
G01 X4.6122 Y12.1886
G01 X4.6063 Y12.1844
G01 X4.5670 Y12.1602
G01 X4.4523 Y12.0455
G01 X4.3672 Y11.9076
G01 X4.3161 Y11.7533
G01 X4.3065 Y11.6596
G01 X4.3065 Y11.0654
G01 X4.3161 Y10.9717
G01 X4.3672 Y10.8174
G01 X4.4523 Y10.6795
G01 X4.5670 Y10.5648
G01 X4.6457 Y10.5163
G01 X4.6512 Y10.5124
G01 X4.6581 Y10.5059
G01 X4.7076 Y10.4507
G01 X4.7108 Y10.4460
G01 X4.7142 Y10.4398
G01 X4.7168 Y10.4332
G01 X4.7182 Y10.4277
G01 X4.7302 Y10.3546
G01 X4.7307 Y10.3475
G01 X4.7302 Y10.3391
G01 X4.7288 Y10.3321
G01 X4.7265 Y10.3254
G01 X4.6981 Y10.2600
G01 X4.6934 Y10.2513
G01 X4.6873 Y10.2436
G01 X4.6531 Y10.2136
G01 X4.6479 Y10.2095
G01 X4.5673 Y10.1598
G01 X4.4527 Y10.0452
G01 X4.3677 Y9.9074
G01 X4.3166 Y9.7532
G01 X4.3081 Y9.6697
G01 X4.6984 Y9.6697
G01 X4.7062 Y9.7016
G01 X4.7153 Y9.7274
G01 X4.7175 Y9.7326
G01 X4.7306 Y9.7597
G01 X4.7447 Y9.7831
G01 X4.7626 Y9.8073
G01 X4.7829 Y9.8296
G01 X4.8052 Y9.8499
G01 X4.8294 Y9.8678
G01 X4.8528 Y9.8819
G01 X4.8578 Y9.8846
G01 X4.8851 Y9.8972
G01 X4.9109 Y9.9063
G01 X4.9401 Y9.9137
G01 X4.9699 Y9.9181
G01 X4.9972 Y9.9195
G01 X10.0000 Y9.9195
G01 X10.0301 Y9.9181
G01 X10.0571 Y9.9141
G01 X10.0626 Y9.9130
G01 X10.0918 Y9.9055
G01 X10.1175 Y9.8962
G01 X10.1447 Y9.8833
G01 X10.1706 Y9.8678
G01 X10.1948 Y9.8499
G01 X10.2171 Y9.8296
G01 X10.2374 Y9.8073
G01 X10.2553 Y9.7831
G01 X10.2694 Y9.7597
G01 X10.2721 Y9.7547
G01 X10.2847 Y9.7274
G01 X10.2938 Y9.7016
G01 X10.3016 Y9.6697
G01 X10.6919 Y9.6697
G01 X10.6834 Y9.7532
G01 X10.6323 Y9.9073
G01 X10.5473 Y10.0452
G01 X10.4327 Y10.1598
G01 X10.3543 Y10.2081
G01 X10.3499 Y10.2112
G01 X10.3457 Y10.2147
G01 X10.3225 Y10.2400
G01 X10.2979 Y10.2643
G01 X10.2929 Y10.2712
G01 X10.2864 Y10.2833
G01 X10.2837 Y10.2899
G01 X10.2815 Y10.2981
G01 X10.2766 Y10.3280
G01 X10.2694 Y10.3590
G01 X10.2686 Y10.3660
G01 X10.2687 Y10.3731
G01 X10.2700 Y10.3868
G01 X10.2725 Y10.3964
G01 X10.2855 Y10.4269
G01 X10.2953 Y10.4541
G01 X10.2979 Y10.4604
G01 X10.3029 Y10.4686
G01 X10.3117 Y10.4797
G01 X10.3375 Y10.5045
G01 X10.3488 Y10.5129
G01 X10.4330 Y10.5648
G01 X10.4909 Y10.6226
G01 X10.5026 Y10.6321
G01 X10.5072 Y10.6351
G01 X10.5119 Y10.6377
G01 X10.5377 Y10.6479
G01 X10.5610 Y10.6605
G01 X10.5662 Y10.6627
G01 X10.5715 Y10.6644
G01 X10.5945 Y10.6681
G01 X10.6122 Y10.6690
G01 X11.0683 Y10.6690
G01 X11.1961 Y10.6945
G01 X11.2015 Y10.6953
G01 X11.2069 Y10.6956
G01 X11.2833 Y10.6890
G01 X11.2903 Y10.6877
G01 X11.2971 Y10.6856
G01 X11.3035 Y10.6827
G01 X11.3107 Y10.6782
G01 X11.3692 Y10.6327
G01 X11.3752 Y10.6267
G01 X11.3795 Y10.6211
G01 X11.3831 Y10.6149
G01 X11.3858 Y10.6084
G01 X11.4103 Y10.5385
G01 X11.4115 Y10.5329
G01 X11.4122 Y10.5273
G01 X11.4123 Y10.5216
G01 X11.4118 Y10.5160
G01 X11.4108 Y10.5104
G01 X11.3944 Y10.4411
G01 X11.3922 Y10.4345
G01 X11.3893 Y10.4282
G01 X11.3779 Y10.4105
G01 X11.2659 Y10.2563
G01 X11.1628 Y10.0539
G01 X11.0926 Y9.8379
G01 X11.0659 Y9.6697
G01 X11.4578 Y9.6697
G01 X11.4636 Y9.7076
G01 X11.4881 Y9.8055
G01 X11.5229 Y9.9032
G01 X11.5678 Y9.9983
G01 X11.6219 Y10.0884
G01 X11.6812 Y10.1684
G01 X11.6847 Y10.1727
G01 X11.7526 Y10.2474
G01 X11.8273 Y10.3153
G01 X11.8316 Y10.3188
G01 X11.9127 Y10.3789
G01 X12.0030 Y10.4329
G01 X12.0929 Y10.4755
G01 X12.0981 Y10.4776
G01 X12.1932 Y10.5115
G01 X12.2910 Y10.5361
G01 X12.2965 Y10.5372
G01 X12.3964 Y10.5520
G01 X12.5000 Y10.5570
G01 X12.6036 Y10.5520
G01 X12.7035 Y10.5372
G01 X12.7090 Y10.5361
G01 X12.8068 Y10.5115
G01 X12.9019 Y10.4776
G01 X12.9071 Y10.4755
G01 X12.9981 Y10.4323
G01 X13.2815 Y10.7158
G01 X13.2563 Y10.7341
G01 X13.0539 Y10.8372
G01 X12.8379 Y10.9074
G01 X12.6136 Y10.9430
G01 X12.3864 Y10.9430
G01 X12.1621 Y10.9074
G01 X11.9372 Y10.8343
G01 X11.9318 Y10.8329
G01 X11.9263 Y10.8319
G01 X11.9207 Y10.8316
G01 X11.9102 Y10.8323
G01 X11.8615 Y10.8272
G01 X11.8544 Y10.8273
G01 X11.8460 Y10.8285
G01 X11.8392 Y10.8304
G01 X11.8327 Y10.8332
G01 X11.7690 Y10.8652
G01 X11.7630 Y10.8689
G01 X11.7585 Y10.8724
G01 X11.7525 Y10.8784
G01 X11.7475 Y10.8852
G01 X11.7104 Y10.9478
G01 X11.7074 Y10.9542
G01 X11.7048 Y10.9623
G01 X11.7035 Y10.9692
G01 X11.7032 Y10.9763
G01 X11.7060 Y11.0503
G01 X11.7067 Y11.0559
G01 X11.7080 Y11.0614
G01 X11.7116 Y11.0705
G01 X11.7143 Y11.0755
G01 X11.7450 Y11.1251
G01 X11.7485 Y11.1298
G01 X11.7524 Y11.1342
G01 X16.7342 Y16.1160
G01 X16.7393 Y16.1205
G01 X16.7460 Y16.1251
G01 X16.8085 Y16.1592
G01 X16.8175 Y16.1632
G01 X16.8229 Y16.1647
G01 X16.8284 Y16.1657
G01 X16.8561 Y16.1687
G01 X16.8622 Y16.1690
G01 X22.6274 Y16.1690
G01 X22.6407 Y16.1685
G01 X22.6478 Y16.1677
G01 X22.6547 Y16.1661
G01 X22.6842 Y16.1548
G01 X22.7158 Y16.1452
G01 X22.7210 Y16.1428
G01 X22.7258 Y16.1399
G01 X22.7409 Y16.1289
G01 X22.7686 Y16.1006
G01 X22.7730 Y16.0955
G01 X22.8586 Y15.9775
G01 X22.8612 Y15.9728
G01 X22.8634 Y15.9678
G01 X22.8874 Y15.9008
G01 X22.8893 Y15.8939
G01 X22.8905 Y15.8855
G01 X22.8906 Y15.8785
G01 X22.8895 Y15.8700
G01 X22.8730 Y15.7992
G01 X22.8713 Y15.7938
G01 X22.8685 Y15.7873
G01 X22.8649 Y15.7813
G01 X22.8605 Y15.7757
G01 X22.8075 Y15.7239
G01 X22.8034 Y15.7203
G01 X22.7989 Y15.7171
G01 X22.7917 Y15.7131
G01 X22.7827 Y15.7098
G01 X22.7222 Y15.6948
G01 X22.7167 Y15.6939
G01 X22.7112 Y15.6935
G01 X17.4317 Y15.6935
G01 X17.2977 Y15.6668
G01 X17.1715 Y15.6145
G01 X17.0580 Y15.5386
G01 X14.4614 Y12.9421
G01 X14.3855 Y12.8285
G01 X14.3332 Y12.7023
G01 X14.3065 Y12.5683
G01 X14.3065 Y10.9317
G01 X14.3332 Y10.7977
G01 X14.3855 Y10.6715
G01 X14.4614 Y10.5579
G01 X15.4610 Y9.5583
G01 X15.4654 Y9.5531
G01 X15.4691 Y9.5475
G01 X15.5046 Y9.4824
G01 X15.5068 Y9.4772
G01 X15.5088 Y9.4704
G01 X15.5099 Y9.4634
G01 X15.5102 Y9.4564
G01 X15.5050 Y9.3824
G01 X15.5039 Y9.3754
G01 X15.5023 Y9.3699
G01 X15.4997 Y9.3633
G01 X15.4962 Y9.3571
G01 X15.4669 Y9.3116
G01 X15.4610 Y9.3042
G01 X14.2648 Y8.1080
G01 X14.2596 Y8.1036
G01 X14.2540 Y8.0999
G01 X14.1915 Y8.0658
G01 X14.1838 Y8.0623
G01 X14.1771 Y8.0603
G01 X14.1716 Y8.0593
G01 X14.1439 Y8.0563
G01 X14.1378 Y8.0560
G01 X13.4890 Y8.0560
G01 X13.4822 Y8.0565
G01 X13.4755 Y8.0579
G01 X13.4072 Y8.0779
G01 X13.4005 Y8.0804
G01 X13.3942 Y8.0836
G01 X13.3895 Y8.0867
G01 X13.3851 Y8.0903
G01 X13.3811 Y8.0943
G01 X13.3335 Y8.1492
G01 X13.3294 Y8.1548
G01 X13.3266 Y8.1597
G01 X13.3239 Y8.1661
G01 X13.3216 Y8.1742
G01 X13.3105 Y8.2368
G01 X13.3097 Y8.2454
G01 X13.3102 Y8.2556
G01 X12.9981 Y8.5677
G01 X12.9071 Y8.5245
G01 X12.9019 Y8.5224
G01 X12.8068 Y8.4885
G01 X12.7090 Y8.4639
G01 X12.7035 Y8.4628
G01 X12.6036 Y8.4480
G01 X12.5000 Y8.4430
G01 X12.3964 Y8.4480
G01 X12.2965 Y8.4628
G01 X12.2910 Y8.4639
G01 X12.1932 Y8.4885
G01 X12.0981 Y8.5224
G01 X12.0929 Y8.5245
G01 X12.0019 Y8.5677
G01 X11.6898 Y8.2556
G01 X11.6903 Y8.2458
G01 X11.6896 Y8.2377
G01 X11.6741 Y8.1639
G01 X11.6719 Y8.1571
G01 X11.6689 Y8.1507
G01 X11.6651 Y8.1448
G01 X11.6605 Y8.1393
G01 X11.6095 Y8.0876
G01 X11.6042 Y8.0830
G01 X11.5984 Y8.0792
G01 X11.5921 Y8.0761
G01 X11.5855 Y8.0737
G01 X11.5212 Y8.0571
G01 X11.5155 Y8.0562
G01 X11.5097 Y8.0560
G01 X10.6122 Y8.0560
G01 X10.6055 Y8.0564
G01 X10.6001 Y8.0573
G01 X10.5795 Y8.0632
G01 X10.5594 Y8.0650
G01 X10.5512 Y8.0667
G01 X10.5459 Y8.0685
G01 X10.5408 Y8.0709
G01 X10.5298 Y8.0778
G01 X10.5237 Y8.0798
G01 X10.5184 Y8.0823
G01 X10.5135 Y8.0853
G01 X10.5025 Y8.0930
G01 X10.4909 Y8.1024
G01 X10.4330 Y8.1602
G01 X10.3475 Y8.2129
G01 X10.3366 Y8.2212
G01 X10.3308 Y8.2269
G01 X10.3123 Y8.2520
G01 X10.2942 Y8.2721
G01 X10.2907 Y8.2766
G01 X10.2858 Y8.2852
G01 X10.2827 Y8.2934
G01 X10.2790 Y8.3014
G01 X10.2770 Y8.3082
G01 X10.2760 Y8.3138
G01 X10.2741 Y8.3437
G01 X10.2696 Y8.3718
G01 X10.2693 Y8.3789
G01 X10.2698 Y8.3859
G01 X10.2717 Y8.3945
G01 X10.2732 Y8.4046
G01 X10.2749 Y8.4101
G01 X10.2776 Y8.4166
G01 X10.2916 Y8.4414
G01 X10.3024 Y8.4663
G01 X10.3051 Y8.4713
G01 X10.3108 Y8.4793
G01 X10.3171 Y8.4856
G01 X10.3218 Y8.4912
G01 X10.3270 Y8.4960
G01 X10.3316 Y8.4994
G01 X10.3361 Y8.5021
G01 X10.3479 Y8.5123
G01 X10.3521 Y8.5155
G01 X10.4327 Y8.5652
G01 X10.5473 Y8.6798
G01 X10.6323 Y8.8177
G01 X10.6834 Y8.9718
G01 X10.6919 Y9.0553
G01 X10.3016 Y9.0553
G01 X10.2938 Y9.0234
G01 X10.2847 Y8.9976
G01 X10.2825 Y8.9924
G01 X10.2694 Y8.9653
G01 X10.2553 Y8.9419
G01 X10.2374 Y8.9177
G01 X10.2171 Y8.8954
G01 X10.1948 Y8.8751
G01 X10.1706 Y8.8572
G01 X10.1472 Y8.8431
G01 X10.1422 Y8.8404
G01 X10.1149 Y8.8278
G01 X10.0891 Y8.8187
G01 X10.0599 Y8.8113
G01 X10.0301 Y8.8069
G01 X10.0028 Y8.8055
G01 X5.0000 Y8.8055
G01 X4.9699 Y8.8069
G01 X4.9429 Y8.8109
G01 X4.9374 Y8.8120
G01 X4.9082 Y8.8195
G01 X4.8825 Y8.8288
G01 X4.8553 Y8.8417
G01 X4.8294 Y8.8572
G01 X4.8052 Y8.8751
G01 X4.7829 Y8.8954
G01 X4.7626 Y8.9177
G01 X4.7447 Y8.9419
G01 X4.7306 Y8.9653
G01 X4.7279 Y8.9703
G01 X4.7153 Y8.9976
G01 X4.7062 Y9.0234
G01 X4.6984 Y9.0553
G01 X4.3081 Y9.0553
G01 X4.3166 Y8.9718
G01 X4.3677 Y8.8177
G01 X4.4527 Y8.6798
G01 X4.5673 Y8.5652
G01 X4.6457 Y8.5169
G01 X4.6512 Y8.5130
G01 X4.6581 Y8.5065
G01 X4.7076 Y8.4513
G01 X4.7116 Y8.4454
G01 X4.7142 Y8.4404
G01 X4.7163 Y8.4351
G01 X4.7179 Y8.4297
G01 X4.7302 Y8.3552
G01 X4.7307 Y8.3481
G01 X4.7304 Y8.3411
G01 X4.7291 Y8.3341
G01 X4.7271 Y8.3273
G01 X4.6976 Y8.2593
G01 X4.6942 Y8.2531
G01 X4.6901 Y8.2473
G01 X4.6832 Y8.2402
G01 X4.6490 Y8.2109
G01 X4.5670 Y8.1602
G01 X4.4523 Y8.0455
G01 X4.3672 Y7.9076
G01 X4.3161 Y7.7533
G01 X4.3065 Y7.6596
G01 X4.3065 Y7.0654
G01 X4.3161 Y6.9717
G01 X4.3672 Y6.8174
G01 X4.4523 Y6.6795
G01 X4.5670 Y6.5648
G01 X4.6074 Y6.5399
G01 X4.6118 Y6.5367
G01 X4.6159 Y6.5331
G01 X4.6655 Y6.4782
G01 X4.6690 Y6.4738
G01 X4.6722 Y6.4691
G01 X4.6765 Y6.4602
G01 X4.6788 Y6.4520
G01 X4.6906 Y6.3803
G01 X4.6912 Y6.3747
G01 X4.6913 Y6.3690
G01 X4.6908 Y6.3634
G01 X4.6894 Y6.3564
G01 X4.6866 Y6.3484
G01 X4.6582 Y6.2830
G01 X4.6540 Y6.2756
G01 X4.6488 Y6.2689
G01 X4.6438 Y6.2639
G01 X4.6393 Y6.2604
G01 X4.5789 Y6.2200
G01 X4.5703 Y6.2155
G01 X4.5624 Y6.2129
G01 X4.5199 Y6.2061
G01 X4.5112 Y6.2055
G01 X3.9529 Y6.2055
G01 X3.8593 Y6.1959
G01 X3.7052 Y6.1448
G01 X3.5673 Y6.0598
G01 X3.4527 Y5.9452
G01 X3.3677 Y5.8074
G01 X3.3166 Y5.6532
G01 X3.3070 Y5.5596
G01 X3.3070 Y5.2697
G00 Z2.0000
G00 X3.5048 Y5.5865
G01 F40.00
G01 Z-0.0400
G01 F90.00
G01 X3.5086 Y5.6102
G01 X3.5132 Y5.6296
G01 X3.5074 Y5.6123
G01 X3.5048 Y5.5865
G00 Z2.0000
G00 X3.5403 Y5.7115
G01 F40.00
G01 Z-0.0400
G01 F90.00
G01 X3.5421 Y5.7155
G01 X3.5525 Y5.7375
G01 X3.5447 Y5.7248
G01 X3.5403 Y5.7115
G00 Z2.0000
G00 X3.5972 Y5.8099
G01 F40.00
G01 Z-0.0400
G01 F90.00
G01 X3.6089 Y5.8255
G01 X3.6155 Y5.8337
G01 X3.6059 Y5.8241
G01 X3.5972 Y5.8099
G00 Z2.0000
G00 X3.6788 Y5.8970
G01 F40.00
G01 Z-0.0400
G01 F90.00
G01 X3.6870 Y5.9036
G01 X3.7026 Y5.9153
G01 X3.6884 Y5.9066
G01 X3.6788 Y5.8970
G00 Z2.0000
G00 X3.7750 Y5.9600
G01 F40.00
G01 Z-0.0400
G01 F90.00
G01 X3.7970 Y5.9704
G01 X3.8010 Y5.9722
G01 X3.7877 Y5.9678
G01 X3.7750 Y5.9600
G00 Z2.0000
G00 X3.8829 Y5.9993
G01 F40.00
G01 Z-0.0400
G01 F90.00
G01 X3.9023 Y6.0039
G01 X3.9260 Y6.0077
G01 X3.9002 Y6.0051
G01 X3.8829 Y5.9993
G00 Z2.0000
G00 X4.6204 Y6.7857
G01 F40.00
G01 Z-0.0400
G01 F90.00
G01 X4.6089 Y6.7995
G01 X4.5937 Y6.8198
G01 X4.6055 Y6.8006
G01 X4.6204 Y6.7857
G00 Z2.0000
G00 X4.5547 Y6.8829
G01 F40.00
G01 Z-0.0400
G01 F90.00
G01 X4.5421 Y6.9095
G01 X4.5381 Y6.9184
G01 X4.5442 Y6.9000
G01 X4.5547 Y6.8829
G00 Z2.0000
G00 X4.5148 Y6.9889
G01 F40.00
G01 Z-0.0400
G01 F90.00
G01 X4.5086 Y7.0148
G01 X4.5032 Y7.0494
G01 X4.5069 Y7.0126
G01 X4.5148 Y6.9889
G00 Z2.0000
G00 X4.7073 Y6.7062
G01 F40.00
G01 Z-0.0400
G01 F90.00
G01 X4.6870 Y6.7214
G01 X4.6732 Y6.7329
G01 X4.6881 Y6.7180
G01 X4.7073 Y6.7062
G00 Z2.0000
G00 X5.0000 Y6.6115
G01 F40.00
G01 Z-0.0400
G01 F90.00
G01 X4.9570 Y6.6134
G01 X4.9387 Y6.6154
G01 X4.9023 Y6.6211
G01 X4.8902 Y6.6238
G01 X4.8546 Y6.6331
G01 X4.8140 Y6.6473
G01 X4.7970 Y6.6546
G01 X4.7638 Y6.6706
G01 X4.7294 Y6.6909
G01 X4.7462 Y6.6769
G01 X4.7589 Y6.6643
G01 X4.8097 Y6.6080
G01 X4.8217 Y6.5936
G01 X4.8325 Y6.5784
G01 X4.8423 Y6.5624
G01 X4.8508 Y6.5458
G01 X4.8580 Y6.5285
G01 X4.8621 Y6.5167
G01 X4.8656 Y6.5048
G01 X4.8697 Y6.4866
G01 X4.8820 Y6.4114
G01 X4.8844 Y6.3929
G01 X4.8851 Y6.3805
G01 X4.8853 Y6.3680
G01 X4.8844 Y6.3493
G01 X4.8830 Y6.3369
G01 X4.8810 Y6.3246
G01 X4.8768 Y6.3064
G01 X4.8713 Y6.2885
G01 X4.8645 Y6.2711
G01 X4.8341 Y6.2013
G01 X4.8256 Y6.1847
G01 X4.8193 Y6.1739
G01 X4.8124 Y6.1635
G01 X4.8011 Y6.1486
G01 X4.7888 Y6.1346
G01 X4.7800 Y6.1257
G01 X4.7708 Y6.1173
G01 X4.7612 Y6.1094
G01 X4.7512 Y6.1020
G01 X4.6880 Y6.0596
G01 X4.6724 Y6.0499
G01 X4.6616 Y6.0442
G01 X4.6506 Y6.0389
G01 X4.6393 Y6.0342
G01 X4.6279 Y6.0301
G01 X4.6162 Y6.0265
G01 X4.6044 Y6.0235
G01 X4.5864 Y6.0201
G01 X4.5432 Y6.0135
G01 X6.5062 Y6.0134
G01 X6.5491 Y6.0111
G01 X6.5856 Y6.0060
G01 X6.6038 Y6.0026
G01 X6.6454 Y5.9919
G01 X6.6860 Y5.9777
G01 X6.7030 Y5.9704
G01 X6.7362 Y5.9544
G01 X6.7669 Y5.9363
G01 X6.7537 Y5.9476
G01 X6.7409 Y5.9602
G01 X6.6902 Y6.0165
G01 X6.6782 Y6.0309
G01 X6.6673 Y6.0461
G01 X6.6576 Y6.0621
G01 X6.6491 Y6.0787
G01 X6.6419 Y6.0960
G01 X6.6378 Y6.1078
G01 X6.6343 Y6.1197
G01 X6.6301 Y6.1380
G01 X6.6178 Y6.2131
G01 X6.6155 Y6.2316
G01 X6.6147 Y6.2441
G01 X6.6146 Y6.2565
G01 X6.6150 Y6.2690
G01 X6.6161 Y6.2814
G01 X6.6189 Y6.2999
G01 X6.6215 Y6.3121
G01 X6.6247 Y6.3241
G01 X6.6285 Y6.3360
G01 X6.6354 Y6.3534
G01 X6.6657 Y6.4232
G01 X6.6742 Y6.4398
G01 X6.6806 Y6.4506
G01 X6.6875 Y6.4610
G01 X6.6987 Y6.4759
G01 X6.7068 Y6.4854
G01 X6.7154 Y6.4944
G01 X6.7291 Y6.5072
G01 X6.7387 Y6.5151
G01 X6.7487 Y6.5225
G01 X6.8119 Y6.5649
G01 X6.8275 Y6.5746
G01 X6.8382 Y6.5803
G01 X6.8492 Y6.5856
G01 X6.8605 Y6.5903
G01 X6.8720 Y6.5944
G01 X6.8837 Y6.5980
G01 X6.8955 Y6.6010
G01 X6.9135 Y6.6044
G01 X6.9610 Y6.6115
G01 X5.0000 Y6.6115
G00 Z2.0000
G00 X5.0000 Y6.5145
G01 F40.00
G01 Z-0.0400
G01 F90.00
G01 X4.9627 Y6.5159
G01 X4.9665 Y6.4960
G01 X4.9778 Y6.4270
G01 X4.9810 Y6.4013
G01 X4.9820 Y6.3841
G01 X4.9820 Y6.3581
G01 X4.9810 Y6.3409
G01 X4.9778 Y6.3152
G01 X4.9746 Y6.2982
G01 X4.9705 Y6.2814
G01 X4.9629 Y6.2566
G01 X4.9568 Y6.2404
G01 X4.9256 Y6.1684
G01 X4.9183 Y6.1527
G01 X4.9060 Y6.1299
G01 X4.8936 Y6.1105
G01 X6.5000 Y6.1105
G01 X6.5371 Y6.1091
G01 X6.5333 Y6.1285
G01 X6.5221 Y6.1975
G01 X6.5189 Y6.2232
G01 X6.5176 Y6.2491
G01 X6.5178 Y6.2664
G01 X6.5189 Y6.2836
G01 X6.5221 Y6.3093
G01 X6.5253 Y6.3263
G01 X6.5317 Y6.3515
G01 X6.5370 Y6.3679
G01 X6.5431 Y6.3841
G01 X6.5742 Y6.4561
G01 X6.5815 Y6.4718
G01 X6.5939 Y6.4946
G01 X6.6066 Y6.5145
G01 X5.0000 Y6.5145
G00 Z2.0000
G00 X5.0000 Y6.8055
G01 F40.00
G01 Z-0.0400
G01 F90.00
G01 X10.0014 Y6.8055
G01 X10.0301 Y6.8069
G01 X10.0599 Y6.8113
G01 X10.0891 Y6.8187
G01 X10.1149 Y6.8278
G01 X10.1422 Y6.8404
G01 X10.1472 Y6.8431
G01 X10.1706 Y6.8572
G01 X10.1948 Y6.8751
G01 X10.2171 Y6.8954
G01 X10.2374 Y6.9177
G01 X10.2553 Y6.9419
G01 X10.2694 Y6.9653
G01 X10.2825 Y6.9924
G01 X10.2847 Y6.9976
G01 X10.2938 Y7.0234
G01 X10.3016 Y7.0553
G01 X14.5000 Y7.0553
G01 X14.5301 Y7.0568
G01 X14.5586 Y7.0610
G01 X14.5865 Y7.0678
G01 X14.5918 Y7.0694
G01 X14.6176 Y7.0787
G01 X14.6448 Y7.0916
G01 X14.6729 Y7.1087
G01 X14.6949 Y7.1251
G01 X14.7162 Y7.1443
G01 X16.6272 Y9.0553
G01 X18.0103 Y9.0553
G01 X19.6928 Y7.3728
G01 X19.6928 Y5.5000
G01 X19.6943 Y5.4699
G01 X19.6987 Y5.4401
G01 X19.7061 Y5.4108
G01 X19.7168 Y5.3812
G01 X19.7291 Y5.3552
G01 X19.7446 Y5.3293
G01 X19.7626 Y5.3051
G01 X19.7828 Y5.2828
G01 X20.9203 Y4.1453
G01 X20.9437 Y4.1242
G01 X20.9668 Y4.1071
G01 X20.9903 Y4.0930
G01 X21.0199 Y4.0787
G01 X21.0510 Y4.0678
G01 X21.0776 Y4.0612
G01 X21.1046 Y4.0571
G01 X21.1375 Y4.0553
G01 X21.4430 Y4.0553
G01 X21.4430 Y3.3611
G01 X21.4440 Y3.3514
G01 X21.4454 Y3.3459
G01 X21.4473 Y3.3407
G01 X21.4518 Y3.3320
G01 X21.4577 Y3.3242
G01 X21.4617 Y3.3202
G01 X21.4660 Y3.3167
G01 X21.4707 Y3.3136
G01 X21.4769 Y3.3103
G01 X21.4821 Y3.3083
G01 X21.4875 Y3.3068
G01 X21.4930 Y3.3059
G01 X21.5000 Y3.3055
G01 X23.1226 Y3.3055
G01 X23.9563 Y2.4718
G01 X23.9776 Y2.4526
G01 X24.0042 Y2.4331
G01 X24.0277 Y2.4191
G01 X24.0524 Y2.4073
G01 X24.0820 Y2.3965
G01 X24.1098 Y2.3893
G01 X24.1153 Y2.3882
G01 X24.1424 Y2.3843
G01 X24.1725 Y2.3828
G01 X36.1914 Y2.3828
G01 X36.2229 Y2.3846
G01 X36.2499 Y2.3887
G01 X36.2765 Y2.3953
G01 X36.3076 Y2.4062
G01 X36.3372 Y2.4205
G01 X36.3607 Y2.4346
G01 X36.3870 Y2.4544
G01 X36.4072 Y2.4728
G01 X36.5020 Y2.5676
G01 X36.5955 Y2.5234
G01 X36.6932 Y2.4885
G01 X36.7938 Y2.4633
G01 X36.8936 Y2.4484
G01 X36.8992 Y2.4478
G01 X36.9972 Y2.4430
G01 X37.0028 Y2.4430
G01 X37.1036 Y2.4480
G01 X37.2076 Y2.4636
G01 X37.3068 Y2.4885
G01 X37.4045 Y2.5234
G01 X37.4983 Y2.5678
G01 X37.5873 Y2.6211
G01 X37.6706 Y2.6829
G01 X37.7474 Y2.7526
G01 X37.8171 Y2.8294
G01 X37.8773 Y2.9104
G01 X37.8804 Y2.9151
G01 X37.9322 Y3.0017
G01 X37.9755 Y3.0929
G01 X37.9776 Y3.0981
G01 X38.0107 Y3.1905
G01 X38.0123 Y3.1959
G01 X38.0367 Y3.2938
G01 X38.0520 Y3.3964
G01 X38.0570 Y3.5000
G01 X38.0520 Y3.6036
G01 X38.0367 Y3.7062
G01 X38.0115 Y3.8068
G01 X37.9766 Y3.9045
G01 X37.9335 Y3.9958
G01 X37.9309 Y4.0007
G01 X37.8789 Y4.0873
G01 X37.8188 Y4.1684
G01 X37.8153 Y4.1727
G01 X37.7494 Y4.2454
G01 X37.7454 Y4.2494
G01 X37.6706 Y4.3171
G01 X37.5873 Y4.3789
G01 X37.4983 Y4.4322
G01 X37.4045 Y4.4766
G01 X37.3068 Y4.5115
G01 X37.2062 Y4.5367
G01 X37.1036 Y4.5520
G01 X37.0028 Y4.5570
G01 X36.9972 Y4.5570
G01 X36.8964 Y4.5520
G01 X36.7965 Y4.5372
G01 X36.7910 Y4.5361
G01 X36.6932 Y4.5115
G01 X36.5981 Y4.4776
G01 X36.5929 Y4.4755
G01 X36.5017 Y4.4322
G01 X36.4151 Y4.3804
G01 X36.4104 Y4.3773
G01 X36.3294 Y4.3171
G01 X36.2546 Y4.2494
G01 X36.2506 Y4.2454
G01 X36.1829 Y4.1706
G01 X36.1227 Y4.0896
G01 X36.1196 Y4.0849
G01 X36.0678 Y3.9983
G01 X36.0245 Y3.9071
G01 X36.0224 Y3.9019
G01 X35.9893 Y3.8095
G01 X35.9877 Y3.8041
G01 X35.9633 Y3.7062
G01 X35.9484 Y3.6064
G01 X35.9478 Y3.6008
G01 X35.9430 Y3.5000
G01 X35.9478 Y3.3992
G01 X35.9484 Y3.3936
G01 X35.9633 Y3.2938
G01 X35.9889 Y3.1918
G01 X36.0234 Y3.0955
G01 X36.0676 Y3.0020
G01 X36.0628 Y2.9972
G01 X24.2997 Y2.9972
G01 X23.5570 Y3.7399
G01 X23.5570 Y4.9851
G01 X24.7169 Y6.1450
G01 X24.7938 Y6.1258
G01 X24.8936 Y6.1109
G01 X24.8992 Y6.1103
G01 X25.0000 Y6.1055
G01 X25.1036 Y6.1105
G01 X25.2035 Y6.1253
G01 X25.2090 Y6.1264
G01 X25.3082 Y6.1514
G01 X25.4045 Y6.1859
G01 X25.4958 Y6.2290
G01 X25.5007 Y6.2316
G01 X25.5873 Y6.2836
G01 X25.6706 Y6.3454
G01 X25.7454 Y6.4131
G01 X25.7494 Y6.4171
G01 X25.8153 Y6.4898
G01 X25.8188 Y6.4941
G01 X25.8789 Y6.5752
G01 X25.9322 Y6.6642
G01 X25.9766 Y6.7580
G01 X26.0115 Y6.8557
G01 X26.0367 Y6.9563
G01 X26.0520 Y7.0589
G01 X26.0570 Y7.1625
G01 X26.0522 Y7.2633
G01 X26.0516 Y7.2689
G01 X26.0367 Y7.3687
G01 X26.0123 Y7.4666
G01 X26.0107 Y7.4720
G01 X25.9776 Y7.5644
G01 X25.9755 Y7.5696
G01 X25.9322 Y7.6608
G01 X25.8789 Y7.7498
G01 X25.8171 Y7.8331
G01 X25.7484 Y7.9089
G01 X25.6706 Y7.9796
G01 X25.5896 Y8.0398
G01 X25.5849 Y8.0429
G01 X25.5007 Y8.0934
G01 X25.4958 Y8.0960
G01 X25.4045 Y8.1391
G01 X25.3068 Y8.1740
G01 X25.2062 Y8.1992
G01 X25.1036 Y8.2145
G01 X25.0000 Y8.2195
G01 X24.8964 Y8.2145
G01 X24.7938 Y8.1992
G01 X24.6959 Y8.1748
G01 X24.6905 Y8.1732
G01 X24.5981 Y8.1401
G01 X24.5929 Y8.1380
G01 X24.5017 Y8.0947
G01 X24.4116 Y8.0406
G01 X24.3294 Y7.9796
G01 X24.2526 Y7.9099
G01 X24.1829 Y7.8331
G01 X24.1227 Y7.7521
G01 X24.1196 Y7.7474
G01 X24.0678 Y7.6608
G01 X24.0245 Y7.5696
G01 X24.0224 Y7.5644
G01 X23.9885 Y7.4693
G01 X23.9639 Y7.3715
G01 X23.9628 Y7.3660
G01 X23.9484 Y7.2689
G01 X23.9478 Y7.2633
G01 X23.9430 Y7.1625
G01 X23.9480 Y7.0589
G01 X23.9633 Y6.9563
G01 X23.9885 Y6.8557
G01 X24.0234 Y6.7580
G01 X24.0678 Y6.6642
G01 X24.1211 Y6.5752
G01 X24.1812 Y6.4941
G01 X24.1886 Y6.4855
G01 X23.1226 Y5.4195
G01 X21.5000 Y5.4195
G01 X21.4916 Y5.4189
G01 X21.4834 Y5.4171
G01 X21.4756 Y5.4141
G01 X21.4695 Y5.4107
G01 X21.4638 Y5.4066
G01 X21.4587 Y5.4018
G01 X21.4542 Y5.3965
G01 X21.4504 Y5.3906
G01 X21.4473 Y5.3843
G01 X21.4450 Y5.3777
G01 X21.4436 Y5.3709
G01 X21.4430 Y5.3639
G01 X21.4430 Y4.6697
G01 X21.2647 Y4.6697
G01 X20.3072 Y5.6272
G01 X20.3072 Y7.5014
G01 X20.3057 Y7.5301
G01 X20.3018 Y7.5572
G01 X20.2947 Y7.5865
G01 X20.2931 Y7.5918
G01 X20.2838 Y7.6176
G01 X20.2709 Y7.6448
G01 X20.2554 Y7.6707
G01 X20.2383 Y7.6938
G01 X20.2172 Y7.7172
G01 X18.3547 Y9.5797
G01 X18.3302 Y9.6017
G01 X18.3082 Y9.6179
G01 X18.2835 Y9.6327
G01 X18.2551 Y9.6463
G01 X18.2240 Y9.6572
G01 X18.1974 Y9.6638
G01 X18.1704 Y9.6679
G01 X18.1389 Y9.6697
G01 X16.7560 Y9.6697
G01 X16.7374 Y9.6949
G01 X16.7172 Y9.7172
G01 X15.3072 Y11.1272
G01 X15.3072 Y12.3728
G01 X17.6272 Y14.6928
G01 X26.5000 Y14.6928
G01 X26.5329 Y14.6946
G01 X26.5599 Y14.6987
G01 X26.5892 Y14.7061
G01 X26.6176 Y14.7162
G01 X26.6423 Y14.7278
G01 X26.6472 Y14.7305
G01 X26.6729 Y14.7462
G01 X26.6949 Y14.7626
G01 X26.7162 Y14.7818
G01 X28.1272 Y16.1928
G01 X32.3728 Y16.1928
G01 X33.9803 Y14.5853
G01 X33.9803 Y14.3798
G01 X33.9632 Y14.3736
G01 X33.9400 Y14.3626
G01 X33.9155 Y14.3481
G01 X33.8917 Y14.3301
G01 X33.8737 Y14.3138
G01 X33.8565 Y14.2948
G01 X33.8394 Y14.2720
G01 X33.8243 Y14.2463
G01 X33.8139 Y14.2243
G01 X33.8057 Y14.2015
G01 X33.8041 Y14.1961
G01 X33.7980 Y14.1712
G01 X33.7943 Y14.1458
G01 X33.7930 Y14.1187
G01 X33.7930 Y13.6063
G01 X33.7942 Y13.5806
G01 X33.7982 Y13.5524
G01 X33.8048 Y13.5262
G01 X33.8139 Y13.5007
G01 X33.8243 Y13.4787
G01 X33.8269 Y13.4738
G01 X33.8410 Y13.4507
G01 X33.8556 Y13.4313
G01 X33.8758 Y13.4093
G01 X33.8938 Y13.3931
G01 X33.9155 Y13.3769
G01 X33.9387 Y13.3630
G01 X33.9632 Y13.3514
G01 X33.9887 Y13.3423
G01 X34.0149 Y13.3357
G01 X34.0417 Y13.3318
G01 X34.0660 Y13.3305
G01 X34.5062 Y13.3305
G01 X34.5333 Y13.3318
G01 X34.5614 Y13.3360
G01 X34.5863 Y13.3423
G01 X34.6144 Y13.3526
G01 X34.6387 Y13.3644
G01 X34.6595 Y13.3769
G01 X34.6790 Y13.3913
G01 X34.7013 Y13.4112
G01 X34.7194 Y13.4313
G01 X34.7356 Y13.4530
G01 X34.7501 Y13.4775
G01 X34.7611 Y13.5007
G01 X34.7709 Y13.5289
G01 X34.7768 Y13.5524
G01 X34.7804 Y13.5764
G01 X34.7820 Y13.6035
G01 X34.7820 Y14.1187
G01 X34.7804 Y14.1486
G01 X34.7768 Y14.1726
G01 X34.7709 Y14.1961
G01 X34.7611 Y14.2243
G01 X34.7481 Y14.2512
G01 X34.7356 Y14.2720
G01 X34.7194 Y14.2937
G01 X34.6992 Y14.3157
G01 X34.6812 Y14.3319
G01 X34.6606 Y14.3473
G01 X34.6350 Y14.3626
G01 X34.6118 Y14.3736
G01 X34.5947 Y14.3798
G01 X34.5947 Y14.5853
G01 X34.8022 Y14.7928
G01 X39.9484 Y14.7928
G01 X39.9562 Y14.7609
G01 X39.9653 Y14.7351
G01 X39.9779 Y14.7078
G01 X39.9806 Y14.7028
G01 X39.9947 Y14.6794
G01 X40.0126 Y14.6552
G01 X40.0329 Y14.6329
G01 X40.0552 Y14.6126
G01 X40.0794 Y14.5947
G01 X40.1028 Y14.5806
G01 X40.1299 Y14.5675
G01 X40.1351 Y14.5653
G01 X40.1609 Y14.5562
G01 X40.1901 Y14.5488
G01 X40.2199 Y14.5444
G01 X40.2472 Y14.5430
G01 X45.2500 Y14.5430
G01 X45.2773 Y14.5442
G01 X45.2829 Y14.5448
G01 X45.3126 Y14.5495
G01 X45.3391 Y14.5562
G01 X45.3675 Y14.5663
G01 X45.3947 Y14.5792
G01 X45.4182 Y14.5932
G01 X45.4448 Y14.6126
G01 X45.4690 Y14.6349
G01 X45.4874 Y14.6552
G01 X45.5053 Y14.6794
G01 X45.5208 Y14.7053
G01 X45.5325 Y14.7299
G01 X45.5438 Y14.7609
G01 X45.5512 Y14.7901
G01 X45.5552 Y14.8171
G01 X45.5570 Y14.8500
G01 X45.5570 Y15.3500
G01 X45.5556 Y15.3801
G01 X45.5509 Y15.4113
G01 X45.5438 Y15.4391
G01 X45.5337 Y15.4675
G01 X45.5208 Y15.4947
G01 X45.5068 Y15.5182
G01 X45.5037 Y15.5229
G01 X45.4855 Y15.5469
G01 X45.4671 Y15.5671
G01 X45.4448 Y15.5874
G01 X45.4206 Y15.6053
G01 X45.3972 Y15.6194
G01 X45.3701 Y15.6325
G01 X45.3649 Y15.6347
G01 X45.3391 Y15.6438
G01 X45.3099 Y15.6512
G01 X45.2801 Y15.6556
G01 X45.2528 Y15.6570
G01 X40.2486 Y15.6570
G01 X40.2199 Y15.6556
G01 X40.1901 Y15.6512
G01 X40.1609 Y15.6438
G01 X40.1351 Y15.6347
G01 X40.1078 Y15.6221
G01 X40.1028 Y15.6194
G01 X40.0794 Y15.6053
G01 X40.0552 Y15.5874
G01 X40.0329 Y15.5671
G01 X40.0126 Y15.5448
G01 X39.9947 Y15.5206
G01 X39.9806 Y15.4972
G01 X39.9675 Y15.4701
G01 X39.9653 Y15.4649
G01 X39.9562 Y15.4391
G01 X39.9484 Y15.4072
G01 X34.6750 Y15.4072
G01 X34.6463 Y15.4058
G01 X34.6151 Y15.4013
G01 X34.5832 Y15.3931
G01 X34.5574 Y15.3838
G01 X34.5327 Y15.3722
G01 X34.5278 Y15.3695
G01 X34.5032 Y15.3546
G01 X34.4801 Y15.3374
G01 X34.4588 Y15.3182
G01 X34.2875 Y15.1469
G01 X32.7162 Y16.7182
G01 X32.6927 Y16.7392
G01 X32.6707 Y16.7554
G01 X32.6472 Y16.7695
G01 X32.6176 Y16.7838
G01 X32.5878 Y16.7943
G01 X32.5599 Y16.8013
G01 X32.5329 Y16.8054
G01 X32.5000 Y16.8072
G01 X28.0000 Y16.8072
G01 X27.9699 Y16.8057
G01 X27.9401 Y16.8013
G01 X27.9108 Y16.7939
G01 X27.8824 Y16.7838
G01 X27.8552 Y16.7709
G01 X27.8293 Y16.7554
G01 X27.8051 Y16.7374
G01 X27.7848 Y16.7191
G01 X26.3728 Y15.3072
G01 X17.5000 Y15.3072
G01 X17.4699 Y15.3057
G01 X17.4387 Y15.3010
G01 X17.4108 Y15.2939
G01 X17.3851 Y15.2848
G01 X17.3552 Y15.2709
G01 X17.3293 Y15.2554
G01 X17.3073 Y15.2392
G01 X17.2828 Y15.2172
G01 X14.7828 Y12.7172
G01 X14.7626 Y12.6949
G01 X14.7446 Y12.6707
G01 X14.7291 Y12.6448
G01 X14.7162 Y12.6176
G01 X14.7061 Y12.5892
G01 X14.6987 Y12.5599
G01 X14.6943 Y12.5301
G01 X14.6928 Y12.5014
G01 X14.6928 Y11.0000
G01 X14.6943 Y10.9699
G01 X14.6987 Y10.9401
G01 X14.7061 Y10.9108
G01 X14.7168 Y10.8812
G01 X14.7291 Y10.8552
G01 X14.7446 Y10.8293
G01 X14.7626 Y10.8051
G01 X14.7828 Y10.7828
G01 X16.1343 Y9.4312
G01 X14.3728 Y7.6697
G01 X10.3016 Y7.6697
G01 X10.2938 Y7.7016
G01 X10.2847 Y7.7274
G01 X10.2721 Y7.7547
G01 X10.2694 Y7.7597
G01 X10.2553 Y7.7831
G01 X10.2374 Y7.8073
G01 X10.2171 Y7.8296
G01 X10.1948 Y7.8499
G01 X10.1706 Y7.8678
G01 X10.1472 Y7.8819
G01 X10.1201 Y7.8950
G01 X10.1149 Y7.8972
G01 X10.0891 Y7.9063
G01 X10.0599 Y7.9137
G01 X10.0301 Y7.9181
G01 X10.0014 Y7.9195
G01 X5.0000 Y7.9195
G01 X4.9699 Y7.9181
G01 X4.9374 Y7.9130
G01 X4.9109 Y7.9063
G01 X4.8825 Y7.8962
G01 X4.8553 Y7.8833
G01 X4.8318 Y7.8693
G01 X4.8052 Y7.8499
G01 X4.7810 Y7.8276
G01 X4.7626 Y7.8073
G01 X4.7447 Y7.7831
G01 X4.7279 Y7.7547
G01 X4.7163 Y7.7300
G01 X4.7066 Y7.7030
G01 X4.6995 Y7.6751
G01 X4.6984 Y7.6696
G01 X4.6944 Y7.6426
G01 X4.6930 Y7.6139
G01 X4.6930 Y7.1111
G01 X4.6944 Y7.0824
G01 X4.6988 Y7.0526
G01 X4.7062 Y7.0234
G01 X4.7163 Y6.9950
G01 X4.7292 Y6.9678
G01 X4.7447 Y6.9419
G01 X4.7626 Y6.9177
G01 X4.7829 Y6.8954
G01 X4.8052 Y6.8751
G01 X4.8294 Y6.8572
G01 X4.8553 Y6.8417
G01 X4.8825 Y6.8288
G01 X4.9109 Y6.8187
G01 X4.9401 Y6.8113
G01 X4.9699 Y6.8069
G01 X5.0000 Y6.8055
G00 Z2.0000
G00 X4.5032 Y7.6756
G01 F40.00
G01 Z-0.0400
G01 F90.00
G01 X4.5086 Y7.7102
G01 X4.5148 Y7.7361
G01 X4.5069 Y7.7124
G01 X4.5032 Y7.6756
G00 Z2.0000
G00 X4.5381 Y7.8066
G01 F40.00
G01 Z-0.0400
G01 F90.00
G01 X4.5421 Y7.8155
G01 X4.5547 Y7.8421
G01 X4.5442 Y7.8250
G01 X4.5381 Y7.8066
G00 Z2.0000
G00 X4.5937 Y7.9052
G01 F40.00
G01 Z-0.0400
G01 F90.00
G01 X4.6089 Y7.9255
G01 X4.6204 Y7.9393
G01 X4.6055 Y7.9244
G01 X4.5937 Y7.9052
G00 Z2.0000
G00 X4.6732 Y7.9921
G01 F40.00
G01 Z-0.0400
G01 F90.00
G01 X4.6870 Y8.0036
G01 X4.7073 Y8.0188
G01 X4.6881 Y8.0070
G01 X4.6732 Y7.9921
G00 Z2.0000
G00 X4.7625 Y8.0536
G01 F40.00
G01 Z-0.0400
G01 F90.00
G01 X4.7748 Y8.0599
G01 X4.8083 Y8.0754
G01 X4.8487 Y8.0901
G01 X4.8664 Y8.0952
G01 X4.9023 Y8.1039
G01 X4.9387 Y8.1096
G01 X4.9570 Y8.1116
G01 X5.0000 Y8.1135
G01 X10.0000 Y8.1135
G01 X10.0368 Y8.1120
G01 X10.0552 Y8.1104
G01 X10.0917 Y8.1050
G01 X10.1098 Y8.1012
G01 X10.1454 Y8.0919
G01 X10.1802 Y8.0798
G01 X10.1974 Y8.0730
G01 X10.2346 Y8.0552
G01 X10.2201 Y8.0660
G01 X10.2063 Y8.0775
G01 X10.1934 Y8.0899
G01 X10.1814 Y8.1032
G01 X10.1739 Y8.1125
G01 X10.1613 Y8.1298
G01 X10.1468 Y8.1460
G01 X10.1352 Y8.1607
G01 X10.1247 Y8.1761
G01 X10.1184 Y8.1869
G01 X10.1126 Y8.1979
G01 X10.1073 Y8.2092
G01 X10.0971 Y8.2341
G01 X10.0913 Y8.2519
G01 X10.0868 Y8.2700
G01 X10.0837 Y8.2885
G01 X10.0824 Y8.3009
G01 X10.0811 Y8.3226
G01 X10.0769 Y8.3502
G01 X10.0758 Y8.3626
G01 X10.0753 Y8.3751
G01 X10.0758 Y8.3938
G01 X10.0777 Y8.4124
G01 X10.0835 Y8.4450
G01 X10.0882 Y8.4631
G01 X10.0942 Y8.4808
G01 X10.1016 Y8.4980
G01 X10.1071 Y8.5091
G01 X10.1178 Y8.5281
G01 X10.1265 Y8.5480
G01 X10.1320 Y8.5591
G01 X10.1413 Y8.5753
G01 X10.1518 Y8.5908
G01 X10.1635 Y8.6055
G01 X10.1718 Y8.6147
G01 X10.1860 Y8.6298
G01 X10.1997 Y8.6424
G01 X10.2346 Y8.6698
G01 X10.1974 Y8.6520
G01 X10.1802 Y8.6452
G01 X10.1454 Y8.6331
G01 X10.1098 Y8.6238
G01 X10.0917 Y8.6200
G01 X10.0552 Y8.6146
G01 X10.0368 Y8.6130
G01 X10.0000 Y8.6115
G01 X5.0000 Y8.6115
G01 X4.9632 Y8.6130
G01 X4.9448 Y8.6146
G01 X4.9083 Y8.6200
G01 X4.8902 Y8.6238
G01 X4.8546 Y8.6331
G01 X4.8198 Y8.6452
G01 X4.8026 Y8.6520
G01 X4.7654 Y8.6698
G01 X4.7811 Y8.6572
G01 X4.7942 Y8.6449
G01 X4.8024 Y8.6362
G01 X4.8532 Y8.5796
G01 X4.8648 Y8.5649
G01 X4.8719 Y8.5547
G01 X4.8816 Y8.5387
G01 X4.8874 Y8.5277
G01 X4.8927 Y8.5164
G01 X4.8995 Y8.4990
G01 X4.9033 Y8.4871
G01 X4.9079 Y8.4690
G01 X4.9102 Y8.4567
G01 X4.9224 Y8.3816
G01 X4.9242 Y8.3630
G01 X4.9247 Y8.3443
G01 X4.9237 Y8.3256
G01 X4.9214 Y8.3070
G01 X4.9177 Y8.2887
G01 X4.9127 Y8.2707
G01 X4.9086 Y8.2589
G01 X4.9039 Y8.2474
G01 X4.8735 Y8.1776
G01 X4.8650 Y8.1610
G01 X4.8553 Y8.1450
G01 X4.8482 Y8.1348
G01 X4.8405 Y8.1249
G01 X4.8282 Y8.1109
G01 X4.8194 Y8.1020
G01 X4.8102 Y8.0936
G01 X4.7757 Y8.0638
G01 X4.7625 Y8.0536
G00 Z2.0000
G00 X4.9936 Y8.2104
G01 F40.00
G01 Z-0.0400
G01 F90.00
G01 X10.0027 Y8.2105
G01 X9.9981 Y8.2251
G01 X9.9937 Y8.2418
G01 X9.9902 Y8.2588
G01 X9.9875 Y8.2758
G01 X9.9857 Y8.2930
G01 X9.9845 Y8.3120
G01 X9.9816 Y8.3308
G01 X9.9796 Y8.3480
G01 X9.9786 Y8.3652
G01 X9.9784 Y8.3825
G01 X9.9790 Y8.3998
G01 X9.9805 Y8.4170
G01 X9.9829 Y8.4341
G01 X9.9870 Y8.4574
G01 X9.9929 Y8.4827
G01 X9.9979 Y8.4992
G01 X10.0033 Y8.5145
G01 X4.9963 Y8.5145
G01 X5.0008 Y8.4977
G01 X5.0044 Y8.4808
G01 X5.0184 Y8.3948
G01 X5.0210 Y8.3690
G01 X5.0216 Y8.3431
G01 X5.0210 Y8.3258
G01 X5.0195 Y8.3086
G01 X5.0171 Y8.2915
G01 X5.0139 Y8.2745
G01 X5.0099 Y8.2577
G01 X5.0050 Y8.2411
G01 X4.9993 Y8.2248
G01 X4.9936 Y8.2104
G00 Z2.0000
G00 X5.1168 Y8.3075
G01 F40.00
G01 Z-0.0400
G01 F90.00
G01 X9.8870 Y8.3075
G01 X9.8841 Y8.3286
G01 X9.8830 Y8.3396
G01 X9.8817 Y8.3616
G01 X9.8814 Y8.3727
G01 X9.8817 Y8.3948
G01 X9.8831 Y8.4175
G01 X5.1131 Y8.4175
G01 X5.1159 Y8.3970
G01 X5.1170 Y8.3860
G01 X5.1183 Y8.3639
G01 X5.1186 Y8.3418
G01 X5.1183 Y8.3308
G01 X5.1168 Y8.3075
G00 Z2.0000
G00 X4.7026 Y8.7097
G01 F40.00
G01 Z-0.0400
G01 F90.00
G01 X4.6870 Y8.7214
G01 X4.6788 Y8.7280
G01 X4.6884 Y8.7184
G01 X4.7026 Y8.7097
G00 Z2.0000
G00 X4.6155 Y8.7913
G01 F40.00
G01 Z-0.0400
G01 F90.00
G01 X4.6089 Y8.7995
G01 X4.5972 Y8.8151
G01 X4.6059 Y8.8009
G01 X4.6155 Y8.7913
G00 Z2.0000
G00 X4.6155 Y9.9337
G01 F40.00
G01 Z-0.0400
G01 F90.00
G01 X4.6059 Y9.9241
G01 X4.5972 Y9.9099
G01 X4.6089 Y9.9255
G01 X4.6155 Y9.9337
G00 Z2.0000
G00 X4.7026 Y10.0153
G01 F40.00
G01 Z-0.0400
G01 F90.00
G01 X4.6884 Y10.0066
G01 X4.6788 Y9.9970
G01 X4.6870 Y10.0036
G01 X4.7026 Y10.0153
G00 Z2.0000
G00 X5.1130 Y10.4175
G01 F40.00
G01 Z-0.0400
G01 F90.00
G01 X5.1159 Y10.3964
G01 X5.1170 Y10.3854
G01 X5.1183 Y10.3634
G01 X5.1186 Y10.3413
G01 X5.1183 Y10.3302
G01 X5.1169 Y10.3075
G01 X9.8849 Y10.3075
G01 X9.8821 Y10.3329
G01 X9.8808 Y10.3547
G01 X9.8806 Y10.3656
G01 X9.8810 Y10.3875
G01 X9.8831 Y10.4175
G01 X5.1130 Y10.4175
G00 Z2.0000
G00 X4.9961 Y10.5145
G01 F40.00
G01 Z-0.0400
G01 F90.00
G01 X5.0008 Y10.4971
G01 X5.0044 Y10.4802
G01 X5.0184 Y10.3942
G01 X5.0210 Y10.3684
G01 X5.0216 Y10.3425
G01 X5.0210 Y10.3252
G01 X5.0195 Y10.3080
G01 X5.0171 Y10.2909
G01 X5.0139 Y10.2739
G01 X5.0099 Y10.2571
G01 X5.0050 Y10.2405
G01 X4.9993 Y10.2242
G01 X4.9938 Y10.2104
G01 X10.0037 Y10.2105
G01 X9.9973 Y10.2357
G01 X9.9910 Y10.2715
G01 X9.9848 Y10.2985
G01 X9.9817 Y10.3155
G01 X9.9795 Y10.3327
G01 X9.9781 Y10.3499
G01 X9.9776 Y10.3758
G01 X9.9784 Y10.3930
G01 X9.9805 Y10.4165
G01 X9.9829 Y10.4336
G01 X9.9861 Y10.4505
G01 X9.9901 Y10.4673
G01 X9.9950 Y10.4839
G01 X10.0007 Y10.5002
G01 X10.0064 Y10.5146
G01 X4.9961 Y10.5145
G00 Z2.0000
G00 X5.0000 Y10.7085
G01 F40.00
G01 Z-0.0400
G01 F90.00
G01 X10.0076 Y10.7087
G01 X10.0396 Y10.7104
G01 X10.0714 Y10.7149
G01 X10.0862 Y10.7179
G01 X10.1173 Y10.7259
G01 X10.1546 Y10.7392
G01 X10.1837 Y10.7528
G01 X10.1970 Y10.7599
G01 X10.2245 Y10.7766
G01 X10.2563 Y10.8002
G01 X10.2802 Y10.8216
G01 X10.2909 Y10.8323
G01 X10.3123 Y10.8562
G01 X10.3359 Y10.8880
G01 X10.3526 Y10.9155
G01 X10.3597 Y10.9288
G01 X10.3735 Y10.9583
G01 X11.0000 Y10.9583
G01 X11.0321 Y10.9597
G01 X11.0434 Y10.9607
G01 X11.0751 Y10.9654
G01 X11.0862 Y10.9678
G01 X11.1137 Y10.9747
G01 X11.1245 Y10.9781
G01 X11.1547 Y10.9891
G01 X11.1872 Y11.0043
G01 X11.1971 Y11.0098
G01 X11.2182 Y11.0224
G01 X11.2307 Y11.0308
G01 X11.2564 Y11.0501
G01 X11.2858 Y11.0767
G01 X16.6674 Y16.4583
G01 X22.9202 Y16.4583
G01 X22.9311 Y16.4279
G01 X22.9353 Y16.4174
G01 X22.9788 Y16.3252
G01 X22.9841 Y16.3152
G01 X23.0405 Y16.2214
G01 X23.1056 Y16.1333
G01 X23.1129 Y16.1247
G01 X23.1840 Y16.0465
G01 X23.2622 Y15.9754
G01 X23.2738 Y15.9658
G01 X23.3527 Y15.9073
G01 X23.3620 Y15.9009
G01 X23.4560 Y15.8447
G01 X23.5584 Y15.7963
G01 X23.6650 Y15.7582
G01 X23.7675 Y15.7323
G01 X23.7823 Y15.7293
G01 X23.8794 Y15.7149
G01 X23.8944 Y15.7135
G01 X24.0000 Y15.7085
G01 X24.1131 Y15.7140
G01 X24.2251 Y15.7306
G01 X24.3277 Y15.7561
G01 X24.3422 Y15.7605
G01 X24.4346 Y15.7936
G01 X24.4485 Y15.7994
G01 X24.5440 Y15.8447
G01 X24.6348 Y15.8989
G01 X24.6473 Y15.9073
G01 X24.7321 Y15.9704
G01 X24.8160 Y16.0465
G01 X24.8921 Y16.1304
G01 X24.9595 Y16.2214
G01 X25.0178 Y16.3185
G01 X25.0631 Y16.4140
G01 X25.0689 Y16.4279
G01 X25.1043 Y16.5275
G01 X25.1302 Y16.6300
G01 X25.1332 Y16.6448
G01 X25.1476 Y16.7419
G01 X25.1490 Y16.7569
G01 X25.1540 Y16.8625
G01 X25.1485 Y16.9756
G01 X25.1319 Y17.0876
G01 X25.1064 Y17.1902
G01 X25.1032 Y17.2011
G01 X25.0662 Y17.3041
G01 X25.0212 Y17.3998
G01 X25.0140 Y17.4131
G01 X24.9636 Y17.4973
G01 X24.9552 Y17.5098
G01 X24.8921 Y17.5946
G01 X24.8160 Y17.6785
G01 X24.7321 Y17.7546
G01 X24.6473 Y17.8177
G01 X24.6348 Y17.8261
G01 X24.5506 Y17.8765
G01 X24.5373 Y17.8837
G01 X24.4416 Y17.9287
G01 X24.3350 Y17.9668
G01 X24.2251 Y17.9944
G01 X24.1206 Y18.0101
G01 X24.1056 Y18.0115
G01 X24.0000 Y18.0165
G01 X23.8944 Y18.0115
G01 X23.8794 Y18.0101
G01 X23.7749 Y17.9944
G01 X23.6650 Y17.9668
G01 X23.5584 Y17.9287
G01 X23.4627 Y17.8837
G01 X23.4494 Y17.8765
G01 X23.3652 Y17.8261
G01 X23.3557 Y17.8199
G01 X23.2679 Y17.7546
G01 X23.1894 Y17.6837
G01 X23.1788 Y17.6731
G01 X23.1129 Y17.6003
G01 X23.1056 Y17.5917
G01 X23.0405 Y17.5036
G01 X22.9841 Y17.4098
G01 X22.9788 Y17.3998
G01 X22.9353 Y17.3076
G01 X22.9311 Y17.2971
G01 X22.9202 Y17.2667
G01 X16.5000 Y17.2667
G01 X16.4604 Y17.2647
G01 X16.4286 Y17.2602
G01 X16.4138 Y17.2572
G01 X16.3900 Y17.2513
G01 X16.3791 Y17.2481
G01 X16.3488 Y17.2373
G01 X16.3384 Y17.2328
G01 X16.3095 Y17.2189
G01 X16.2818 Y17.2026
G01 X16.2693 Y17.1942
G01 X16.2436 Y17.1749
G01 X16.2142 Y17.1483
G01 X10.8326 Y11.7667
G01 X10.3735 Y11.7667
G01 X10.3597 Y11.7962
G01 X10.3526 Y11.8095
G01 X10.3359 Y11.8370
G01 X10.3123 Y11.8688
G01 X10.2909 Y11.8927
G01 X10.2802 Y11.9034
G01 X10.2563 Y11.9248
G01 X10.2245 Y11.9484
G01 X10.1970 Y11.9651
G01 X10.1837 Y11.9722
G01 X10.1546 Y11.9858
G01 X10.1173 Y11.9991
G01 X10.0862 Y12.0071
G01 X10.0714 Y12.0101
G01 X10.0396 Y12.0146
G01 X10.0076 Y12.0163
G01 X5.0000 Y12.0165
G01 X4.9604 Y12.0146
G01 X4.9249 Y12.0095
G01 X4.9138 Y12.0071
G01 X4.8900 Y12.0012
G01 X4.8791 Y11.9980
G01 X4.8454 Y11.9858
G01 X4.8163 Y11.9722
G01 X4.8030 Y11.9651
G01 X4.7755 Y11.9484
G01 X4.7496 Y11.9295
G01 X4.7408 Y11.9224
G01 X4.7143 Y11.8982
G01 X4.6926 Y11.8745
G01 X4.6830 Y11.8629
G01 X4.6641 Y11.8370
G01 X4.6474 Y11.8095
G01 X4.6403 Y11.7962
G01 X4.6267 Y11.7671
G01 X4.6157 Y11.7370
G01 X4.6113 Y11.7225
G01 X4.6054 Y11.6987
G01 X4.6030 Y11.6876
G01 X4.5979 Y11.6521
G01 X4.5960 Y11.6163
G01 X4.5960 Y11.1125
G01 X4.5974 Y11.0804
G01 X4.5983 Y11.0691
G01 X4.6030 Y11.0374
G01 X4.6054 Y11.0263
G01 X4.6123 Y10.9988
G01 X4.6157 Y10.9880
G01 X4.6253 Y10.9614
G01 X4.6298 Y10.9510
G01 X4.6403 Y10.9288
G01 X4.6455 Y10.9187
G01 X4.6600 Y10.8944
G01 X4.6684 Y10.8818
G01 X4.6830 Y10.8621
G01 X4.6901 Y10.8533
G01 X4.7117 Y10.8295
G01 X4.7198 Y10.8216
G01 X4.7437 Y10.8002
G01 X4.7755 Y10.7766
G01 X4.8095 Y10.7562
G01 X4.8454 Y10.7392
G01 X4.8827 Y10.7259
G01 X4.9212 Y10.7162
G01 X4.9604 Y10.7104
G01 X5.0000 Y10.7085
G00 Z2.0000
G00 X5.0000 Y10.8055
G01 F40.00
G01 Z-0.0400
G01 F90.00
G01 X10.0028 Y10.8055
G01 X10.0301 Y10.8069
G01 X10.0599 Y10.8113
G01 X10.0891 Y10.8187
G01 X10.1149 Y10.8278
G01 X10.1422 Y10.8404
G01 X10.1472 Y10.8431
G01 X10.1706 Y10.8572
G01 X10.1948 Y10.8751
G01 X10.2171 Y10.8954
G01 X10.2374 Y10.9177
G01 X10.2553 Y10.9419
G01 X10.2694 Y10.9653
G01 X10.2825 Y10.9924
G01 X10.2847 Y10.9976
G01 X10.2938 Y11.0234
G01 X10.3016 Y11.0553
G01 X11.0028 Y11.0554
G01 X11.0329 Y11.0571
G01 X11.0599 Y11.0612
G01 X11.0865 Y11.0678
G01 X11.1176 Y11.0787
G01 X11.1436 Y11.0910
G01 X11.1683 Y11.1056
G01 X11.1729 Y11.1087
G01 X11.1949 Y11.1251
G01 X11.2172 Y11.1453
G01 X16.6272 Y16.5553
G01 X22.9886 Y16.5553
G01 X23.0234 Y16.4580
G01 X23.0678 Y16.3642
G01 X23.1211 Y16.2752
G01 X23.1812 Y16.1941
G01 X23.1847 Y16.1898
G01 X23.2506 Y16.1171
G01 X23.2546 Y16.1131
G01 X23.3294 Y16.0454
G01 X23.4127 Y15.9836
G01 X23.5017 Y15.9303
G01 X23.5929 Y15.8870
G01 X23.5981 Y15.8849
G01 X23.6905 Y15.8518
G01 X23.6959 Y15.8502
G01 X23.7938 Y15.8258
G01 X23.8964 Y15.8105
G01 X24.0000 Y15.8055
G01 X24.1022 Y15.8104
G01 X24.2062 Y15.8258
G01 X24.3068 Y15.8510
G01 X24.4045 Y15.8859
G01 X24.4958 Y15.9290
G01 X24.5007 Y15.9316
G01 X24.5873 Y15.9836
G01 X24.6684 Y16.0437
G01 X24.6727 Y16.0472
G01 X24.7454 Y16.1131
G01 X24.7494 Y16.1171
G01 X24.8171 Y16.1919
G01 X24.8789 Y16.2752
G01 X24.9322 Y16.3642
G01 X24.9755 Y16.4554
G01 X24.9776 Y16.4606
G01 X25.0115 Y16.5557
G01 X25.0361 Y16.6535
G01 X25.0372 Y16.6590
G01 X25.0516 Y16.7561
G01 X25.0522 Y16.7617
G01 X25.0570 Y16.8625
G01 X25.0520 Y16.9661
G01 X25.0367 Y17.0687
G01 X25.0111 Y17.1707
G01 X24.9766 Y17.2670
G01 X24.9335 Y17.3583
G01 X24.9309 Y17.3632
G01 X24.8804 Y17.4474
G01 X24.8773 Y17.4521
G01 X24.8171 Y17.5331
G01 X24.7474 Y17.6099
G01 X24.6706 Y17.6796
G01 X24.5896 Y17.7398
G01 X24.5849 Y17.7429
G01 X24.5007 Y17.7934
G01 X24.4958 Y17.7960
G01 X24.4045 Y17.8391
G01 X24.3068 Y17.8740
G01 X24.2062 Y17.8992
G01 X24.1064 Y17.9141
G01 X24.1008 Y17.9147
G01 X24.0000 Y17.9195
G01 X23.8992 Y17.9147
G01 X23.8936 Y17.9141
G01 X23.7938 Y17.8992
G01 X23.6932 Y17.8740
G01 X23.5955 Y17.8391
G01 X23.5042 Y17.7960
G01 X23.4993 Y17.7934
G01 X23.4151 Y17.7429
G01 X23.4104 Y17.7398
G01 X23.3294 Y17.6796
G01 X23.2526 Y17.6099
G01 X23.1829 Y17.5331
G01 X23.1227 Y17.4521
G01 X23.1196 Y17.4474
G01 X23.0691 Y17.3632
G01 X23.0665 Y17.3583
G01 X23.0234 Y17.2670
G01 X22.9886 Y17.1697
G01 X16.5000 Y17.1697
G01 X16.4699 Y17.1682
G01 X16.4428 Y17.1643
G01 X16.4373 Y17.1632
G01 X16.4095 Y17.1560
G01 X16.3799 Y17.1452
G01 X16.3552 Y17.1334
G01 X16.3317 Y17.1194
G01 X16.3051 Y17.0999
G01 X16.2828 Y17.0797
G01 X10.8728 Y11.6697
G01 X10.3016 Y11.6697
G01 X10.2938 Y11.7016
G01 X10.2847 Y11.7274
G01 X10.2721 Y11.7547
G01 X10.2694 Y11.7597
G01 X10.2553 Y11.7831
G01 X10.2374 Y11.8073
G01 X10.2171 Y11.8296
G01 X10.1948 Y11.8499
G01 X10.1706 Y11.8678
G01 X10.1472 Y11.8819
G01 X10.1201 Y11.8950
G01 X10.1149 Y11.8972
G01 X10.0891 Y11.9063
G01 X10.0599 Y11.9137
G01 X10.0301 Y11.9181
G01 X10.0028 Y11.9195
G01 X5.0000 Y11.9195
G01 X4.9671 Y11.9177
G01 X4.9401 Y11.9137
G01 X4.9136 Y11.9071
G01 X4.8825 Y11.8962
G01 X4.8553 Y11.8833
G01 X4.8318 Y11.8693
G01 X4.8052 Y11.8499
G01 X4.7810 Y11.8276
G01 X4.7626 Y11.8073
G01 X4.7447 Y11.7831
G01 X4.7279 Y11.7547
G01 X4.7163 Y11.7300
G01 X4.7066 Y11.7030
G01 X4.6995 Y11.6751
G01 X4.6984 Y11.6696
G01 X4.6944 Y11.6426
G01 X4.6930 Y11.6139
G01 X4.6930 Y11.1111
G01 X4.6944 Y11.0824
G01 X4.6988 Y11.0526
G01 X4.7062 Y11.0234
G01 X4.7163 Y10.9950
G01 X4.7292 Y10.9678
G01 X4.7447 Y10.9419
G01 X4.7626 Y10.9177
G01 X4.7829 Y10.8954
G01 X4.8052 Y10.8751
G01 X4.8294 Y10.8572
G01 X4.8553 Y10.8417
G01 X4.8825 Y10.8288
G01 X4.9109 Y10.8187
G01 X4.9401 Y10.8113
G01 X4.9699 Y10.8069
G01 X5.0000 Y10.8055
G00 Z2.0000
G00 X4.7626 Y10.6713
G01 F40.00
G01 Z-0.0400
G01 F90.00
G01 X4.7719 Y10.6642
G01 X4.7811 Y10.6566
G01 X4.7942 Y10.6443
G01 X4.8023 Y10.6356
G01 X4.8532 Y10.5790
G01 X4.8648 Y10.5643
G01 X4.8719 Y10.5541
G01 X4.8785 Y10.5435
G01 X4.8874 Y10.5271
G01 X4.8951 Y10.5100
G01 X4.8995 Y10.4984
G01 X4.9050 Y10.4805
G01 X4.9079 Y10.4684
G01 X4.9102 Y10.4561
G01 X4.9224 Y10.3810
G01 X4.9237 Y10.3686
G01 X4.9247 Y10.3499
G01 X4.9245 Y10.3375
G01 X4.9237 Y10.3250
G01 X4.9214 Y10.3065
G01 X4.9177 Y10.2881
G01 X4.9127 Y10.2701
G01 X4.9086 Y10.2584
G01 X4.9039 Y10.2468
G01 X4.8760 Y10.1827
G01 X4.8680 Y10.1659
G01 X4.8587 Y10.1497
G01 X4.8482 Y10.1342
G01 X4.8405 Y10.1243
G01 X4.8282 Y10.1103
G01 X4.8194 Y10.1014
G01 X4.8102 Y10.0930
G01 X4.7757 Y10.0632
G01 X4.7654 Y10.0552
G01 X4.8026 Y10.0730
G01 X4.8198 Y10.0798
G01 X4.8546 Y10.0919
G01 X4.8902 Y10.1012
G01 X4.9083 Y10.1050
G01 X4.9448 Y10.1104
G01 X4.9632 Y10.1120
G01 X5.0000 Y10.1135
G01 X10.0000 Y10.1135
G01 X10.0368 Y10.1120
G01 X10.0552 Y10.1104
G01 X10.0917 Y10.1050
G01 X10.1098 Y10.1012
G01 X10.1454 Y10.0919
G01 X10.1802 Y10.0798
G01 X10.1974 Y10.0730
G01 X10.2346 Y10.0552
G01 X10.2234 Y10.0640
G01 X10.2101 Y10.0759
G01 X10.2017 Y10.0844
G01 X10.1827 Y10.1054
G01 X10.1622 Y10.1254
G01 X10.1537 Y10.1345
G01 X10.1419 Y10.1489
G01 X10.1345 Y10.1590
G01 X10.1245 Y10.1748
G01 X10.1154 Y10.1918
G01 X10.1099 Y10.2030
G01 X10.1026 Y10.2202
G01 X10.0985 Y10.2320
G01 X10.0935 Y10.2500
G01 X10.0909 Y10.2622
G01 X10.0862 Y10.2904
G01 X10.0798 Y10.3182
G01 X10.0776 Y10.3305
G01 X10.0754 Y10.3490
G01 X10.0746 Y10.3677
G01 X10.0751 Y10.3864
G01 X10.0777 Y10.4118
G01 X10.0809 Y10.4302
G01 X10.0855 Y10.4483
G01 X10.0914 Y10.4661
G01 X10.1050 Y10.4981
G01 X10.1168 Y10.5304
G01 X10.1217 Y10.5415
G01 X10.1271 Y10.5523
G01 X10.1330 Y10.5628
G01 X10.1427 Y10.5780
G01 X10.1553 Y10.5949
G01 X10.1672 Y10.6091
G01 X10.1801 Y10.6225
G01 X10.2044 Y10.6458
G01 X10.2148 Y10.6547
G01 X10.2346 Y10.6698
G01 X10.1974 Y10.6520
G01 X10.1802 Y10.6452
G01 X10.1454 Y10.6331
G01 X10.1098 Y10.6238
G01 X10.0917 Y10.6200
G01 X10.0552 Y10.6146
G01 X10.0368 Y10.6130
G01 X10.0000 Y10.6115
G01 X5.0000 Y10.6115
G01 X4.9570 Y10.6134
G01 X4.9387 Y10.6154
G01 X4.9023 Y10.6211
G01 X4.8664 Y10.6298
G01 X4.8487 Y10.6349
G01 X4.8083 Y10.6496
G01 X4.7748 Y10.6651
G01 X4.7626 Y10.6713
G00 Z2.0000
G00 X4.6738 Y10.7324
G01 F40.00
G01 Z-0.0400
G01 F90.00
G01 X4.6882 Y10.7180
G01 X4.7073 Y10.7062
G01 X4.6870 Y10.7214
G01 X4.6738 Y10.7324
G00 Z2.0000
G00 X4.5937 Y10.8198
G01 F40.00
G01 Z-0.0400
G01 F90.00
G01 X4.6052 Y10.8011
G01 X4.6190 Y10.7873
G01 X4.6089 Y10.7995
G01 X4.5937 Y10.8198
G00 Z2.0000
G00 X4.5381 Y10.9184
G01 F40.00
G01 Z-0.0400
G01 F90.00
G01 X4.5442 Y10.9000
G01 X4.5547 Y10.8829
G01 X4.5421 Y10.9095
G01 X4.5381 Y10.9184
G00 Z2.0000
G00 X4.5032 Y11.0494
G01 F40.00
G01 Z-0.0400
G01 F90.00
G01 X4.5069 Y11.0126
G01 X4.5148 Y10.9889
G01 X4.5086 Y11.0148
G01 X4.5032 Y11.0494
G00 Z2.0000
G00 X4.5148 Y11.7361
G01 F40.00
G01 Z-0.0400
G01 F90.00
G01 X4.5069 Y11.7124
G01 X4.5032 Y11.6756
G01 X4.5086 Y11.7102
G01 X4.5148 Y11.7361
G00 Z2.0000
G00 X4.5547 Y11.8421
G01 F40.00
G01 Z-0.0400
G01 F90.00
G01 X4.5442 Y11.8250
G01 X4.5381 Y11.8066
G01 X4.5421 Y11.8155
G01 X4.5547 Y11.8421
G00 Z2.0000
G00 X4.6204 Y11.9393
G01 F40.00
G01 Z-0.0400
G01 F90.00
G01 X4.6055 Y11.9244
G01 X4.5937 Y11.9052
G01 X4.6089 Y11.9255
G01 X4.6204 Y11.9393
G00 Z2.0000
G00 X4.7073 Y12.0188
G01 F40.00
G01 Z-0.0400
G01 F90.00
G01 X4.6881 Y12.0070
G01 X4.6732 Y11.9921
G01 X4.6870 Y12.0036
G01 X4.7073 Y12.0188
G00 Z2.0000
G00 X3.9260 Y12.7173
G01 F40.00
G01 Z-0.0400
G01 F90.00
G01 X3.9023 Y12.7211
G01 X3.8829 Y12.7257
G01 X3.9002 Y12.7199
G01 X3.9260 Y12.7173
G00 Z2.0000
G00 X3.8010 Y12.7528
G01 F40.00
G01 Z-0.0400
G01 F90.00
G01 X3.7970 Y12.7546
G01 X3.7750 Y12.7650
G01 X3.7877 Y12.7572
G01 X3.8010 Y12.7528
G00 Z2.0000
G00 X3.7026 Y12.8097
G01 F40.00
G01 Z-0.0400
G01 F90.00
G01 X3.6870 Y12.8214
G01 X3.6788 Y12.8280
G01 X3.6884 Y12.8184
G01 X3.7026 Y12.8097
G00 Z2.0000
G00 X3.6155 Y12.8913
G01 F40.00
G01 Z-0.0400
G01 F90.00
G01 X3.6089 Y12.8995
G01 X3.5972 Y12.9151
G01 X3.6059 Y12.9009
G01 X3.6155 Y12.8913
G00 Z2.0000
G00 X3.5525 Y12.9875
G01 F40.00
G01 Z-0.0400
G01 F90.00
G01 X3.5421 Y13.0095
G01 X3.5403 Y13.0135
G01 X3.5447 Y13.0002
G01 X3.5525 Y12.9875
G00 Z2.0000
G00 X3.5132 Y13.0954
G01 F40.00
G01 Z-0.0400
G01 F90.00
G01 X3.5086 Y13.1148
G01 X3.5048 Y13.1385
G01 X3.5074 Y13.1127
G01 X3.5132 Y13.0954
G00 Z2.0000
G00 X3.3070 Y14.0697
G01 F40.00
G01 Z-0.0400
G01 F90.00
G01 X3.6930 Y14.0697
G01 X3.6930 Y14.3125
G01 X3.6943 Y14.3412
G01 X3.6984 Y14.3696
G01 X3.6995 Y14.3751
G01 X3.7062 Y14.4016
G01 X3.7163 Y14.4300
G01 X3.7292 Y14.4572
G01 X3.7447 Y14.4831
G01 X3.7626 Y14.5073
G01 X3.7849 Y14.5315
G01 X3.8052 Y14.5499
G01 X3.8271 Y14.5662
G01 X3.8528 Y14.5819
G01 X3.8825 Y14.5962
G01 X3.9095 Y14.6059
G01 X3.9374 Y14.6130
G01 X3.9429 Y14.6141
G01 X3.9699 Y14.6181
G01 X3.9986 Y14.6195
G01 X4.9430 Y14.6195
G01 X4.9430 Y15.0054
G01 X3.9529 Y15.0055
G01 X3.8593 Y14.9959
G01 X3.7052 Y14.9448
G01 X3.5673 Y14.8598
G01 X3.4527 Y14.7452
G01 X3.3677 Y14.6074
G01 X3.3166 Y14.4532
G01 X3.3070 Y14.3596
G01 X3.3070 Y14.0697
G00 Z2.0000
G00 X3.4040 Y14.1667
G01 F40.00
G01 Z-0.0400
G01 F90.00
G01 X3.5960 Y14.1667
G01 X3.5960 Y14.3125
G01 X3.5979 Y14.3521
G01 X3.6037 Y14.3913
G01 X3.6113 Y14.4225
G01 X3.6157 Y14.4370
G01 X3.6240 Y14.4601
G01 X3.6282 Y14.4706
G01 X3.6437 Y14.5030
G01 X3.6641 Y14.5370
G01 X3.6877 Y14.5688
G01 X3.7091 Y14.5927
G01 X3.7198 Y14.6034
G01 X3.7408 Y14.6224
G01 X3.7496 Y14.6295
G01 X3.7693 Y14.6441
G01 X3.7787 Y14.6505
G01 X3.8030 Y14.6651
G01 X3.8129 Y14.6706
G01 X3.8385 Y14.6827
G01 X3.8489 Y14.6872
G01 X3.8791 Y14.6980
G01 X3.8900 Y14.7012
G01 X3.9212 Y14.7088
G01 X3.9529 Y14.7137
G01 X3.9642 Y14.7149
G01 X3.9924 Y14.7163
G01 X4.8460 Y14.7165
G01 X4.8460 Y14.9085
G01 X3.9579 Y14.9085
G01 X3.8797 Y14.9005
G01 X3.7464 Y14.8563
G01 X3.6278 Y14.7832
G01 X3.5293 Y14.6847
G01 X3.4562 Y14.5661
G01 X3.4120 Y14.4328
G01 X3.4040 Y14.3546
G01 X3.4040 Y14.1667
G00 Z2.0000
G00 X3.5048 Y14.3865
G01 F40.00
G01 Z-0.0400
G01 F90.00
G01 X3.5086 Y14.4102
G01 X3.5132 Y14.4296
G01 X3.5074 Y14.4123
G01 X3.5048 Y14.3865
G00 Z2.0000
G00 X3.5403 Y14.5115
G01 F40.00
G01 Z-0.0400
G01 F90.00
G01 X3.5421 Y14.5155
G01 X3.5525 Y14.5375
G01 X3.5447 Y14.5248
G01 X3.5403 Y14.5115
G00 Z2.0000
G00 X3.5972 Y14.6099
G01 F40.00
G01 Z-0.0400
G01 F90.00
G01 X3.6089 Y14.6255
G01 X3.6155 Y14.6337
G01 X3.6059 Y14.6241
G01 X3.5972 Y14.6099
G00 Z2.0000
G00 X3.6788 Y14.6970
G01 F40.00
G01 Z-0.0400
G01 F90.00
G01 X3.6870 Y14.7036
G01 X3.7026 Y14.7153
G01 X3.6884 Y14.7066
G01 X3.6788 Y14.6970
G00 Z2.0000
G00 X3.7750 Y14.7600
G01 F40.00
G01 Z-0.0400
G01 F90.00
G01 X3.7970 Y14.7704
G01 X3.8010 Y14.7722
G01 X3.7877 Y14.7678
G01 X3.7750 Y14.7600
G00 Z2.0000
G00 X3.8829 Y14.7993
G01 F40.00
G01 Z-0.0400
G01 F90.00
G01 X3.9023 Y14.8039
G01 X3.9260 Y14.8077
G01 X3.9002 Y14.8051
G01 X3.8829 Y14.7993
G00 Z2.0000
G00 X5.5570 Y14.6195
G01 F40.00
G01 Z-0.0400
G01 F90.00
G01 X6.5014 Y14.6195
G01 X6.5301 Y14.6181
G01 X6.5571 Y14.6141
G01 X6.5626 Y14.6130
G01 X6.5905 Y14.6059
G01 X6.6175 Y14.5962
G01 X6.6472 Y14.5819
G01 X6.6729 Y14.5662
G01 X6.6948 Y14.5499
G01 X6.7151 Y14.5315
G01 X6.7374 Y14.5073
G01 X6.7553 Y14.4831
G01 X6.7708 Y14.4572
G01 X6.7837 Y14.4300
G01 X6.7938 Y14.4016
G01 X6.8005 Y14.3751
G01 X6.8016 Y14.3696
G01 X6.8057 Y14.3412
G01 X6.8070 Y14.3125
G01 X6.8070 Y14.0697
G01 X7.1929 Y14.0697
G01 X7.1929 Y14.3596
G01 X7.1834 Y14.4532
G01 X7.1323 Y14.6073
G01 X7.0473 Y14.7452
G01 X6.9327 Y14.8598
G01 X6.7948 Y14.9448
G01 X6.6407 Y14.9959
G01 X6.5471 Y15.0055
G01 X5.5570 Y15.0055
G01 X5.5570 Y14.6195
G00 Z2.0000
G00 X5.6540 Y14.7165
G01 F40.00
G01 Z-0.0400
G01 F90.00
G01 X6.5038 Y14.7165
G01 X6.5396 Y14.7146
G01 X6.5788 Y14.7088
G01 X6.6173 Y14.6991
G01 X6.6511 Y14.6872
G01 X6.6615 Y14.6827
G01 X6.6905 Y14.6688
G01 X6.7213 Y14.6505
G01 X6.7307 Y14.6441
G01 X6.7534 Y14.6272
G01 X6.7620 Y14.6199
G01 X6.7802 Y14.6034
G01 X6.7883 Y14.5955
G01 X6.8099 Y14.5717
G01 X6.8170 Y14.5629
G01 X6.8316 Y14.5432
G01 X6.8400 Y14.5306
G01 X6.8545 Y14.5063
G01 X6.8597 Y14.4962
G01 X6.8733 Y14.4671
G01 X6.8866 Y14.4298
G01 X6.8963 Y14.3913
G01 X6.9017 Y14.3559
G01 X6.9026 Y14.3446
G01 X6.9040 Y14.3163
G01 X6.9040 Y14.1667
G01 X7.0960 Y14.1667
G01 X7.0960 Y14.3546
G01 X7.0880 Y14.4328
G01 X7.0438 Y14.5661
G01 X6.9707 Y14.6847
G01 X6.8722 Y14.7832
G01 X6.7536 Y14.8563
G01 X6.6203 Y14.9005
G01 X6.5421 Y14.9085
G01 X5.6540 Y14.9085
G01 X5.6540 Y14.7165
G00 Z2.0000
G00 X6.5740 Y14.8077
G01 F40.00
G01 Z-0.0400
G01 F90.00
G01 X6.5977 Y14.8039
G01 X6.6171 Y14.7993
G01 X6.5998 Y14.8051
G01 X6.5740 Y14.8077
G00 Z2.0000
G00 X6.6990 Y14.7722
G01 F40.00
G01 Z-0.0400
G01 F90.00
G01 X6.7030 Y14.7704
G01 X6.7250 Y14.7600
G01 X6.7123 Y14.7678
G01 X6.6990 Y14.7722
G00 Z2.0000
G00 X6.7974 Y14.7153
G01 F40.00
G01 Z-0.0400
G01 F90.00
G01 X6.8130 Y14.7036
G01 X6.8212 Y14.6970
G01 X6.8116 Y14.7066
G01 X6.7974 Y14.7153
G00 Z2.0000
G00 X6.8845 Y14.6337
G01 F40.00
G01 Z-0.0400
G01 F90.00
G01 X6.8911 Y14.6255
G01 X6.9028 Y14.6100
G01 X6.8941 Y14.6241
G01 X6.8845 Y14.6337
G00 Z2.0000
G00 X6.9475 Y14.5375
G01 F40.00
G01 Z-0.0400
G01 F90.00
G01 X6.9579 Y14.5155
G01 X6.9597 Y14.5115
G01 X6.9553 Y14.5248
G01 X6.9475 Y14.5375
G00 Z2.0000
G00 X6.9868 Y14.4296
G01 F40.00
G01 Z-0.0400
G01 F90.00
G01 X6.9914 Y14.4102
G01 X6.9952 Y14.3866
G01 X6.9926 Y14.4123
G01 X6.9868 Y14.4296
G00 Z2.0000
G00 X6.9869 Y13.0954
G01 F40.00
G01 Z-0.0400
G01 F90.00
G01 X6.9926 Y13.1127
G01 X6.9952 Y13.1385
G01 X6.9914 Y13.1148
G01 X6.9869 Y13.0954
G00 Z2.0000
G00 X6.9475 Y12.9875
G01 F40.00
G01 Z-0.0400
G01 F90.00
G01 X6.9553 Y13.0002
G01 X6.9597 Y13.0135
G01 X6.9579 Y13.0095
G01 X6.9475 Y12.9875
G00 Z2.0000
G00 X6.8845 Y12.8913
G01 F40.00
G01 Z-0.0400
G01 F90.00
G01 X6.8941 Y12.9009
G01 X6.9028 Y12.9150
G01 X6.8911 Y12.8995
G01 X6.8845 Y12.8913
G00 Z2.0000
G00 X6.7974 Y12.8097
G01 F40.00
G01 Z-0.0400
G01 F90.00
G01 X6.8116 Y12.8184
G01 X6.8212 Y12.8280
G01 X6.8130 Y12.8214
G01 X6.7974 Y12.8097
G00 Z2.0000
G00 X6.4496 Y12.3075
G01 F40.00
G01 Z-0.0400
G01 F90.00
G01 X6.4438 Y12.3288
G01 X6.4413 Y12.3395
G01 X6.4371 Y12.3612
G01 X6.4254 Y12.4413
G01 X6.4228 Y12.4633
G01 X6.4219 Y12.4743
G01 X6.4210 Y12.4964
G01 X6.4211 Y12.5175
G01 X5.0504 Y12.5175
G01 X5.0560 Y12.4967
G01 X5.0586 Y12.4860
G01 X5.0628 Y12.4643
G01 X5.0744 Y12.3842
G01 X5.0770 Y12.3622
G01 X5.0779 Y12.3512
G01 X5.0789 Y12.3291
G01 X5.0788 Y12.3075
G01 X6.4496 Y12.3075
G00 Z2.0000
G00 X6.3327 Y12.4045
G01 F40.00
G01 Z-0.0400
G01 F90.00
G01 X6.3304 Y12.4205
G01 X5.1672 Y12.4205
G01 X5.1695 Y12.4045
G01 X6.3327 Y12.4045
G00 Z2.0000
G00 X6.6104 Y12.2105
G01 F40.00
G01 Z-0.0400
G01 F90.00
G01 X6.5966 Y12.2278
G01 X6.5819 Y12.2492
G01 X6.5730 Y12.2640
G01 X6.5611 Y12.2870
G01 X6.5541 Y12.3028
G01 X6.5451 Y12.3271
G01 X6.5380 Y12.3520
G01 X6.5342 Y12.3689
G01 X6.5314 Y12.3860
G01 X6.5203 Y12.4637
G01 X6.5187 Y12.4809
G01 X6.5179 Y12.5068
G01 X6.5190 Y12.5327
G01 X6.5221 Y12.5584
G01 X6.5270 Y12.5839
G01 X6.5314 Y12.6006
G01 X6.5361 Y12.6159
G01 X6.5000 Y12.6145
G01 X4.8899 Y12.6145
G01 X4.9033 Y12.5977
G01 X4.9180 Y12.5763
G01 X4.9268 Y12.5615
G01 X4.9388 Y12.5385
G01 X4.9458 Y12.5227
G01 X4.9547 Y12.4984
G01 X4.9619 Y12.4735
G01 X4.9672 Y12.4481
G01 X4.9796 Y12.3618
G01 X4.9817 Y12.3360
G01 X4.9820 Y12.3187
G01 X4.9808 Y12.2928
G01 X4.9778 Y12.2671
G01 X4.9728 Y12.2416
G01 X4.9685 Y12.2249
G01 X4.9635 Y12.2091
G01 X5.0000 Y12.2105
G01 X6.6104 Y12.2105
G00 Z2.0000
G00 X6.9610 Y12.1135
G01 F40.00
G01 Z-0.0400
G01 F90.00
G01 X6.9411 Y12.1165
G01 X6.9237 Y12.1205
G01 X6.8509 Y12.1418
G01 X6.8331 Y12.1478
G01 X6.8159 Y12.1550
G01 X6.7992 Y12.1635
G01 X6.7833 Y12.1732
G01 X6.7681 Y12.1841
G01 X6.7537 Y12.1961
G01 X6.7446 Y12.2046
G01 X6.7360 Y12.2136
G01 X6.6861 Y12.2711
G01 X6.6744 Y12.2857
G01 X6.6638 Y12.3011
G01 X6.6574 Y12.3118
G01 X6.6515 Y12.3228
G01 X6.6438 Y12.3398
G01 X6.6393 Y12.3514
G01 X6.6354 Y12.3633
G01 X6.6307 Y12.3814
G01 X6.6274 Y12.3998
G01 X6.6166 Y12.4751
G01 X6.6151 Y12.4937
G01 X6.6149 Y12.5062
G01 X6.6153 Y12.5187
G01 X6.6170 Y12.5373
G01 X6.6201 Y12.5557
G01 X6.6230 Y12.5679
G01 X6.6264 Y12.5798
G01 X6.6304 Y12.5916
G01 X6.6350 Y12.6032
G01 X6.6666 Y12.6725
G01 X6.6719 Y12.6835
G01 X6.6778 Y12.6942
G01 X6.6875 Y12.7096
G01 X6.6947 Y12.7196
G01 X6.7023 Y12.7291
G01 X6.7103 Y12.7383
G01 X6.7188 Y12.7471
G01 X6.7323 Y12.7594
G01 X6.7670 Y12.7888
G01 X6.7362 Y12.7706
G01 X6.7030 Y12.7546
G01 X6.6860 Y12.7473
G01 X6.6454 Y12.7331
G01 X6.6038 Y12.7224
G01 X6.5856 Y12.7190
G01 X6.5491 Y12.7139
G01 X6.5062 Y12.7116
G01 X4.5431 Y12.7115
G01 X4.5587 Y12.7090
G01 X4.5762 Y12.7050
G01 X4.6490 Y12.6837
G01 X4.6667 Y12.6777
G01 X4.6840 Y12.6705
G01 X4.7006 Y12.6620
G01 X4.7166 Y12.6523
G01 X4.7318 Y12.6414
G01 X4.7415 Y12.6335
G01 X4.7507 Y12.6252
G01 X4.7638 Y12.6119
G01 X4.8137 Y12.5544
G01 X4.8254 Y12.5398
G01 X4.8326 Y12.5296
G01 X4.8393 Y12.5191
G01 X4.8455 Y12.5083
G01 X4.8511 Y12.4971
G01 X4.8561 Y12.4857
G01 X4.8606 Y12.4741
G01 X4.8662 Y12.4562
G01 X4.8691 Y12.4441
G01 X4.8725 Y12.4257
G01 X4.8832 Y12.3504
G01 X4.8848 Y12.3318
G01 X4.8849 Y12.3131
G01 X4.8842 Y12.3006
G01 X4.8829 Y12.2882
G01 X4.8809 Y12.2759
G01 X4.8784 Y12.2637
G01 X4.8735 Y12.2457
G01 X4.8694 Y12.2339
G01 X4.8648 Y12.2223
G01 X4.8333 Y12.1530
G01 X4.8279 Y12.1420
G01 X4.8221 Y12.1313
G01 X4.8123 Y12.1159
G01 X4.8052 Y12.1059
G01 X4.7976 Y12.0964
G01 X4.7896 Y12.0872
G01 X4.7811 Y12.0784
G01 X4.7676 Y12.0661
G01 X4.7295 Y12.0341
G01 X4.7638 Y12.0544
G01 X4.7970 Y12.0704
G01 X4.8140 Y12.0777
G01 X4.8546 Y12.0919
G01 X4.8962 Y12.1026
G01 X4.9144 Y12.1060
G01 X4.9509 Y12.1111
G01 X4.9938 Y12.1134
G01 X6.9610 Y12.1135
G00 Z2.0000
G00 X10.1236 Y12.0977
G01 F40.00
G01 Z-0.0400
G01 F90.00
G01 X10.0999 Y12.1056
G01 X10.0631 Y12.1093
G01 X10.0977 Y12.1039
G01 X10.1236 Y12.0977
G00 Z2.0000
G00 X10.2295 Y12.0578
G01 F40.00
G01 Z-0.0400
G01 F90.00
G01 X10.2125 Y12.0683
G01 X10.1941 Y12.0744
G01 X10.2030 Y12.0704
G01 X10.2295 Y12.0578
G00 Z2.0000
G00 X10.3268 Y11.9921
G01 F40.00
G01 Z-0.0400
G01 F90.00
G01 X10.3119 Y12.0070
G01 X10.2927 Y12.0188
G01 X10.3130 Y12.0036
G01 X10.3268 Y11.9921
G00 Z2.0000
G00 X10.5835 Y11.8636
G01 F40.00
G01 Z-0.0400
G01 F90.00
G01 X10.5647 Y11.8665
G01 X10.5473 Y11.8705
G01 X10.4686 Y11.8936
G01 X10.4569 Y11.8977
G01 X10.4455 Y11.9023
G01 X10.4343 Y11.9075
G01 X10.4234 Y11.9132
G01 X10.4076 Y11.9227
G01 X10.3925 Y11.9334
G01 X10.3644 Y11.9561
G01 X10.3833 Y11.9351
G01 X10.3949 Y11.9206
G01 X10.4166 Y11.8909
G01 X10.4332 Y11.8636
G01 X10.5835 Y11.8636
G00 Z2.0000
G00 X10.8814 Y11.9527
G01 F40.00
G01 Z-0.0400
G01 F90.00
G01 X10.8711 Y11.9448
G01 X10.8612 Y11.9381
G01 X10.8510 Y11.9319
G01 X10.8267 Y11.9186
G01 X10.8031 Y11.9035
G01 X10.7865 Y11.8943
G01 X10.7692 Y11.8863
G01 X10.7574 Y11.8817
G01 X10.7454 Y11.8778
G01 X10.7153 Y11.8701
G01 X10.6971 Y11.8670
G01 X10.6667 Y11.8636
G01 X10.7924 Y11.8636
G01 X10.8814 Y11.9527
G00 Z2.0000
G00 X11.0394 Y10.8630
G01 F40.00
G01 Z-0.0400
G01 F90.00
G01 X11.0492 Y10.8630
G01 X11.0588 Y10.8649
G01 X11.0491 Y10.8638
G01 X11.0394 Y10.8630
G00 Z2.0000
G00 X11.1361 Y10.8803
G01 F40.00
G01 Z-0.0400
G01 F90.00
G01 X11.1642 Y10.8858
G01 X11.1819 Y10.8883
G01 X11.1938 Y10.8892
G01 X11.2058 Y10.8895
G01 X11.2237 Y10.8890
G01 X11.2992 Y10.8823
G01 X11.3178 Y10.8800
G01 X11.3300 Y10.8776
G01 X11.3421 Y10.8747
G01 X11.3541 Y10.8711
G01 X11.3658 Y10.8670
G01 X11.3831 Y10.8597
G01 X11.3942 Y10.8542
G01 X11.4051 Y10.8481
G01 X11.4157 Y10.8414
G01 X11.4308 Y10.8305
G01 X11.4860 Y10.7877
G01 X11.5003 Y10.7757
G01 X11.5137 Y10.7626
G01 X11.5221 Y10.7534
G01 X11.5300 Y10.7437
G01 X11.5410 Y10.7286
G01 X11.5476 Y10.7180
G01 X11.5537 Y10.7072
G01 X11.5593 Y10.6960
G01 X11.5643 Y10.6846
G01 X11.5687 Y10.6729
G01 X11.5920 Y10.6071
G01 X11.5958 Y10.5952
G01 X11.6005 Y10.5771
G01 X11.6038 Y10.5587
G01 X11.6057 Y10.5401
G01 X11.6063 Y10.5276
G01 X11.6062 Y10.5152
G01 X11.6054 Y10.5027
G01 X11.6041 Y10.4903
G01 X11.6009 Y10.4719
G01 X11.5835 Y10.3978
G01 X11.5804 Y10.3860
G01 X11.5767 Y10.3743
G01 X11.5725 Y10.3629
G01 X11.5677 Y10.3516
G01 X11.5595 Y10.3352
G01 X11.5534 Y10.3246
G01 X11.5427 Y10.3079
G01 X11.5312 Y10.2915
G01 X11.5410 Y10.3030
G01 X11.6069 Y10.3757
G01 X11.6154 Y10.3846
G01 X11.6243 Y10.3931
G01 X11.6970 Y10.4590
G01 X11.7064 Y10.4671
G01 X11.7161 Y10.4746
G01 X11.7999 Y10.5367
G01 X11.8154 Y10.5468
G01 X11.8996 Y10.5972
G01 X11.9157 Y10.6061
G01 X12.0156 Y10.6534
G01 X12.0328 Y10.6602
G01 X12.0696 Y10.6734
G01 X11.9913 Y10.6481
G01 X11.9737 Y10.6435
G01 X11.9558 Y10.6402
G01 X11.9376 Y10.6382
G01 X11.8641 Y10.6332
G01 X11.8519 Y10.6332
G01 X11.8396 Y10.6338
G01 X11.8274 Y10.6351
G01 X11.8153 Y10.6369
G01 X11.8033 Y10.6393
G01 X11.7914 Y10.6422
G01 X11.7797 Y10.6458
G01 X11.7624 Y10.6522
G01 X11.7457 Y10.6598
G01 X11.6833 Y10.6911
G01 X11.6723 Y10.6970
G01 X11.6616 Y10.7034
G01 X11.6512 Y10.7103
G01 X11.6412 Y10.7178
G01 X11.6316 Y10.7257
G01 X11.6224 Y10.7341
G01 X11.6136 Y10.7429
G01 X11.6012 Y10.7570
G01 X11.5900 Y10.7719
G01 X11.5798 Y10.7876
G01 X11.5411 Y10.8531
G01 X11.5353 Y10.8642
G01 X11.5301 Y10.8755
G01 X11.5254 Y10.8870
G01 X11.5213 Y10.8988
G01 X11.5177 Y10.9107
G01 X11.5148 Y10.9229
G01 X11.5125 Y10.9351
G01 X11.5108 Y10.9475
G01 X11.5097 Y10.9599
G01 X11.5092 Y10.9723
G01 X11.5094 Y10.9848
G01 X11.5119 Y11.0546
G01 X11.5127 Y11.0670
G01 X11.5141 Y11.0793
G01 X11.5160 Y11.0915
G01 X11.5201 Y11.1096
G01 X11.5235 Y11.1214
G01 X11.5276 Y11.1331
G01 X11.5322 Y11.1446
G01 X11.5373 Y11.1558
G01 X11.5431 Y11.1668
G01 X11.5493 Y11.1775
G01 X11.5827 Y11.2313
G01 X11.5900 Y11.2420
G01 X11.5961 Y11.2499
G01 X11.3544 Y11.0081
G01 X11.3273 Y10.9832
G01 X11.3179 Y10.9751
G01 X11.2885 Y10.9529
G01 X11.2784 Y10.9458
G01 X11.2470 Y10.9266
G01 X11.2362 Y10.9205
G01 X11.2252 Y10.9150
G01 X11.1918 Y10.8995
G01 X11.1572 Y10.8868
G01 X11.1361 Y10.8803
G00 Z2.0000
G00 X11.4515 Y10.1818
G01 F40.00
G01 Z-0.0400
G01 F90.00
G01 X11.4318 Y10.1546
G01 X11.4122 Y10.1161
G01 X11.4515 Y10.1818
G00 Z2.0000
G00 X11.3659 Y10.0254
G01 F40.00
G01 Z-0.0400
G01 F90.00
G01 X11.3425 Y9.9794
G01 X11.3266 Y9.9304
G01 X11.3442 Y9.9787
G01 X11.3659 Y10.0254
G00 Z2.0000
G00 X10.3845 Y9.9337
G01 F40.00
G01 Z-0.0400
G01 F90.00
G01 X10.3911 Y9.9255
G01 X10.4028 Y9.9100
G01 X10.3941 Y9.9241
G01 X10.3845 Y9.9337
G00 Z2.0000
G00 X10.2974 Y10.0153
G01 F40.00
G01 Z-0.0400
G01 F90.00
G01 X10.3130 Y10.0036
G01 X10.3212 Y9.9970
G01 X10.3116 Y10.0066
G01 X10.2974 Y10.0153
G00 Z2.0000
G00 X10.2927 Y10.7062
G01 F40.00
G01 Z-0.0400
G01 F90.00
G01 X10.3119 Y10.7180
G01 X10.3268 Y10.7329
G01 X10.3130 Y10.7214
G01 X10.2927 Y10.7062
G00 Z2.0000
G00 X10.3679 Y10.7728
G01 F40.00
G01 Z-0.0400
G01 F90.00
G01 X10.3830 Y10.7848
G01 X10.3926 Y10.7919
G01 X10.4026 Y10.7985
G01 X10.4128 Y10.8046
G01 X10.4234 Y10.8102
G01 X10.4341 Y10.8154
G01 X10.4557 Y10.8241
G01 X10.4710 Y10.8324
G01 X10.4877 Y10.8402
G01 X10.4992 Y10.8447
G01 X10.5109 Y10.8487
G01 X10.5287 Y10.8536
G01 X10.5468 Y10.8571
G01 X10.5771 Y10.8614
G01 X10.4332 Y10.8614
G01 X10.4199 Y10.8393
G01 X10.4095 Y10.8241
G01 X10.3873 Y10.7947
G01 X10.3679 Y10.7728
G00 Z2.0000
G00 X12.1664 Y10.7049
G01 F40.00
G01 Z-0.0400
G01 F90.00
G01 X12.2407 Y10.7235
G01 X12.2075 Y10.7182
G01 X12.1664 Y10.7049
G00 Z2.0000
G00 X12.3746 Y10.7447
G01 F40.00
G01 Z-0.0400
G01 F90.00
G01 X12.3897 Y10.7459
G01 X12.4523 Y10.7490
G01 X12.4017 Y10.7490
G01 X12.3746 Y10.7447
G00 Z2.0000
G00 X12.5477 Y10.7490
G01 F40.00
G01 Z-0.0400
G01 F90.00
G01 X12.6103 Y10.7459
G01 X12.6254 Y10.7447
G01 X12.5983 Y10.7490
G01 X12.5477 Y10.7490
G00 Z2.0000
G00 X12.7593 Y10.7235
G01 F40.00
G01 Z-0.0400
G01 F90.00
G01 X12.8336 Y10.7049
G01 X12.7925 Y10.7182
G01 X12.7593 Y10.7235
G00 Z2.0000
G00 X12.9304 Y10.6734
G01 F40.00
G01 Z-0.0400
G01 F90.00
G01 X12.9558 Y10.6643
G01 X12.9564 Y10.6650
G01 X12.9304 Y10.6734
G00 Z2.0000
G00 X13.4323 Y9.9981
G01 F40.00
G01 Z-0.0400
G01 F90.00
G01 X13.4755 Y9.9071
G01 X13.4776 Y9.9019
G01 X13.5115 Y9.8068
G01 X13.5361 Y9.7090
G01 X13.5372 Y9.7035
G01 X13.5520 Y9.6036
G01 X13.5570 Y9.5000
G01 X13.5520 Y9.3964
G01 X13.5372 Y9.2965
G01 X13.5361 Y9.2910
G01 X13.5115 Y9.1932
G01 X13.4776 Y9.0981
G01 X13.4755 Y9.0929
G01 X13.4323 Y9.0019
G01 X13.7158 Y8.7185
G01 X13.7341 Y8.7437
G01 X13.8372 Y8.9461
G01 X13.9074 Y9.1621
G01 X13.9430 Y9.3864
G01 X13.9430 Y9.6136
G01 X13.9074 Y9.8379
G01 X13.8372 Y10.0539
G01 X13.7341 Y10.2563
G01 X13.7158 Y10.2815
G01 X13.4323 Y9.9981
G00 Z2.0000
G00 X13.5493 Y9.9779
G01 F40.00
G01 Z-0.0400
G01 F90.00
G01 X13.5631 Y9.9485
G01 X13.5676 Y9.9381
G01 X13.6032 Y9.8386
G01 X13.6064 Y9.8277
G01 X13.6311 Y9.7288
G01 X13.6332 Y9.7177
G01 X13.6485 Y9.6131
G01 X13.6540 Y9.5000
G01 X13.6485 Y9.3869
G01 X13.6332 Y9.2823
G01 X13.6311 Y9.2712
G01 X13.6064 Y9.1723
G01 X13.6032 Y9.1614
G01 X13.5676 Y9.0619
G01 X13.5631 Y9.0515
G01 X13.5493 Y9.0221
G01 X13.6936 Y8.8778
G01 X13.7474 Y8.9833
