(G-CODE GENERATED BY FLATCAM v8.994 - www.flatcam.org - Version Date: 2020/11/7)

(Name: Photoeye PCB_V1-F_Cu.gbr_iso_combined_cnc)
(Type: G-code from Geometry)
(Units: MM)

(Created on Tuesday, 10 March 2026 at 16:45)

(This preprocessor is the default preprocessor used by FlatCAM.)
(It is made to work with MACH3 compatible motion controllers.)

(TOOL DIAMETER: 0.1141 mm)
(Feedrate_XY: 80.0 mm/min)
(Feedrate_Z: 30.0 mm/min)
(Feedrate rapids 1500.0 mm/min)

(Z_Cut: -0.04 mm)
(Z_Move: 2.0 mm)
(Z Start: None mm)
(Z End: 20.0 mm)
(X,Y End: None mm)
(Steps per circle: 64)
(Preprocessor Geometry: default)

(X range:   -0.0129 ...   50.0129  mm)
(Y range:   -0.0129 ...   20.0129  mm)

(Spindle Speed: 10000.0 RPM)
G21
G90
G94

G01 F80.00

M5
G00 Z15.0000
G00 X0.0000 Y0.0000
T2
M6    
(MSG, Change to Tool Dia = 0.1141)
M0
G00 Z15.0000

M03 S10000.0
G01 F80.00
G00 X3.4896 Y4.4728
G01 F30.00
G01 Z-0.0400
G01 F80.00
G01 X3.4896 Y4.3747
G01 X3.4962 Y4.3103
G01 X3.5343 Y4.1953
G01 X3.5969 Y4.0938
G01 X3.6813 Y4.0094
G01 X3.7828 Y3.9468
G01 X3.8978 Y3.9087
G01 X3.9622 Y3.9021
G01 X4.7604 Y3.9021
G01 X4.7604 Y3.9229
G01 X4.0000 Y3.9229
G01 X3.9579 Y3.9247
G01 X3.9462 Y3.9259
G01 X3.9161 Y3.9303
G01 X3.9045 Y3.9323
G01 X3.8930 Y3.9349
G01 X3.8635 Y3.9423
G01 X3.8523 Y3.9457
G01 X3.8236 Y3.9559
G01 X3.8072 Y3.9625
G01 X3.7692 Y3.9807
G01 X3.7379 Y3.9991
G01 X3.7231 Y4.0087
G01 X3.6894 Y4.0340
G01 X3.6623 Y4.0582
G01 X3.6538 Y4.0663
G01 X3.6292 Y4.0930
G01 X3.6215 Y4.1019
G01 X3.6143 Y4.1112
G01 X3.5962 Y4.1356
G01 X3.5897 Y4.1454
G01 X3.5682 Y4.1817
G01 X3.5629 Y4.1922
G01 X3.5477 Y4.2251
G01 X3.5352 Y4.2592
G01 X3.5315 Y4.2704
G01 X3.5224 Y4.3055
G01 X3.5198 Y4.3170
G01 X3.5178 Y4.3286
G01 X3.5134 Y4.3587
G01 X3.5122 Y4.3704
G01 X3.5105 Y4.4066
G01 X3.5104 Y4.4728
G01 X3.4896 Y4.4728
G00 Z2.0000
G00 X3.3983 Y4.5640
G01 F30.00
G01 Z-0.0400
G01 F80.00
G01 X3.3983 Y4.3701
G01 X3.4064 Y4.2910
G01 X3.4510 Y4.1565
G01 X3.5248 Y4.0368
G01 X3.6243 Y3.9373
G01 X3.7440 Y3.8635
G01 X3.8785 Y3.8189
G01 X3.9576 Y3.8108
G01 X4.8517 Y3.8108
G01 X4.8517 Y4.0142
G01 X3.9927 Y4.0143
G01 X3.9646 Y4.0158
G01 X3.9537 Y4.0170
G01 X3.9223 Y4.0218
G01 X3.8914 Y4.0294
G01 X3.8809 Y4.0324
G01 X3.8509 Y4.0431
G01 X3.8409 Y4.0474
G01 X3.8155 Y4.0595
G01 X3.8059 Y4.0648
G01 X3.7818 Y4.0793
G01 X3.7727 Y4.0855
G01 X3.7530 Y4.1001
G01 X3.7445 Y4.1069
G01 X3.7236 Y4.1258
G01 X3.7133 Y4.1361
G01 X3.6921 Y4.1598
G01 X3.6688 Y4.1912
G01 X3.6487 Y4.2247
G01 X3.6320 Y4.2601
G01 X3.6188 Y4.2969
G01 X3.6109 Y4.3277
G01 X3.6081 Y4.3420
G01 X3.6036 Y4.3735
G01 X3.6017 Y4.4125
G01 X3.6017 Y4.5640
G01 X3.3983 Y4.5640
G00 Z2.0000
G00 X3.3071 Y4.6553
G01 F30.00
G01 Z-0.0400
G01 F80.00
G01 X3.3071 Y4.3654
G01 X3.3166 Y4.2718
G01 X3.3677 Y4.1177
G01 X3.4527 Y3.9798
G01 X3.5673 Y3.8652
G01 X3.7051 Y3.7802
G01 X3.8593 Y3.7291
G01 X3.9529 Y3.7196
G01 X4.9429 Y3.7196
G01 X4.9429 Y4.1054
G01 X3.9986 Y4.1055
G01 X3.9699 Y4.1069
G01 X3.9429 Y4.1109
G01 X3.9374 Y4.1120
G01 X3.9095 Y4.1191
G01 X3.8825 Y4.1288
G01 X3.8528 Y4.1431
G01 X3.8271 Y4.1588
G01 X3.8052 Y4.1751
G01 X3.7849 Y4.1935
G01 X3.7626 Y4.2177
G01 X3.7447 Y4.2419
G01 X3.7292 Y4.2678
G01 X3.7163 Y4.2950
G01 X3.7062 Y4.3234
G01 X3.6995 Y4.3499
G01 X3.6984 Y4.3554
G01 X3.6943 Y4.3838
G01 X3.6930 Y4.4125
G01 X3.6930 Y4.6553
G01 X3.3071 Y4.6553
G00 Z2.0000
G00 X3.3070 Y5.2697
G01 F30.00
G01 Z-0.0400
G01 F80.00
G01 X3.6930 Y5.2697
G01 X3.6930 Y5.5125
G01 X3.6943 Y5.5412
G01 X3.6984 Y5.5696
G01 X3.6995 Y5.5751
G01 X3.7062 Y5.6016
G01 X3.7169 Y5.6313
G01 X3.7306 Y5.6597
G01 X3.7447 Y5.6831
G01 X3.7609 Y5.7051
G01 X3.7829 Y5.7296
G01 X3.8052 Y5.7499
G01 X3.8318 Y5.7693
G01 X3.8553 Y5.7833
G01 X3.8799 Y5.7950
G01 X3.9109 Y5.8063
G01 X3.9415 Y5.8139
G01 X3.9699 Y5.8181
G01 X4.0000 Y5.8195
G01 X6.5000 Y5.8195
G01 X6.5329 Y5.8177
G01 X6.5599 Y5.8137
G01 X6.5864 Y5.8071
G01 X6.6175 Y5.7962
G01 X6.6472 Y5.7819
G01 X6.6706 Y5.7678
G01 X6.6926 Y5.7516
G01 X6.7171 Y5.7296
G01 X6.7391 Y5.7051
G01 X6.7553 Y5.6831
G01 X6.7701 Y5.6585
G01 X6.7837 Y5.6300
G01 X6.7938 Y5.6016
G01 X6.8012 Y5.5724
G01 X6.8056 Y5.5426
G01 X6.8070 Y5.5125
G01 X6.8070 Y5.2695
G01 X7.1929 Y5.2695
G01 X7.1929 Y5.5596
G01 X7.1834 Y5.6532
G01 X7.1498 Y5.7544
G01 X7.0725 Y5.9054
G01 X7.0702 Y5.9104
G01 X7.0675 Y5.9195
G01 X7.0620 Y5.9483
G01 X7.0539 Y5.9780
G01 X7.0528 Y5.9850
G01 X7.0526 Y5.9921
G01 X7.0535 Y6.0064
G01 X7.0554 Y6.0161
G01 X7.0677 Y6.0474
G01 X7.0770 Y6.0767
G01 X7.0799 Y6.0832
G01 X7.0827 Y6.0881
G01 X7.0911 Y6.0997
G01 X7.0958 Y6.1050
G01 X7.1022 Y6.1106
G01 X7.1261 Y6.1276
G01 X7.1498 Y6.1473
G01 X7.1544 Y6.1504
G01 X7.1593 Y6.1531
G01 X7.1741 Y6.1590
G01 X7.1809 Y6.1610
G01 X7.1879 Y6.1621
G01 X7.1963 Y6.1625
G01 X7.2278 Y6.1688
G01 X7.2336 Y6.1691
G01 X10.0555 Y6.1691
G01 X10.1670 Y6.1790
G01 X10.3518 Y6.2318
G01 X10.5219 Y6.3207
G01 X10.5925 Y6.3783
G01 X10.5969 Y6.3815
G01 X10.6016 Y6.3843
G01 X10.6065 Y6.3867
G01 X10.6748 Y6.4153
G01 X10.6801 Y6.4168
G01 X10.6856 Y6.4178
G01 X10.7053 Y6.4190
G01 X14.5929 Y6.4190
G01 X14.7752 Y6.4553
G01 X14.9469 Y6.5264
G01 X15.1014 Y6.6297
G01 X15.7528 Y7.2810
G01 X15.7580 Y7.2854
G01 X15.7636 Y7.2892
G01 X15.8274 Y7.3240
G01 X15.8326 Y7.3263
G01 X15.8379 Y7.3281
G01 X15.8434 Y7.3294
G01 X15.8491 Y7.3301
G01 X15.8576 Y7.3301
G01 X15.9287 Y7.3250
G01 X15.9384 Y7.3232
G01 X15.9464 Y7.3204
G01 X15.9514 Y7.3178
G01 X15.9562 Y7.3147
G01 X16.0155 Y7.2703
G01 X16.0207 Y7.2654
G01 X16.0252 Y7.2600
G01 X16.0290 Y7.2540
G01 X16.0320 Y7.2476
G01 X16.0575 Y7.1795
G01 X16.0594 Y7.1726
G01 X16.0602 Y7.1670
G01 X16.0606 Y7.1599
G01 X16.0592 Y7.1289
G01 X16.0570 Y7.1136
G01 X16.0570 Y6.8864
G01 X16.0926 Y6.6621
G01 X16.1628 Y6.4461
G01 X16.2659 Y6.2437
G01 X16.2842 Y6.2185
G01 X16.5677 Y6.5019
G01 X16.5234 Y6.5955
G01 X16.4893 Y6.6905
G01 X16.4877 Y6.6959
G01 X16.4633 Y6.7938
G01 X16.4484 Y6.8936
G01 X16.4478 Y6.8992
G01 X16.4430 Y7.0000
G01 X16.4478 Y7.1008
G01 X16.4484 Y7.1064
G01 X16.4633 Y7.2062
G01 X16.4877 Y7.3041
G01 X16.4893 Y7.3095
G01 X16.5234 Y7.4045
G01 X16.5665 Y7.4958
G01 X16.5691 Y7.5007
G01 X16.6219 Y7.5884
G01 X16.6829 Y7.6706
G01 X16.7506 Y7.7454
G01 X16.7546 Y7.7494
G01 X16.8294 Y7.8171
G01 X16.9104 Y7.8773
G01 X16.9151 Y7.8804
G01 X17.0017 Y7.9322
G01 X17.0929 Y7.9755
G01 X17.0981 Y7.9776
G01 X17.1932 Y8.0115
G01 X17.2910 Y8.0361
G01 X17.2965 Y8.0372
G01 X17.3964 Y8.0520
G01 X17.4972 Y8.0570
G01 X17.5028 Y8.0570
G01 X17.6036 Y8.0520
G01 X17.7062 Y8.0367
G01 X17.8041 Y8.0123
G01 X17.8095 Y8.0107
G01 X17.9019 Y7.9776
G01 X17.9071 Y7.9755
G01 X17.9983 Y7.9322
G01 X18.0849 Y7.8804
G01 X18.0896 Y7.8773
G01 X18.1706 Y7.8171
G01 X18.2474 Y7.7474
G01 X18.3171 Y7.6706
G01 X18.3789 Y7.5873
G01 X18.4309 Y7.5007
G01 X18.4335 Y7.4958
G01 X18.4766 Y7.4045
G01 X18.5107 Y7.3095
G01 X18.5123 Y7.3041
G01 X18.5367 Y7.2062
G01 X18.5516 Y7.1064
G01 X18.5522 Y7.1008
G01 X18.5570 Y7.0000
G01 X18.5522 Y6.8992
G01 X18.5516 Y6.8936
G01 X18.5367 Y6.7938
G01 X18.5123 Y6.6959
G01 X18.5107 Y6.6905
G01 X18.4766 Y6.5955
G01 X18.4323 Y6.5019
G01 X18.7158 Y6.2185
G01 X18.7307 Y6.2389
G01 X18.7372 Y6.2458
G01 X18.7968 Y6.2919
G01 X18.8015 Y6.2950
G01 X18.8066 Y6.2976
G01 X18.8159 Y6.3010
G01 X18.8242 Y6.3026
G01 X18.8967 Y6.3088
G01 X18.9066 Y6.3085
G01 X18.9163 Y6.3065
G01 X18.9255 Y6.3029
G01 X18.9898 Y6.2690
G01 X18.9946 Y6.2660
G01 X19.0001 Y6.2616
G01 X19.0060 Y6.2554
G01 X19.0109 Y6.2485
G01 X19.0473 Y6.1839
G01 X19.0505 Y6.1760
G01 X19.0526 Y6.1677
G01 X19.0565 Y6.1316
G01 X19.0565 Y5.4071
G01 X19.0928 Y5.2248
G01 X19.1639 Y5.0531
G01 X19.2672 Y4.8986
G01 X20.5361 Y3.6297
G01 X20.6906 Y3.5264
G01 X20.6985 Y3.5230
G01 X20.7055 Y3.5189
G01 X20.7631 Y3.4726
G01 X20.7674 Y3.4688
G01 X20.7712 Y3.4646
G01 X20.7769 Y3.4565
G01 X20.7810 Y3.4475
G01 X20.8036 Y3.3799
G01 X20.8054 Y3.3729
G01 X20.8065 Y3.3629
G01 X20.8065 Y3.3154
G01 X20.8161 Y3.2217
G01 X20.8672 Y3.0674
G01 X20.9523 Y2.9295
G01 X21.0670 Y2.8148
G01 X21.2049 Y2.7297
G01 X21.3592 Y2.6786
G01 X21.4529 Y2.6690
G01 X22.7856 Y2.6690
G01 X22.7923 Y2.6685
G01 X22.7990 Y2.6671
G01 X22.8713 Y2.6457
G01 X22.8789 Y2.6422
G01 X22.8848 Y2.6384
G01 X22.9077 Y2.6201
G01 X22.9122 Y2.6160
G01 X23.5711 Y1.9572
G01 X23.7256 Y1.8539
G01 X23.8973 Y1.7828
G01 X24.0796 Y1.7466
G01 X36.2829 Y1.7466
G01 X36.4652 Y1.7828
G01 X36.5728 Y1.8274
G01 X36.5845 Y1.8311
G01 X36.5938 Y1.8327
G01 X36.6248 Y1.8333
G01 X36.6375 Y1.8347
G01 X36.6472 Y1.8367
G01 X36.6528 Y1.8370
G01 X36.6584 Y1.8368
G01 X36.8890 Y1.8065
G01 X37.1110 Y1.8065
G01 X37.3311 Y1.8355
G01 X37.5455 Y1.8930
G01 X37.7506 Y1.9779
G01 X37.9428 Y2.0889
G01 X38.1190 Y2.2241
G01 X38.2759 Y2.3810
G01 X38.4111 Y2.5572
G01 X38.5221 Y2.7494
G01 X38.6070 Y2.9545
G01 X38.6645 Y3.1689
G01 X38.6935 Y3.3890
G01 X38.6935 Y3.6110
G01 X38.6645 Y3.8311
G01 X38.6070 Y4.0455
G01 X38.5221 Y4.2506
G01 X38.4111 Y4.4428
G01 X38.2759 Y4.6190
G01 X38.2021 Y4.6928
G01 X35.7979 Y4.6928
G01 X35.7241 Y4.6190
G01 X35.5889 Y4.4429
G01 X35.4779 Y4.2506
G01 X35.3930 Y4.0455
G01 X35.3355 Y3.8311
G01 X35.3300 Y3.7895
G01 X35.3286 Y3.7829
G01 X35.3258 Y3.7752
G01 X35.2976 Y3.7113
G01 X35.2943 Y3.7051
G01 X35.2912 Y3.7003
G01 X35.2876 Y3.6960
G01 X35.2835 Y3.6920
G01 X35.2791 Y3.6884
G01 X35.2185 Y3.6483
G01 X35.2138 Y3.6455
G01 X35.2062 Y3.6422
G01 X35.1982 Y3.6400
G01 X35.1592 Y3.6341
G01 X35.1507 Y3.6335
G01 X30.7370 Y3.6335
G01 X30.7316 Y3.6340
G01 X30.7249 Y3.6354
G01 X30.6539 Y3.6563
G01 X30.6474 Y3.6591
G01 X30.6412 Y3.6626
G01 X30.6356 Y3.6668
G01 X30.6305 Y3.6718
G01 X30.5829 Y3.7267
G01 X30.5787 Y3.7324
G01 X30.5753 Y3.7386
G01 X30.5727 Y3.7452
G01 X30.5707 Y3.7535
G01 X30.5603 Y3.8254
G01 X30.5599 Y3.8309
G01 X30.5601 Y3.8365
G01 X30.5608 Y3.8420
G01 X30.5620 Y3.8474
G01 X30.5809 Y3.9005
G01 X30.5848 Y3.9082
G01 X30.6156 Y3.9592
G01 X30.6623 Y4.1091
G01 X30.6680 Y4.1710
G01 X30.6680 Y4.1930
G01 X30.2799 Y4.1930
G01 X30.2771 Y4.1749
G01 X30.2710 Y4.1504
G01 X30.2625 Y4.1266
G01 X30.2523 Y4.1051
G01 X30.2402 Y4.0846
G01 X30.2371 Y4.0799
G01 X30.2237 Y4.0619
G01 X30.2068 Y4.0432
G01 X30.1881 Y4.0263
G01 X30.1701 Y4.0129
G01 X30.1486 Y3.9997
G01 X30.1437 Y3.9970
G01 X30.1234 Y3.9875
G01 X30.0996 Y3.9790
G01 X30.0751 Y3.9729
G01 X30.0530 Y3.9695
G01 X30.0250 Y3.9680
G01 X29.6250 Y3.9680
G01 X29.5998 Y3.9692
G01 X29.5721 Y3.9735
G01 X29.5504 Y3.9790
G01 X29.5266 Y3.9875
G01 X29.5038 Y3.9983
G01 X29.4846 Y4.0098
G01 X29.4799 Y4.0129
G01 X29.4609 Y4.0272
G01 X29.4432 Y4.0432
G01 X29.4263 Y4.0619
G01 X29.4113 Y4.0822
G01 X29.3983 Y4.1038
G01 X29.3875 Y4.1266
G01 X29.3790 Y4.1504
G01 X29.3729 Y4.1749
G01 X29.3695 Y4.1970
G01 X29.3680 Y4.2250
G01 X29.3680 Y4.6976
G01 X28.3971 Y5.6685
G01 X27.9224 Y5.6685
G01 X27.8169 Y5.6591
G01 X27.6419 Y5.6090
G01 X27.4808 Y5.5249
G01 X27.3400 Y5.4100
G01 X27.3086 Y5.3715
G01 X27.3049 Y5.3676
G01 X27.3008 Y5.3640
G01 X27.2375 Y5.3205
G01 X27.2326 Y5.3178
G01 X27.2274 Y5.3156
G01 X27.2221 Y5.3139
G01 X27.2166 Y5.3128
G01 X27.1766 Y5.3064
G01 X27.1691 Y5.3060
G01 X26.4985 Y5.3060
G01 X26.4918 Y5.3065
G01 X26.4851 Y5.3079
G01 X26.4168 Y5.3279
G01 X26.4091 Y5.3308
G01 X26.4018 Y5.3348
G01 X26.3942 Y5.3407
G01 X26.3629 Y5.3695
G01 X26.3580 Y5.3746
G01 X26.2759 Y5.4815
G01 X26.1229 Y5.6345
G01 X26.1193 Y5.6385
G01 X26.1160 Y5.6428
G01 X26.0790 Y5.7101
G01 X26.0762 Y5.7165
G01 X26.0742 Y5.7233
G01 X26.0730 Y5.7303
G01 X26.0728 Y5.7388
G01 X26.0783 Y5.8142
G01 X26.0794 Y5.8197
G01 X26.0811 Y5.8252
G01 X26.0853 Y5.8342
G01 X26.1153 Y5.8810
G01 X26.1193 Y5.8865
G01 X26.1229 Y5.8905
G01 X26.2759 Y6.0435
G01 X26.4111 Y6.2197
G01 X26.5221 Y6.4119
G01 X26.6070 Y6.6170
G01 X26.6645 Y6.8314
G01 X26.6935 Y7.0515
G01 X26.6935 Y7.2735
G01 X26.6785 Y7.3871
G01 X25.2246 Y8.8410
G01 X25.1110 Y8.8560
G01 X24.8890 Y8.8560
G01 X24.6689 Y8.8270
G01 X24.4545 Y8.7695
G01 X24.2494 Y8.6846
G01 X24.0571 Y8.5736
G01 X23.8810 Y8.4384
G01 X23.8750 Y8.4326
G01 X23.8685 Y8.4278
G01 X23.7999 Y8.3903
G01 X23.7946 Y8.3882
G01 X23.7892 Y8.3867
G01 X23.7822 Y8.3855
G01 X23.7765 Y8.3852
G01 X23.6998 Y8.3906
G01 X23.6941 Y8.3916
G01 X23.6886 Y8.3931
G01 X23.6833 Y8.3952
G01 X23.6783 Y8.3978
G01 X23.6281 Y8.4301
G01 X23.6239 Y8.4335
G01 X23.6190 Y8.4384
G01 X23.4429 Y8.5736
G01 X23.2506 Y8.6846
G01 X23.0455 Y8.7695
G01 X22.8311 Y8.8270
G01 X22.6110 Y8.8560
G01 X22.3890 Y8.8560
G01 X22.1689 Y8.8270
G01 X22.1411 Y8.8195
G01 X22.1344 Y8.8183
G01 X22.1263 Y8.8179
G01 X22.0550 Y8.8197
G01 X22.0493 Y8.8202
G01 X22.0438 Y8.8213
G01 X22.0370 Y8.8235
G01 X22.0318 Y8.8258
G01 X21.9782 Y8.8584
G01 X21.9715 Y8.8631
G01 X21.9675 Y8.8667
G01 X20.4035 Y10.4308
G01 X20.3990 Y10.4358
G01 X20.3944 Y10.4426
G01 X20.3603 Y10.5051
G01 X20.3568 Y10.5128
G01 X20.3551 Y10.5182
G01 X20.3539 Y10.5238
G01 X20.3533 Y10.5337
G01 X20.3585 Y10.6076
G01 X20.3596 Y10.6146
G01 X20.3616 Y10.6214
G01 X20.3651 Y10.6291
G01 X20.3688 Y10.6352
G01 X20.4124 Y10.6934
G01 X20.4181 Y10.6996
G01 X20.4247 Y10.7050
G01 X20.4295 Y10.7080
G01 X20.4359 Y10.7110
G01 X20.5027 Y10.7359
G01 X20.5109 Y10.7383
G01 X20.5193 Y10.7394
G01 X20.5264 Y10.7394
G01 X20.5348 Y10.7382
G01 X20.6044 Y10.7230
G01 X20.6112 Y10.7209
G01 X20.6165 Y10.7186
G01 X20.6369 Y10.7060
G01 X20.7437 Y10.6284
G01 X20.9461 Y10.5253
G01 X21.1621 Y10.4551
G01 X21.3864 Y10.4195
G01 X21.6136 Y10.4195
G01 X21.8379 Y10.4551
G01 X22.0539 Y10.5253
G01 X22.2563 Y10.6284
G01 X22.2815 Y10.6467
G01 X21.9981 Y10.9302
G01 X21.9045 Y10.8859
G01 X21.8095 Y10.8518
G01 X21.8041 Y10.8502
G01 X21.7090 Y10.8264
G01 X21.7035 Y10.8253
G01 X21.6036 Y10.8105
G01 X21.5000 Y10.8055
G01 X21.3964 Y10.8105
G01 X21.2965 Y10.8253
G01 X21.2910 Y10.8264
G01 X21.1959 Y10.8502
G01 X21.1905 Y10.8518
G01 X21.0955 Y10.8859
G01 X21.0017 Y10.9303
G01 X20.9127 Y10.9836
G01 X20.8316 Y11.0437
G01 X20.8273 Y11.0472
G01 X20.7546 Y11.1131
G01 X20.7506 Y11.1171
G01 X20.6829 Y11.1919
G01 X20.6211 Y11.2752
G01 X20.5678 Y11.3642
G01 X20.5245 Y11.4554
G01 X20.5224 Y11.4606
G01 X20.4893 Y11.5530
G01 X20.4877 Y11.5584
G01 X20.4633 Y11.6563
G01 X20.4480 Y11.7589
G01 X20.4430 Y11.8625
G01 X20.4478 Y11.9633
G01 X20.4484 Y11.9689
G01 X20.4628 Y12.0660
G01 X20.4639 Y12.0715
G01 X20.4885 Y12.1693
G01 X20.5234 Y12.2670
G01 X20.5678 Y12.3608
G01 X20.6203 Y12.4486
G01 X20.6812 Y12.5309
G01 X20.6847 Y12.5352
G01 X20.7526 Y12.6099
G01 X20.8294 Y12.6796
G01 X20.9104 Y12.7398
G01 X20.9151 Y12.7429
G01 X21.0017 Y12.7947
G01 X21.0955 Y12.8391
G01 X21.1905 Y12.8732
G01 X21.1959 Y12.8748
G01 X21.2938 Y12.8992
G01 X21.3964 Y12.9145
G01 X21.5000 Y12.9195
G01 X21.6008 Y12.9147
G01 X21.6064 Y12.9141
G01 X21.7062 Y12.8992
G01 X21.8041 Y12.8748
G01 X21.8095 Y12.8732
G01 X21.9045 Y12.8391
G01 X21.9958 Y12.7960
G01 X22.0007 Y12.7934
G01 X22.0873 Y12.7414
G01 X22.1684 Y12.6813
G01 X22.1727 Y12.6778
G01 X22.2474 Y12.6099
G01 X22.3153 Y12.5352
G01 X22.3188 Y12.5309
G01 X22.3789 Y12.4498
G01 X22.4309 Y12.3632
G01 X22.4335 Y12.3583
G01 X22.4766 Y12.2670
G01 X22.5114 Y12.1697
G01 X22.6375 Y12.1697
G01 X22.6676 Y12.1682
G01 X22.7002 Y12.1632
G01 X22.7267 Y12.1564
G01 X22.7551 Y12.1463
G01 X22.7847 Y12.1320
G01 X22.8082 Y12.1179
G01 X22.8324 Y12.0999
G01 X22.8547 Y12.0797
G01 X22.9401 Y11.9944
G01 X22.9074 Y12.2004
G01 X22.8372 Y12.4164
G01 X22.7341 Y12.6188
G01 X22.6249 Y12.7691
G01 X22.6213 Y12.7748
G01 X22.6173 Y12.7834
G01 X22.5939 Y12.8492
G01 X22.5922 Y12.8547
G01 X22.5911 Y12.8602
G01 X22.5906 Y12.8659
G01 X22.5906 Y12.8715
G01 X22.5914 Y12.8786
G01 X22.6082 Y12.9508
G01 X22.6099 Y12.9562
G01 X22.6127 Y12.9627
G01 X22.6180 Y12.9710
G01 X22.6237 Y12.9774
G01 X22.6748 Y13.0270
G01 X22.6812 Y13.0322
G01 X22.6882 Y13.0363
G01 X22.6933 Y13.0385
G01 X22.6985 Y13.0402
G01 X22.7577 Y13.0549
G01 X22.7645 Y13.0561
G01 X22.7714 Y13.0565
G01 X24.9204 Y13.0565
G01 X24.9383 Y13.0557
G01 X24.9480 Y13.0537
G01 X24.9780 Y13.0420
G01 X25.0075 Y13.0332
G01 X25.0164 Y13.0289
G01 X25.0317 Y13.0182
G01 X25.0360 Y13.0146
G01 X25.0400 Y13.0105
G01 X25.0589 Y12.9844
G01 X25.0789 Y12.9611
G01 X25.0821 Y12.9563
G01 X25.0848 Y12.9514
G01 X25.0917 Y12.9340
G01 X25.0940 Y12.9244
G01 X25.0958 Y12.8923
G01 X25.0999 Y12.8631
G01 X25.1002 Y12.8574
G01 X25.0998 Y12.8517
G01 X25.0967 Y12.8347
G01 X25.0948 Y12.8278
G01 X25.0785 Y12.7874
G01 X24.9779 Y12.6131
G01 X24.8930 Y12.4080
G01 X24.8355 Y12.1936
G01 X24.8065 Y11.9735
G01 X24.8065 Y11.7515
G01 X24.8355 Y11.5314
G01 X24.8930 Y11.3170
G01 X24.9779 Y11.1119
G01 X25.0889 Y10.9196
G01 X25.2241 Y10.7435
G01 X25.3810 Y10.5866
G01 X25.5357 Y10.4679
G01 X25.5408 Y10.4634
G01 X25.5471 Y10.4563
G01 X25.5891 Y10.3987
G01 X25.5933 Y10.3916
G01 X25.5959 Y10.3853
G01 X25.5981 Y10.3773
G01 X25.6057 Y10.3340
G01 X25.6065 Y10.3242
G01 X25.6065 Y9.4120
G01 X25.6274 Y9.3070
G01 X27.2657 Y7.6687
G01 X29.0074 Y7.6687
G01 X29.0350 Y7.6674
G01 X29.0421 Y7.6689
G01 X29.0505 Y7.6695
G01 X30.5255 Y7.6695
G01 X30.5339 Y7.6689
G01 X30.5407 Y7.6675
G01 X30.5473 Y7.6652
G01 X30.5536 Y7.6621
G01 X30.5595 Y7.6583
G01 X30.5648 Y7.6538
G01 X30.5705 Y7.6476
G01 X30.5744 Y7.6418
G01 X30.5782 Y7.6343
G01 X30.5805 Y7.6277
G01 X30.5819 Y7.6209
G01 X30.5825 Y7.6139
G01 X30.5825 Y7.1597
G01 X30.5819 Y7.1541
G01 X30.5808 Y7.1486
G01 X30.5792 Y7.1433
G01 X30.5771 Y7.1381
G01 X30.5744 Y7.1332
G01 X30.5713 Y7.1285
G01 X30.5678 Y7.1242
G01 X30.5638 Y7.1202
G01 X30.5560 Y7.1143
G01 X30.5473 Y7.1098
G01 X30.5421 Y7.1079
G01 X30.5366 Y7.1065
G01 X30.5269 Y7.1055
G01 X29.9435 Y7.1055
G01 X29.9775 Y7.0952
G01 X29.9851 Y7.0914
G01 X29.9931 Y7.0857
G01 X29.9992 Y7.0797
G01 X30.0467 Y7.0247
G01 X30.0522 Y7.0163
G01 X30.0561 Y7.0071
G01 X30.0575 Y7.0016
G01 X30.0687 Y6.9501
G01 X30.0700 Y6.9407
G01 X30.0700 Y6.7195
G01 X30.5703 Y6.7195
G01 X30.6196 Y6.7249
G01 X30.7400 Y6.7697
G01 X30.8419 Y6.8461
G01 X30.9183 Y6.9480
G01 X30.9631 Y7.0683
G01 X30.9684 Y7.1177
G01 X30.9685 Y7.1998
G01 X30.9690 Y7.2079
G01 X30.9708 Y7.2158
G01 X30.9904 Y7.2829
G01 X30.9928 Y7.2895
G01 X30.9960 Y7.2957
G01 X30.9991 Y7.3004
G01 X31.0194 Y7.3256
G01 X31.0732 Y7.3795
G01 X31.1583 Y7.5174
G01 X31.2094 Y7.6717
G01 X31.2190 Y7.7654
G01 X31.2189 Y8.3096
G01 X31.2154 Y8.3441
G01 X31.2151 Y8.3499
G01 X31.2152 Y8.3780
G01 X31.2190 Y8.4154
G01 X31.2189 Y8.9596
G01 X31.2154 Y8.9941
G01 X31.2151 Y8.9999
G01 X31.2152 Y9.0280
G01 X31.2190 Y9.0654
G01 X31.2189 Y9.6096
G01 X31.2094 Y9.7033
G01 X31.1583 Y9.8576
G01 X31.0732 Y9.9955
G01 X31.0380 Y10.0307
G01 X31.0345 Y10.0348
G01 X31.0313 Y10.0392
G01 X30.9951 Y10.1053
G01 X30.9928 Y10.1104
G01 X30.9906 Y10.1172
G01 X30.9891 Y10.1255
G01 X30.9889 Y10.1354
G01 X30.9940 Y10.2065
G01 X30.9949 Y10.2122
G01 X30.9967 Y10.2190
G01 X30.9999 Y10.2268
G01 X31.0043 Y10.2341
G01 X31.0479 Y10.2923
G01 X31.0525 Y10.2975
G01 X31.0567 Y10.3012
G01 X31.0623 Y10.3053
G01 X31.0684 Y10.3086
G01 X31.1383 Y10.3355
G01 X31.1439 Y10.3370
G01 X31.1495 Y10.3379
G01 X31.1831 Y10.3409
G01 X31.3699 Y10.3944
G01 X31.3765 Y10.3957
G01 X31.3833 Y10.3962
G01 X31.4545 Y10.3957
G01 X31.4614 Y10.3952
G01 X31.4668 Y10.3943
G01 X31.4721 Y10.3928
G01 X31.4810 Y10.3890
G01 X31.5388 Y10.3543
G01 X31.5464 Y10.3479
G01 X31.6420 Y10.2523
G01 X31.7799 Y10.1672
G01 X31.9342 Y10.1161
G01 X32.0279 Y10.1065
G01 X32.6762 Y10.1065
G01 X32.6830 Y10.1058
G01 X32.6883 Y10.1046
G01 X32.7566 Y10.0846
G01 X32.7620 Y10.0827
G01 X32.7684 Y10.0796
G01 X32.7732 Y10.0766
G01 X32.7777 Y10.0732
G01 X32.7818 Y10.0693
G01 X32.8303 Y10.0133
G01 X32.8337 Y10.0087
G01 X32.8366 Y10.0039
G01 X32.8401 Y9.9961
G01 X32.8426 Y9.9865
G01 X32.8527 Y9.9160
G01 X32.8533 Y9.9089
G01 X32.8531 Y9.9032
G01 X32.8524 Y9.8976
G01 X32.8458 Y9.8698
G01 X32.7906 Y9.7033
G01 X32.7810 Y9.6096
G01 X32.7810 Y9.0654
G01 X32.7848 Y9.0280
G01 X32.7849 Y8.9999
G01 X32.7846 Y8.9941
G01 X32.7811 Y8.9596
G01 X32.7810 Y8.4154
G01 X32.7848 Y8.3780
G01 X32.7849 Y8.3499
G01 X32.7846 Y8.3441
G01 X32.7811 Y8.3096
G01 X32.7810 Y7.7654
G01 X32.7848 Y7.7280
G01 X32.7849 Y7.6999
G01 X32.7846 Y7.6941
G01 X32.7811 Y7.6596
G01 X32.7810 Y7.1154
G01 X32.7906 Y7.0217
G01 X32.8417 Y6.8674
G01 X32.9268 Y6.7295
G01 X33.0415 Y6.6148
G01 X33.1794 Y6.5297
G01 X33.3337 Y6.4786
G01 X33.4274 Y6.4690
G01 X34.9966 Y6.4691
G01 X35.0934 Y6.4789
G01 X35.1011 Y6.4804
G01 X35.1081 Y6.4810
G01 X35.1165 Y6.4805
G01 X35.1252 Y6.4786
G01 X35.1638 Y6.4800
G01 X35.1709 Y6.4798
G01 X35.1807 Y6.4781
G01 X35.1900 Y6.4747
G01 X35.1950 Y6.4720
G01 X35.2563 Y6.4357
G01 X35.2621 Y6.4316
G01 X35.2673 Y6.4267
G01 X35.2718 Y6.4213
G01 X35.2764 Y6.4142
G01 X35.3105 Y6.3455
G01 X35.3129 Y6.3377
G01 X35.3148 Y6.3264
G01 X35.3355 Y6.1689
G01 X35.3930 Y5.9545
G01 X35.4779 Y5.7494
G01 X35.5889 Y5.5571
G01 X35.7241 Y5.3810
G01 X35.7979 Y5.3072
G01 X38.2021 Y5.3072
G01 X38.2759 Y5.3810
G01 X38.4111 Y5.5572
G01 X38.5221 Y5.7494
G01 X38.6070 Y5.9545
G01 X38.6645 Y6.1689
G01 X38.6935 Y6.3890
G01 X38.6935 Y6.6110
G01 X38.6645 Y6.8311
G01 X38.6070 Y7.0455
G01 X38.5221 Y7.2506
G01 X38.4111 Y7.4428
G01 X38.2759 Y7.6190
G01 X38.1190 Y7.7759
G01 X38.0143 Y7.8563
G01 X38.0082 Y7.8617
G01 X38.0029 Y7.8679
G01 X37.9609 Y7.9254
G01 X37.9561 Y7.9338
G01 X37.9528 Y7.9428
G01 X37.9443 Y7.9901
G01 X37.9436 Y7.9957
G01 X37.9435 Y8.0929
G01 X37.9136 Y8.2430
G01 X37.9128 Y8.2484
G01 X37.9125 Y8.2551
G01 X37.9191 Y8.3302
G01 X37.9200 Y8.3357
G01 X37.9219 Y8.3424
G01 X37.9246 Y8.3489
G01 X37.9273 Y8.3538
G01 X37.9558 Y8.3973
G01 X37.9602 Y8.4031
G01 X37.9679 Y8.4111
G01 X37.9680 Y8.8427
G01 X37.9421 Y8.8519
G01 X37.9195 Y8.8625
G01 X37.8933 Y8.8780
G01 X37.8711 Y8.8945
G01 X37.8526 Y8.9111
G01 X37.8320 Y8.9336
G01 X37.8155 Y8.9558
G01 X37.8026 Y8.9771
G01 X37.7894 Y9.0046
G01 X37.7801 Y9.0306
G01 X37.7740 Y9.0547
G01 X37.7729 Y9.0602
G01 X37.7691 Y9.0876
G01 X37.7680 Y9.1125
G01 X37.7680 Y9.6125
G01 X37.7695 Y9.6415
G01 X37.7734 Y9.6675
G01 X37.7801 Y9.6944
G01 X37.7894 Y9.7204
G01 X37.8000 Y9.7430
G01 X37.8026 Y9.7479
G01 X37.8171 Y9.7715
G01 X37.8320 Y9.7914
G01 X37.8516 Y9.8129
G01 X37.8711 Y9.8305
G01 X37.8910 Y9.8454
G01 X37.9146 Y9.8599
G01 X37.9195 Y9.8625
G01 X37.9421 Y9.8731
G01 X37.9681 Y9.8824
G01 X37.9950 Y9.8891
G01 X38.0210 Y9.8930
G01 X38.0500 Y9.8945
G01 X38.5000 Y9.8945
G01 X38.5276 Y9.8932
G01 X38.5578 Y9.8885
G01 X38.5819 Y9.8824
G01 X38.6079 Y9.8731
G01 X38.6330 Y9.8612
G01 X38.6543 Y9.8485
G01 X38.6590 Y9.8454
G01 X38.6811 Y9.8287
G01 X38.6994 Y9.8119
G01 X38.7180 Y9.7914
G01 X38.7345 Y9.7692
G01 X38.7474 Y9.7479
G01 X38.7500 Y9.7430
G01 X38.7616 Y9.7178
G01 X38.7699 Y9.6944
G01 X38.7762 Y9.6697
G01 X39.1667 Y9.6697
G01 X39.1587 Y9.7481
G01 X39.1084 Y9.9000
G01 X39.1064 Y9.9053
G01 X39.1036 Y9.9155
G01 X39.0934 Y9.9855
G01 X39.0930 Y9.9938
G01 X39.0942 Y10.0035
G01 X39.0955 Y10.0089
G01 X39.0974 Y10.0142
G01 X39.1277 Y10.0818
G01 X39.1305 Y10.0867
G01 X39.1338 Y10.0913
G01 X39.1376 Y10.0956
G01 X39.1417 Y10.0995
G01 X39.1474 Y10.1037
G01 X39.2058 Y10.1419
G01 X39.2143 Y10.1465
G01 X39.2207 Y10.1488
G01 X39.2274 Y10.1504
G01 X39.2646 Y10.1559
G01 X39.2715 Y10.1565
G01 X39.5431 Y10.1565
G01 X39.5498 Y10.1561
G01 X39.5578 Y10.1546
G01 X39.6275 Y10.1341
G01 X39.6327 Y10.1322
G01 X39.6377 Y10.1297
G01 X39.6425 Y10.1268
G01 X39.6562 Y10.1168
G01 X39.7281 Y10.0582
G01 X39.8982 Y9.9693
G01 X40.0830 Y9.9165
G01 X40.1945 Y9.9065
G01 X43.0164 Y9.9066
G01 X43.0245 Y9.9060
G01 X43.0325 Y9.9042
G01 X43.1035 Y9.8832
G01 X43.1100 Y9.8803
G01 X43.1161 Y9.8766
G01 X43.1216 Y9.8722
G01 X43.1266 Y9.8672
G01 X43.1732 Y9.8133
G01 X43.1774 Y9.8076
G01 X43.1814 Y9.8001
G01 X43.1838 Y9.7934
G01 X43.1855 Y9.7865
G01 X43.1956 Y9.7160
G01 X43.1961 Y9.7104
G01 X43.1957 Y9.7006
G01 X43.1937 Y9.6911
G01 X43.1756 Y9.6410
G01 X43.1733 Y9.6356
G01 X43.1705 Y9.6305
G01 X43.1177 Y9.5449
G01 X43.0666 Y9.3907
G01 X43.0570 Y9.2971
G01 X43.0570 Y9.0072
G01 X43.4430 Y9.0072
G01 X43.4430 Y9.2500
G01 X43.4443 Y9.2787
G01 X43.4484 Y9.3071
G01 X43.4495 Y9.3126
G01 X43.4562 Y9.3391
G01 X43.4669 Y9.3688
G01 X43.4806 Y9.3972
G01 X43.4947 Y9.4206
G01 X43.5109 Y9.4426
G01 X43.5329 Y9.4671
G01 X43.5552 Y9.4874
G01 X43.5794 Y9.5053
G01 X43.6078 Y9.5221
G01 X43.6325 Y9.5337
G01 X43.6582 Y9.5430
G01 X43.6887 Y9.5509
G01 X43.7199 Y9.5556
G01 X43.7500 Y9.5570
G01 X45.4226 Y9.5570
G01 X45.9385 Y10.0729
G01 X45.9292 Y10.1390
G01 X45.9292 Y10.1445
G01 X45.9300 Y10.1514
G01 X45.9316 Y10.1581
G01 X45.9334 Y10.1633
G01 X45.9606 Y10.2253
G01 X45.9653 Y10.2339
G01 X45.9686 Y10.2384
G01 X46.0418 Y10.3281
G01 X46.1307 Y10.4982
G01 X46.1835 Y10.6830
G01 X46.1935 Y10.7945
G01 X46.1934 Y11.4055
G01 X46.1835 Y11.5170
G01 X46.1307 Y11.7018
G01 X46.0418 Y11.8719
G01 X45.9206 Y12.0206
G01 X45.7894 Y12.1275
G01 X45.7826 Y12.1341
G01 X45.7784 Y12.1394
G01 X45.7366 Y12.2007
G01 X45.7335 Y12.2070
G01 X45.7315 Y12.2123
G01 X45.7301 Y12.2178
G01 X45.7292 Y12.2234
G01 X45.7268 Y12.3003
G01 X45.7279 Y12.3102
G01 X45.7302 Y12.3185
G01 X45.7344 Y12.3275
G01 X45.7681 Y12.3862
G01 X45.7713 Y12.3907
G01 X45.7749 Y12.3949
G01 X45.7973 Y12.4173
G01 X45.8823 Y12.5552
G01 X45.9334 Y12.7093
G01 X45.9419 Y12.7928
G01 X45.5516 Y12.7928
G01 X45.5438 Y12.7609
G01 X45.5347 Y12.7351
G01 X45.5325 Y12.7299
G01 X45.5194 Y12.7028
G01 X45.5053 Y12.6794
G01 X45.4874 Y12.6552
G01 X45.4671 Y12.6329
G01 X45.4448 Y12.6126
G01 X45.4206 Y12.5947
G01 X45.3972 Y12.5806
G01 X45.3922 Y12.5779
G01 X45.3649 Y12.5653
G01 X45.3391 Y12.5562
G01 X45.3099 Y12.5488
G01 X45.2801 Y12.5444
G01 X45.2528 Y12.5430
G01 X40.2500 Y12.5430
G01 X40.2199 Y12.5444
G01 X40.1929 Y12.5484
G01 X40.1874 Y12.5495
G01 X40.1582 Y12.5570
G01 X40.1325 Y12.5663
G01 X40.1053 Y12.5792
G01 X40.0794 Y12.5947
G01 X40.0552 Y12.6126
G01 X40.0329 Y12.6329
G01 X40.0126 Y12.6552
G01 X39.9947 Y12.6794
G01 X39.9806 Y12.7028
G01 X39.9779 Y12.7078
G01 X39.9653 Y12.7351
G01 X39.9562 Y12.7609
G01 X39.9484 Y12.7928
G01 X39.5581 Y12.7928
G01 X39.5666 Y12.7093
G01 X39.6177 Y12.5552
G01 X39.7027 Y12.4173
G01 X39.7270 Y12.3929
G01 X39.7318 Y12.3863
G01 X39.7367 Y12.3777
G01 X39.7460 Y12.3686
G01 X39.7494 Y12.3641
G01 X39.7524 Y12.3592
G01 X39.7564 Y12.3502
G01 X39.7610 Y12.3332
G01 X39.7693 Y12.3177
G01 X39.7726 Y12.3084
G01 X39.7737 Y12.3028
G01 X39.7743 Y12.2972
G01 X39.7738 Y12.2842
G01 X39.7762 Y12.2744
G01 X39.7771 Y12.2659
G01 X39.7769 Y12.2589
G01 X39.7758 Y12.2519
G01 X39.7702 Y12.2337
G01 X39.7691 Y12.2190
G01 X39.7683 Y12.2133
G01 X39.7665 Y12.2064
G01 X39.7644 Y12.2011
G01 X39.7603 Y12.1936
G01 X39.7544 Y12.1851
G01 X39.7500 Y12.1733
G01 X39.7449 Y12.1646
G01 X39.7404 Y12.1590
G01 X39.7165 Y12.1331
G01 X39.7106 Y12.1275
G01 X39.6575 Y12.0842
G01 X39.6508 Y12.0795
G01 X39.6436 Y12.0758
G01 X39.5752 Y12.0472
G01 X39.5699 Y12.0457
G01 X39.5630 Y12.0446
G01 X39.5431 Y12.0435
G01 X37.3976 Y12.0435
G01 X37.3922 Y12.0437
G01 X37.3868 Y12.0445
G01 X37.3145 Y12.0654
G01 X37.3080 Y12.0678
G01 X37.3029 Y12.0703
G01 X37.2970 Y12.0741
G01 X37.2718 Y12.0944
G01 X36.5720 Y12.7941
G01 X36.5401 Y12.7987
G01 X36.5135 Y12.8053
G01 X36.5082 Y12.8069
G01 X36.4799 Y12.8173
G01 X36.4552 Y12.8291
G01 X36.4293 Y12.8446
G01 X36.4051 Y12.8626
G01 X36.3838 Y12.8818
G01 X36.3626 Y12.9051
G01 X36.3446 Y12.9293
G01 X36.3291 Y12.9552
G01 X36.3173 Y12.9799
G01 X36.3069 Y13.0082
G01 X36.3053 Y13.0135
G01 X36.2987 Y13.0401
G01 X36.2941 Y13.0720
G01 X35.9180 Y13.4481
G01 X35.7635 Y13.5514
G01 X35.5918 Y13.6225
G01 X35.5468 Y13.6315
G01 X35.5377 Y13.6343
G01 X35.4696 Y13.6696
G01 X35.4625 Y13.6743
G01 X35.4562 Y13.6800
G01 X35.4516 Y13.6854
G01 X35.4484 Y13.6901
G01 X35.4125 Y13.7532
G01 X35.4100 Y13.7584
G01 X35.4081 Y13.7638
G01 X35.4061 Y13.7736
G01 X35.4027 Y13.8021
G01 X35.4024 Y13.8087
G01 X35.4024 Y14.1192
G01 X35.0165 Y14.1192
G01 X35.0165 Y13.7262
G01 X35.0162 Y13.7206
G01 X35.0148 Y13.7123
G01 X35.0121 Y13.7044
G01 X35.0083 Y13.6969
G01 X35.0035 Y13.6900
G01 X34.9977 Y13.6839
G01 X34.9911 Y13.6788
G01 X34.9838 Y13.6746
G01 X34.9760 Y13.6716
G01 X34.9678 Y13.6698
G01 X34.9594 Y13.6692
G01 X33.9844 Y13.6692
G01 X33.9747 Y13.6700
G01 X33.9692 Y13.6712
G01 X33.9639 Y13.6730
G01 X33.9551 Y13.6773
G01 X33.9504 Y13.6804
G01 X33.9461 Y13.6839
G01 X33.9421 Y13.6879
G01 X33.9386 Y13.6922
G01 X33.9355 Y13.6969
G01 X33.9323 Y13.7031
G01 X33.9298 Y13.7096
G01 X33.9285 Y13.7151
G01 X33.9276 Y13.7206
G01 X33.9274 Y13.7262
G01 X33.9274 Y15.1262
G01 X33.9282 Y15.1360
G01 X33.9302 Y15.1441
G01 X33.9341 Y15.1531
G01 X33.9386 Y15.1602
G01 X33.9431 Y15.1655
G01 X33.9471 Y15.1694
G01 X33.9516 Y15.1729
G01 X33.9575 Y15.1765
G01 X33.9639 Y15.1794
G01 X33.9692 Y15.1812
G01 X33.9760 Y15.1826
G01 X33.9830 Y15.1832
G01 X34.9594 Y15.1833
G01 X34.9678 Y15.1826
G01 X34.9760 Y15.1808
G01 X34.9838 Y15.1778
G01 X34.9911 Y15.1736
G01 X34.9977 Y15.1685
G01 X35.0035 Y15.1624
G01 X35.0083 Y15.1555
G01 X35.0121 Y15.1480
G01 X35.0148 Y15.1401
G01 X35.0162 Y15.1318
G01 X35.0165 Y15.1262
G01 X35.0165 Y14.7333
G01 X35.4024 Y14.7333
G01 X35.4024 Y15.1044
G01 X35.4032 Y15.1111
G01 X35.4043 Y15.1164
G01 X35.4244 Y15.1848
G01 X35.4262 Y15.1901
G01 X35.4286 Y15.1952
G01 X35.4323 Y15.2013
G01 X35.4358 Y15.2058
G01 X35.4407 Y15.2109
G01 X35.4956 Y15.2585
G01 X35.5014 Y15.2626
G01 X35.5076 Y15.2660
G01 X35.5155 Y15.2691
G01 X35.5224 Y15.2707
G01 X35.5943 Y15.2810
G01 X35.6000 Y15.2814
G01 X35.6057 Y15.2812
G01 X35.6113 Y15.2805
G01 X35.6181 Y15.2788
G01 X35.6248 Y15.2763
G01 X35.6908 Y15.2460
G01 X35.6992 Y15.2407
G01 X35.7100 Y15.2311
G01 X36.5739 Y14.3672
G01 X36.7284 Y14.2639
G01 X36.9001 Y14.1928
G01 X37.0824 Y14.1566
G01 X39.5431 Y14.1565
G01 X39.5498 Y14.1561
G01 X39.5552 Y14.1552
G01 X39.5780 Y14.1487
G01 X39.5990 Y14.1463
G01 X39.6088 Y14.1440
G01 X39.6181 Y14.1401
G01 X39.6289 Y14.1337
G01 X39.6377 Y14.1297
G01 X39.6436 Y14.1260
G01 X39.6575 Y14.1158
G01 X39.7136 Y14.0698
G01 X39.7174 Y14.0659
G01 X39.7208 Y14.0617
G01 X39.7619 Y14.0018
G01 X39.7654 Y13.9956
G01 X39.7681 Y13.9890
G01 X39.7699 Y13.9822
G01 X39.7708 Y13.9766
G01 X39.7732 Y13.9025
G01 X39.7730 Y13.8968
G01 X39.7724 Y13.8912
G01 X39.7711 Y13.8856
G01 X39.7693 Y13.8802
G01 X39.7670 Y13.8750
G01 X39.7326 Y13.8150
G01 X39.7296 Y13.8104
G01 X39.7261 Y13.8062
G01 X39.7027 Y13.7827
G01 X39.6177 Y13.6449
G01 X39.5666 Y13.4907
G01 X39.5581 Y13.4072
G01 X39.9484 Y13.4072
G01 X39.9562 Y13.4391
G01 X39.9653 Y13.4649
G01 X39.9675 Y13.4701
G01 X39.9806 Y13.4972
G01 X39.9947 Y13.5206
G01 X40.0126 Y13.5448
G01 X40.0329 Y13.5671
G01 X40.0552 Y13.5874
G01 X40.0794 Y13.6053
G01 X40.1028 Y13.6194
G01 X40.1078 Y13.6221
G01 X40.1351 Y13.6347
G01 X40.1609 Y13.6438
G01 X40.1901 Y13.6512
G01 X40.2199 Y13.6556
G01 X40.2472 Y13.6570
G01 X45.2500 Y13.6570
G01 X45.2801 Y13.6556
G01 X45.3071 Y13.6516
G01 X45.3126 Y13.6505
G01 X45.3418 Y13.6430
G01 X45.3675 Y13.6337
G01 X45.3947 Y13.6208
G01 X45.4206 Y13.6053
G01 X45.4448 Y13.5874
G01 X45.4671 Y13.5671
G01 X45.4874 Y13.5448
G01 X45.5053 Y13.5206
G01 X45.5194 Y13.4972
G01 X45.5221 Y13.4922
G01 X45.5347 Y13.4649
G01 X45.5438 Y13.4391
G01 X45.5516 Y13.4072
G01 X45.9419 Y13.4072
G01 X45.9334 Y13.4907
G01 X45.8823 Y13.6448
G01 X45.7973 Y13.7827
G01 X45.7749 Y13.8051
G01 X45.7713 Y13.8092
G01 X45.7682 Y13.8137
G01 X45.7326 Y13.8785
G01 X45.7291 Y13.8862
G01 X45.7265 Y13.8958
G01 X45.7258 Y13.9014
G01 X45.7256 Y13.9071
G01 X45.7307 Y13.9796
G01 X45.7314 Y13.9853
G01 X45.7327 Y13.9908
G01 X45.7345 Y13.9962
G01 X45.7368 Y14.0015
G01 X45.7397 Y14.0064
G01 X45.7791 Y14.0615
G01 X45.7834 Y14.0669
G01 X45.7894 Y14.0725
G01 X45.9206 Y14.1794
G01 X46.0418 Y14.3281
G01 X46.1307 Y14.4982
G01 X46.1835 Y14.6830
G01 X46.1935 Y14.7945
G01 X46.1934 Y15.4055
G01 X46.1835 Y15.5170
G01 X46.1307 Y15.7018
G01 X46.0418 Y15.8719
G01 X45.9686 Y15.9616
G01 X45.9633 Y15.9694
G01 X45.9603 Y15.9755
G01 X45.9326 Y16.0412
G01 X45.9305 Y16.0480
G01 X45.9293 Y16.0535
G01 X45.9287 Y16.0606
G01 X45.9290 Y16.0676
G01 X45.9421 Y16.1434
G01 X45.9446 Y16.1516
G01 X45.9476 Y16.1580
G01 X45.9513 Y16.1640
G01 X45.9558 Y16.1695
G01 X46.0060 Y16.2239
G01 X46.0102 Y16.2274
G01 X46.0159 Y16.2313
G01 X46.0208 Y16.2339
G01 X46.0259 Y16.2360
G01 X46.0937 Y16.2550
G01 X46.0992 Y16.2562
G01 X46.1048 Y16.2569
G01 X46.2971 Y16.2571
G01 X46.3907 Y16.2666
G01 X46.5448 Y16.3177
G01 X46.6827 Y16.4027
G01 X46.6928 Y16.4128
G01 X46.6928 Y16.8728
G01 X46.5570 Y17.0085
G01 X46.5570 Y16.9486
G01 X46.5556 Y16.9199
G01 X46.5512 Y16.8901
G01 X46.5442 Y16.8622
G01 X46.5337 Y16.8325
G01 X46.5208 Y16.8053
G01 X46.5053 Y16.7794
G01 X46.4882 Y16.7563
G01 X46.4671 Y16.7329
G01 X46.4448 Y16.7126
G01 X46.4206 Y16.6947
G01 X46.3947 Y16.6792
G01 X46.3675 Y16.6663
G01 X46.3391 Y16.6562
G01 X46.3099 Y16.6488
G01 X46.2787 Y16.6443
G01 X46.2500 Y16.6430
G01 X43.7500 Y16.6430
G01 X43.7199 Y16.6444
G01 X43.6874 Y16.6495
G01 X43.6609 Y16.6562
G01 X43.6351 Y16.6653
G01 X43.6053 Y16.6792
G01 X43.5794 Y16.6947
G01 X43.5531 Y16.7145
G01 X43.5329 Y16.7329
G01 X43.5145 Y16.7531
G01 X43.4947 Y16.7794
G01 X43.4786 Y16.8065
G01 X43.4663 Y16.8325
G01 X43.4562 Y16.8609
G01 X43.4488 Y16.8901
G01 X43.4444 Y16.9199
G01 X43.4430 Y16.9500
G01 X43.4430 Y17.1928
G01 X43.0571 Y17.1928
G01 X43.0571 Y16.9029
G01 X43.0666 Y16.8093
G01 X43.1177 Y16.6552
G01 X43.1705 Y16.5695
G01 X43.1731 Y16.5648
G01 X43.1753 Y16.5598
G01 X43.1958 Y16.4859
G01 X43.1970 Y16.4789
G01 X43.1974 Y16.4733
G01 X43.1967 Y16.4634
G01 X43.1948 Y16.4551
G01 X43.1735 Y16.3871
G01 X43.1701 Y16.3793
G01 X43.1657 Y16.3721
G01 X43.1612 Y16.3666
G01 X43.1571 Y16.3627
G01 X43.1002 Y16.3152
G01 X43.0956 Y16.3121
G01 X43.0894 Y16.3088
G01 X43.0828 Y16.3063
G01 X43.0774 Y16.3049
G01 X43.0266 Y16.2944
G01 X43.0164 Y16.2935
G01 X40.1945 Y16.2935
G01 X40.0831 Y16.2835
G01 X39.8982 Y16.2307
G01 X39.7281 Y16.1418
G01 X39.6575 Y16.0842
G01 X39.6496 Y16.0788
G01 X39.6435 Y16.0758
G01 X39.5779 Y16.0482
G01 X39.5699 Y16.0457
G01 X39.5630 Y16.0446
G01 X39.5431 Y16.0435
G01 X37.6371 Y16.0436
G01 X37.6303 Y16.0445
G01 X37.6250 Y16.0458
G01 X37.5580 Y16.0654
G01 X37.5514 Y16.0678
G01 X37.5452 Y16.0710
G01 X37.5405 Y16.0741
G01 X37.5142 Y16.0954
G01 X36.2018 Y17.4078
G01 X36.0472 Y17.5111
G01 X35.8755 Y17.5822
G01 X35.6933 Y17.6185
G01 X31.2867 Y17.6186
G01 X31.2813 Y17.6192
G01 X31.2747 Y17.6208
G01 X31.2077 Y17.6404
G01 X31.2024 Y17.6423
G01 X31.1961 Y17.6453
G01 X31.1902 Y17.6491
G01 X31.1650 Y17.6694
G01 X30.6414 Y18.1928
G01 X27.8586 Y18.1928
G01 X25.9463 Y16.2806
G01 X25.9411 Y16.2762
G01 X25.9355 Y16.2724
G01 X25.8704 Y16.2370
G01 X25.8652 Y16.2348
G01 X25.8584 Y16.2328
G01 X25.8514 Y16.2316
G01 X25.8444 Y16.2313
G01 X25.7704 Y16.2366
G01 X25.7634 Y16.2377
G01 X25.7566 Y16.2397
G01 X25.7501 Y16.2425
G01 X25.7429 Y16.2468
G01 X25.6847 Y16.2904
G01 X25.6794 Y16.2951
G01 X25.6747 Y16.3005
G01 X25.6715 Y16.3051
G01 X25.6682 Y16.3114
G01 X25.6421 Y16.3808
G01 X25.6397 Y16.3890
G01 X25.6387 Y16.3961
G01 X25.6386 Y16.4033
G01 X25.6430 Y16.4497
G01 X25.6444 Y16.4564
G01 X25.6645 Y16.5314
G01 X25.6935 Y16.7515
G01 X25.6935 Y16.9735
G01 X25.6645 Y17.1936
G01 X25.6070 Y17.4080
G01 X25.5221 Y17.6131
G01 X25.4111 Y17.8053
G01 X25.2759 Y17.9815
G01 X25.1190 Y18.1384
G01 X25.0481 Y18.1928
G01 X22.9519 Y18.1928
G01 X22.8810 Y18.1384
G01 X22.7241 Y17.9815
G01 X22.6437 Y17.8768
G01 X22.6402 Y17.8726
G01 X22.6353 Y17.8680
G01 X22.5757 Y17.8242
G01 X22.5711 Y17.8212
G01 X22.5662 Y17.8186
G01 X22.5598 Y17.8161
G01 X22.5532 Y17.8144
G01 X22.5099 Y17.8068
G01 X22.5029 Y17.8060
G01 X16.4071 Y17.8060
G01 X16.2248 Y17.7697
G01 X16.0531 Y17.6986
G01 X15.8986 Y17.5953
G01 X10.7379 Y12.4346
G01 X10.7317 Y12.4293
G01 X10.7260 Y12.4255
G01 X10.6635 Y12.3914
G01 X10.6545 Y12.3874
G01 X10.6448 Y12.3851
G01 X10.6392 Y12.3845
G01 X10.6335 Y12.3845
G01 X10.5610 Y12.3897
G01 X10.5513 Y12.3915
G01 X10.5446 Y12.3938
G01 X10.5260 Y12.4021
G01 X10.3518 Y12.4932
G01 X10.1670 Y12.5460
G01 X10.0555 Y12.5560
G01 X7.2336 Y12.5560
G01 X7.2268 Y12.5564
G01 X7.2188 Y12.5579
G01 X7.1491 Y12.5784
G01 X7.1425 Y12.5809
G01 X7.1363 Y12.5843
G01 X7.1306 Y12.5884
G01 X7.1253 Y12.5932
G01 X7.0768 Y12.6492
G01 X7.0734 Y12.6538
G01 X7.0705 Y12.6586
G01 X7.0666 Y12.6677
G01 X7.0645 Y12.6760
G01 X7.0542 Y12.7479
G01 X7.0539 Y12.7577
G01 X7.0549 Y12.7660
G01 X7.0568 Y12.7728
G01 X7.0744 Y12.8215
G01 X7.0767 Y12.8269
G01 X7.0795 Y12.8320
G01 X7.1323 Y12.9177
G01 X7.1834 Y13.0718
G01 X7.1929 Y13.1654
G01 X7.1929 Y13.4553
G01 X6.8070 Y13.4553
G01 X6.8070 Y13.2125
G01 X6.8057 Y13.1838
G01 X6.8016 Y13.1554
G01 X6.8005 Y13.1499
G01 X6.7938 Y13.1234
G01 X6.7831 Y13.0937
G01 X6.7694 Y13.0653
G01 X6.7553 Y13.0419
G01 X6.7391 Y13.0199
G01 X6.7171 Y12.9954
G01 X6.6948 Y12.9751
G01 X6.6682 Y12.9557
G01 X6.6447 Y12.9417
G01 X6.6201 Y12.9300
G01 X6.5891 Y12.9187
G01 X6.5585 Y12.9111
G01 X6.5301 Y12.9069
G01 X6.5000 Y12.9055
G01 X4.0000 Y12.9055
G01 X3.9671 Y12.9073
G01 X3.9401 Y12.9113
G01 X3.9136 Y12.9179
G01 X3.8825 Y12.9288
G01 X3.8528 Y12.9431
G01 X3.8294 Y12.9572
G01 X3.8074 Y12.9734
G01 X3.7829 Y12.9954
G01 X3.7609 Y13.0199
G01 X3.7447 Y13.0419
G01 X3.7299 Y13.0665
G01 X3.7163 Y13.0950
G01 X3.7062 Y13.1234
G01 X3.6988 Y13.1526
G01 X3.6944 Y13.1824
G01 X3.6930 Y13.2125
G01 X3.6930 Y13.4553
G01 X3.3897 Y13.4553
G01 X3.3071 Y13.3726
G01 X3.3071 Y13.1654
G01 X3.3166 Y13.0718
G01 X3.3677 Y12.9177
G01 X3.4527 Y12.7798
G01 X3.5673 Y12.6652
G01 X3.7051 Y12.5802
G01 X3.8593 Y12.5291
G01 X3.9529 Y12.5196
G01 X4.1410 Y12.5196
G01 X4.1492 Y12.5190
G01 X4.1571 Y12.5172
G01 X4.2268 Y12.4967
G01 X4.2346 Y12.4933
G01 X4.2418 Y12.4888
G01 X4.2462 Y12.4852
G01 X4.2502 Y12.4812
G01 X4.2987 Y12.4252
G01 X4.3020 Y12.4206
G01 X4.3054 Y12.4144
G01 X4.3076 Y12.4091
G01 X4.3092 Y12.4037
G01 X4.3103 Y12.3981
G01 X4.3207 Y12.3249
G01 X4.3208 Y12.3193
G01 X4.3204 Y12.3138
G01 X4.3191 Y12.3071
G01 X4.3175 Y12.3018
G01 X4.2894 Y12.2372
G01 X4.2847 Y12.2286
G01 X4.2814 Y12.2241
G01 X4.2082 Y12.1344
G01 X4.1193 Y11.9643
G01 X4.0665 Y11.7794
G01 X4.0565 Y11.6680
G01 X4.0565 Y11.0570
G01 X4.0665 Y10.9456
G01 X4.1193 Y10.7607
G01 X4.2082 Y10.5906
G01 X4.3294 Y10.4419
G01 X4.4606 Y10.3350
G01 X4.4674 Y10.3284
G01 X4.4716 Y10.3231
G01 X4.5126 Y10.2631
G01 X4.5154 Y10.2581
G01 X4.5181 Y10.2515
G01 X4.5196 Y10.2461
G01 X4.5206 Y10.2405
G01 X4.5211 Y10.2349
G01 X4.5232 Y10.1622
G01 X4.5221 Y10.1523
G01 X4.5198 Y10.1440
G01 X4.5156 Y10.1350
G01 X4.4819 Y10.0763
G01 X4.4787 Y10.0718
G01 X4.4751 Y10.0677
G01 X4.4527 Y10.0452
G01 X4.3677 Y9.9074
G01 X4.3166 Y9.7532
G01 X4.3081 Y9.6697
G01 X4.6984 Y9.6697
G01 X4.7062 Y9.7016
G01 X4.7153 Y9.7274
G01 X4.7175 Y9.7326
G01 X4.7306 Y9.7597
G01 X4.7447 Y9.7831
G01 X4.7626 Y9.8073
G01 X4.7829 Y9.8296
G01 X4.8052 Y9.8499
G01 X4.8294 Y9.8678
G01 X4.8528 Y9.8819
G01 X4.8578 Y9.8846
G01 X4.8851 Y9.8972
G01 X4.9109 Y9.9063
G01 X4.9401 Y9.9137
G01 X4.9699 Y9.9181
G01 X4.9972 Y9.9195
G01 X10.0000 Y9.9195
G01 X10.0301 Y9.9181
G01 X10.0571 Y9.9141
G01 X10.0626 Y9.9130
G01 X10.0918 Y9.9055
G01 X10.1175 Y9.8962
G01 X10.1447 Y9.8833
G01 X10.1706 Y9.8678
G01 X10.1948 Y9.8499
G01 X10.2171 Y9.8296
G01 X10.2374 Y9.8073
G01 X10.2553 Y9.7831
G01 X10.2694 Y9.7597
G01 X10.2721 Y9.7547
G01 X10.2847 Y9.7274
G01 X10.2938 Y9.7016
G01 X10.3016 Y9.6697
G01 X10.6919 Y9.6697
G01 X10.6834 Y9.7532
G01 X10.6323 Y9.9073
G01 X10.5473 Y10.0452
G01 X10.5230 Y10.0697
G01 X10.5182 Y10.0762
G01 X10.5133 Y10.0848
G01 X10.5049 Y10.0929
G01 X10.4990 Y10.1008
G01 X10.4963 Y10.1058
G01 X10.4936 Y10.1123
G01 X10.4890 Y10.1293
G01 X10.4819 Y10.1422
G01 X10.4786 Y10.1501
G01 X10.4768 Y10.1569
G01 X10.4759 Y10.1625
G01 X10.4756 Y10.1696
G01 X10.4762 Y10.1783
G01 X10.4733 Y10.1909
G01 X10.4729 Y10.1966
G01 X10.4730 Y10.2022
G01 X10.4745 Y10.2120
G01 X10.4798 Y10.2288
G01 X10.4809 Y10.2435
G01 X10.4820 Y10.2506
G01 X10.4840 Y10.2574
G01 X10.4862 Y10.2627
G01 X10.4897 Y10.2689
G01 X10.4956 Y10.2774
G01 X10.4988 Y10.2866
G01 X10.5020 Y10.2930
G01 X10.5051 Y10.2979
G01 X10.5096 Y10.3035
G01 X10.5374 Y10.3332
G01 X10.5925 Y10.3783
G01 X10.5980 Y10.3823
G01 X10.6052 Y10.3861
G01 X10.6709 Y10.4138
G01 X10.6774 Y10.4161
G01 X10.6870 Y10.4179
G01 X10.7069 Y10.4190
G01 X11.0534 Y10.4190
G01 X11.0615 Y10.4185
G01 X11.0681 Y10.4171
G01 X11.1392 Y10.3962
G01 X11.1457 Y10.3934
G01 X11.1518 Y10.3899
G01 X11.1575 Y10.3857
G01 X11.1626 Y10.3807
G01 X11.2102 Y10.3258
G01 X11.2143 Y10.3201
G01 X11.2184 Y10.3126
G01 X11.2208 Y10.3059
G01 X11.2224 Y10.2990
G01 X11.2326 Y10.2285
G01 X11.2332 Y10.2214
G01 X11.2328 Y10.2143
G01 X11.2313 Y10.2059
G01 X11.2164 Y10.1594
G01 X11.1628 Y10.0539
G01 X11.0926 Y9.8379
G01 X11.0659 Y9.6697
G01 X11.4578 Y9.6697
G01 X11.4636 Y9.7076
G01 X11.4881 Y9.8055
G01 X11.5229 Y9.9032
G01 X11.5678 Y9.9983
G01 X11.6219 Y10.0884
G01 X11.6812 Y10.1684
G01 X11.6847 Y10.1727
G01 X11.7526 Y10.2474
G01 X11.8273 Y10.3153
G01 X11.8316 Y10.3188
G01 X11.9127 Y10.3789
G01 X12.0005 Y10.4316
G01 X12.0955 Y10.4766
G01 X12.1905 Y10.5107
G01 X12.1959 Y10.5123
G01 X12.2938 Y10.5367
G01 X12.3936 Y10.5516
G01 X12.3992 Y10.5522
G01 X12.5000 Y10.5570
G01 X12.6036 Y10.5520
G01 X12.7035 Y10.5372
G01 X12.7090 Y10.5361
G01 X12.8068 Y10.5115
G01 X12.9019 Y10.4776
G01 X12.9071 Y10.4755
G01 X12.9981 Y10.4323
G01 X13.2815 Y10.7158
G01 X13.2563 Y10.7341
G01 X13.0539 Y10.8372
G01 X12.8379 Y10.9074
G01 X12.6136 Y10.9430
G01 X12.3864 Y10.9430
G01 X12.3736 Y10.9410
G01 X12.3654 Y10.9407
G01 X12.2893 Y10.9503
G01 X12.2838 Y10.9514
G01 X12.2784 Y10.9531
G01 X12.2694 Y10.9573
G01 X12.2613 Y10.9630
G01 X12.2068 Y11.0089
G01 X12.2009 Y11.0150
G01 X12.1959 Y11.0219
G01 X12.1926 Y11.0282
G01 X12.1905 Y11.0334
G01 X12.1683 Y11.1056
G01 X12.1672 Y11.1126
G01 X12.1669 Y11.1197
G01 X12.1675 Y11.1268
G01 X12.1690 Y11.1337
G01 X12.1877 Y11.2010
G01 X12.1906 Y11.2090
G01 X12.1939 Y11.2153
G01 X12.1971 Y11.2201
G01 X12.2156 Y11.2433
G01 X12.2199 Y11.2482
G01 X13.7576 Y12.7859
G01 X13.7628 Y12.7903
G01 X13.7685 Y12.7940
G01 X13.8335 Y12.8294
G01 X13.8401 Y12.8321
G01 X13.8469 Y12.8340
G01 X13.8539 Y12.8349
G01 X13.8596 Y12.8351
G01 X13.9335 Y12.8299
G01 X13.9405 Y12.8287
G01 X13.9473 Y12.8268
G01 X13.9538 Y12.8240
G01 X13.9611 Y12.8196
G01 X14.0193 Y12.7760
G01 X14.0245 Y12.7713
G01 X14.0292 Y12.7660
G01 X14.0331 Y12.7601
G01 X14.0363 Y12.7538
G01 X14.0623 Y12.6844
G01 X14.0642 Y12.6776
G01 X14.0651 Y12.6720
G01 X14.0654 Y12.6636
G01 X14.0630 Y12.6261
G01 X14.0565 Y12.5929
G01 X14.0565 Y10.9071
G01 X14.0928 Y10.7248
G01 X14.1639 Y10.5531
G01 X14.2672 Y10.3986
G01 X15.1074 Y9.5583
G01 X15.1118 Y9.5531
G01 X15.1156 Y9.5475
G01 X15.1510 Y9.4824
G01 X15.1532 Y9.4772
G01 X15.1552 Y9.4704
G01 X15.1564 Y9.4634
G01 X15.1567 Y9.4564
G01 X15.1514 Y9.3824
G01 X15.1506 Y9.3768
G01 X15.1488 Y9.3699
G01 X15.1461 Y9.3633
G01 X15.1426 Y9.3571
G01 X15.1134 Y9.3116
G01 X15.1074 Y9.3042
G01 X14.1613 Y8.3580
G01 X14.1561 Y8.3536
G01 X14.1504 Y8.3499
G01 X14.0879 Y8.3158
G01 X14.0829 Y8.3133
G01 X14.0763 Y8.3110
G01 X14.0695 Y8.3095
G01 X14.0357 Y8.3060
G01 X13.7714 Y8.3060
G01 X13.7633 Y8.3065
G01 X13.7566 Y8.3079
G01 X13.6856 Y8.3288
G01 X13.6765 Y8.3329
G01 X13.6695 Y8.3376
G01 X13.6651 Y8.3412
G01 X13.6612 Y8.3453
G01 X13.6128 Y8.4014
G01 X13.6090 Y8.4074
G01 X13.6059 Y8.4137
G01 X13.6036 Y8.4204
G01 X13.6023 Y8.4260
G01 X13.5920 Y8.4979
G01 X13.5916 Y8.5047
G01 X13.5919 Y8.5102
G01 X13.5933 Y8.5183
G01 X13.5953 Y8.5248
G01 X13.6193 Y8.5839
G01 X13.6219 Y8.5888
G01 X13.6249 Y8.5934
G01 X13.7341 Y8.7437
G01 X13.8372 Y8.9461
G01 X13.9074 Y9.1621
G01 X13.9430 Y9.3864
G01 X13.9430 Y9.6136
G01 X13.9074 Y9.8379
G01 X13.8372 Y10.0539
G01 X13.7341 Y10.2563
G01 X13.7158 Y10.2815
G01 X13.4323 Y9.9981
G01 X13.4755 Y9.9071
G01 X13.4776 Y9.9019
G01 X13.5115 Y9.8068
G01 X13.5361 Y9.7090
G01 X13.5372 Y9.7035
G01 X13.5520 Y9.6036
G01 X13.5570 Y9.5028
G01 X13.5570 Y9.4972
G01 X13.5520 Y9.3964
G01 X13.5372 Y9.2965
G01 X13.5361 Y9.2910
G01 X13.5115 Y9.1932
G01 X13.4776 Y9.0981
G01 X13.4755 Y9.0929
G01 X13.4322 Y9.0017
G01 X13.3804 Y8.9151
G01 X13.3773 Y8.9104
G01 X13.3171 Y8.8294
G01 X13.2474 Y8.7526
G01 X13.1706 Y8.6829
G01 X13.0896 Y8.6227
G01 X13.0849 Y8.6196
G01 X12.9983 Y8.5678
G01 X12.9071 Y8.5245
G01 X12.9019 Y8.5224
G01 X12.8095 Y8.4893
G01 X12.8041 Y8.4877
G01 X12.7062 Y8.4633
G01 X12.6050 Y8.4482
G01 X12.5028 Y8.4430
G01 X12.4972 Y8.4430
G01 X12.3964 Y8.4480
G01 X12.2938 Y8.4633
G01 X12.1932 Y8.4885
G01 X12.0981 Y8.5224
G01 X12.0929 Y8.5245
G01 X12.0005 Y8.5684
G01 X11.9127 Y8.6211
G01 X11.8316 Y8.6812
G01 X11.8273 Y8.6847
G01 X11.7516 Y8.7536
G01 X11.6829 Y8.8294
G01 X11.6219 Y8.9116
G01 X11.5684 Y9.0005
G01 X11.5423 Y9.0553
G01 X11.1273 Y9.0553
G01 X11.1628 Y8.9461
G01 X11.2659 Y8.7437
G01 X11.3751 Y8.5934
G01 X11.3781 Y8.5889
G01 X11.3806 Y8.5841
G01 X11.3827 Y8.5791
G01 X11.4074 Y8.5092
G01 X11.4089 Y8.5023
G01 X11.4094 Y8.4966
G01 X11.4094 Y8.4910
G01 X11.4086 Y8.4839
G01 X11.3918 Y8.4117
G01 X11.3901 Y8.4063
G01 X11.3879 Y8.4011
G01 X11.3828 Y8.3926
G01 X11.3774 Y8.3861
G01 X11.3242 Y8.3346
G01 X11.3200 Y8.3311
G01 X11.3142 Y8.3275
G01 X11.3080 Y8.3245
G01 X11.3028 Y8.3227
G01 X11.2410 Y8.3073
G01 X11.2314 Y8.3060
G01 X10.7069 Y8.3060
G01 X10.7002 Y8.3064
G01 X10.6948 Y8.3073
G01 X10.6720 Y8.3138
G01 X10.6467 Y8.3170
G01 X10.6398 Y8.3189
G01 X10.6332 Y8.3217
G01 X10.6211 Y8.3288
G01 X10.6148 Y8.3315
G01 X10.6099 Y8.3342
G01 X10.5951 Y8.3447
G01 X10.5394 Y8.3900
G01 X10.5335 Y8.3956
G01 X10.5284 Y8.4019
G01 X10.4881 Y8.4607
G01 X10.4846 Y8.4669
G01 X10.4819 Y8.4735
G01 X10.4801 Y8.4803
G01 X10.4790 Y8.4887
G01 X10.4768 Y8.5600
G01 X10.4771 Y8.5671
G01 X10.4782 Y8.5741
G01 X10.4802 Y8.5810
G01 X10.4824 Y8.5863
G01 X10.5174 Y8.6476
G01 X10.5204 Y8.6521
G01 X10.5239 Y8.6563
G01 X10.5473 Y8.6798
G01 X10.6323 Y8.8177
G01 X10.6834 Y8.9718
G01 X10.6919 Y9.0553
G01 X10.3016 Y9.0553
G01 X10.2938 Y9.0234
G01 X10.2847 Y8.9976
G01 X10.2825 Y8.9924
G01 X10.2694 Y8.9653
G01 X10.2553 Y8.9419
G01 X10.2374 Y8.9177
G01 X10.2171 Y8.8954
G01 X10.1948 Y8.8751
G01 X10.1706 Y8.8572
G01 X10.1472 Y8.8431
G01 X10.1422 Y8.8404
G01 X10.1149 Y8.8278
G01 X10.0891 Y8.8187
G01 X10.0599 Y8.8113
G01 X10.0301 Y8.8069
G01 X10.0028 Y8.8055
G01 X5.0000 Y8.8055
G01 X4.9699 Y8.8069
G01 X4.9429 Y8.8109
G01 X4.9374 Y8.8120
G01 X4.9082 Y8.8195
G01 X4.8825 Y8.8288
G01 X4.8553 Y8.8417
G01 X4.8294 Y8.8572
G01 X4.8052 Y8.8751
G01 X4.7829 Y8.8954
G01 X4.7626 Y8.9177
G01 X4.7447 Y8.9419
G01 X4.7306 Y8.9653
G01 X4.7279 Y8.9703
G01 X4.7153 Y8.9976
G01 X4.7062 Y9.0234
G01 X4.6984 Y9.0553
G01 X4.3081 Y9.0553
G01 X4.3166 Y8.9718
G01 X4.3677 Y8.8177
G01 X4.4527 Y8.6798
G01 X4.4751 Y8.6574
G01 X4.4787 Y8.6533
G01 X4.4818 Y8.6488
G01 X4.5174 Y8.5840
G01 X4.5209 Y8.5763
G01 X4.5226 Y8.5709
G01 X4.5237 Y8.5653
G01 X4.5244 Y8.5554
G01 X4.5193 Y8.4829
G01 X4.5186 Y8.4772
G01 X4.5173 Y8.4717
G01 X4.5155 Y8.4663
G01 X4.5132 Y8.4610
G01 X4.5103 Y8.4561
G01 X4.4709 Y8.4010
G01 X4.4666 Y8.3956
G01 X4.4606 Y8.3900
G01 X4.3294 Y8.2831
G01 X4.2082 Y8.1344
G01 X4.1193 Y7.9643
G01 X4.0665 Y7.7794
G01 X4.0565 Y7.6680
G01 X4.0565 Y7.0570
G01 X4.0665 Y6.9456
G01 X4.1193 Y6.7607
G01 X4.2082 Y6.5906
G01 X4.2814 Y6.5009
G01 X4.2867 Y6.4931
G01 X4.2897 Y6.4870
G01 X4.3174 Y6.4213
G01 X4.3195 Y6.4145
G01 X4.3208 Y6.4076
G01 X4.3213 Y6.4005
G01 X4.3210 Y6.3949
G01 X4.3076 Y6.3177
G01 X4.3059 Y6.3123
G01 X4.3037 Y6.3070
G01 X4.3003 Y6.3008
G01 X4.2970 Y6.2962
G01 X4.2460 Y6.2406
G01 X4.2398 Y6.2351
G01 X4.2341 Y6.2312
G01 X4.2267 Y6.2275
G01 X4.2202 Y6.2253
G01 X4.1549 Y6.2072
G01 X4.1452 Y6.2056
G01 X3.9529 Y6.2055
G01 X3.8593 Y6.1959
G01 X3.7052 Y6.1448
G01 X3.5673 Y6.0598
G01 X3.4527 Y5.9452
G01 X3.3677 Y5.8074
G01 X3.3166 Y5.6532
G01 X3.3070 Y5.5596
G01 X3.3070 Y5.2697
G00 Z2.0000
G00 X4.4827 Y6.0934
G01 F30.00
G01 Z-0.0400
G01 F80.00
G01 X6.5081 Y6.0933
G01 X6.5488 Y6.0913
G01 X6.5731 Y6.0886
G01 X6.6133 Y6.0822
G01 X6.6292 Y6.0787
G01 X6.6608 Y6.0706
G01 X6.6840 Y6.0633
G01 X6.7223 Y6.0492
G01 X6.7593 Y6.0321
G01 X6.7800 Y6.0214
G01 X6.7813 Y6.0365
G01 X6.7835 Y6.0527
G01 X6.7865 Y6.0689
G01 X6.7903 Y6.0849
G01 X6.7975 Y6.1084
G01 X6.8097 Y6.1397
G01 X6.8174 Y6.1639
G01 X6.8231 Y6.1793
G01 X6.8330 Y6.2018
G01 X6.8406 Y6.2164
G01 X6.8489 Y6.2306
G01 X6.8626 Y6.2511
G01 X6.8742 Y6.2669
G01 X6.8846 Y6.2796
G01 X6.9012 Y6.2978
G01 X6.9131 Y6.3091
G01 X6.9255 Y6.3199
G01 X6.9384 Y6.3301
G01 X6.9590 Y6.3448
G01 X6.9849 Y6.3659
G01 X6.9981 Y6.3753
G01 X7.0117 Y6.3841
G01 X7.0257 Y6.3922
G01 X7.0402 Y6.3996
G01 X7.0549 Y6.4063
G01 X7.0744 Y6.4140
G01 X7.0898 Y6.4196
G01 X7.1055 Y6.4243
G01 X7.1215 Y6.4283
G01 X7.1376 Y6.4314
G01 X7.1580 Y6.4343
G01 X7.1746 Y6.4376
G01 X7.1913 Y6.4402
G01 X7.2166 Y6.4425
G01 X7.2336 Y6.4429
G01 X10.0434 Y6.4429
G01 X10.1167 Y6.4494
G01 X10.2497 Y6.4875
G01 X10.3704 Y6.5505
G01 X10.4195 Y6.5905
G01 X10.4383 Y6.6048
G01 X10.4514 Y6.6136
G01 X10.4649 Y6.6217
G01 X10.4858 Y6.6326
G01 X10.5002 Y6.6391
G01 X10.5646 Y6.6662
G01 X10.5796 Y6.6721
G01 X10.5950 Y6.6773
G01 X10.6184 Y6.6836
G01 X10.6342 Y6.6868
G01 X10.6582 Y6.6903
G01 X10.6743 Y6.6916
G01 X10.7069 Y6.6929
G01 X14.5659 Y6.6929
G01 X14.6953 Y6.7186
G01 X14.8172 Y6.7691
G01 X14.9269 Y6.8424
G01 X15.5638 Y7.4792
G01 X15.5755 Y7.4898
G01 X15.5876 Y7.4998
G01 X15.6002 Y7.5093
G01 X15.6133 Y7.5181
G01 X15.6336 Y7.5302
G01 X15.6949 Y7.5636
G01 X15.7095 Y7.5712
G01 X15.7245 Y7.5779
G01 X15.7398 Y7.5840
G01 X15.7553 Y7.5892
G01 X15.7712 Y7.5937
G01 X15.7872 Y7.5974
G01 X15.8115 Y7.6014
G01 X15.8278 Y7.6031
G01 X15.8442 Y7.6040
G01 X15.8689 Y7.6038
G01 X15.9468 Y7.5983
G01 X15.9713 Y7.5956
G01 X15.9875 Y7.5928
G01 X16.0035 Y7.5892
G01 X16.0272 Y7.5824
G01 X16.0427 Y7.5768
G01 X16.0578 Y7.5705
G01 X16.0727 Y7.5634
G01 X16.0871 Y7.5557
G01 X16.1081 Y7.5427
G01 X16.1215 Y7.5331
G01 X16.1774 Y7.4913
G01 X16.1966 Y7.4758
G01 X16.2087 Y7.4647
G01 X16.2202 Y7.4530
G01 X16.2312 Y7.4407
G01 X16.2411 Y7.4285
G01 X16.2646 Y7.4942
G01 X16.2704 Y7.5093
G01 X16.2770 Y7.5242
G01 X16.3190 Y7.6129
G01 X16.3263 Y7.6274
G01 X16.3343 Y7.6415
G01 X16.3847 Y7.7257
G01 X16.3934 Y7.7394
G01 X16.4028 Y7.7527
G01 X16.4661 Y7.8380
G01 X16.4818 Y7.8566
G01 X16.5477 Y7.9293
G01 X16.5589 Y7.9411
G01 X16.5707 Y7.9523
G01 X16.6434 Y8.0182
G01 X16.6557 Y8.0288
G01 X16.6685 Y8.0388
G01 X16.7473 Y8.0972
G01 X16.7674 Y8.1110
G01 X16.8585 Y8.1657
G01 X16.8726 Y8.1737
G01 X16.8871 Y8.1810
G01 X16.9758 Y8.2230
G01 X16.9907 Y8.2296
G01 X17.0058 Y8.2354
G01 X17.0982 Y8.2685
G01 X17.1137 Y8.2736
G01 X17.1293 Y8.2779
G01 X17.2245 Y8.3018
G01 X17.2404 Y8.3053
G01 X17.2564 Y8.3081
G01 X17.3534 Y8.3225
G01 X17.3695 Y8.3245
G01 X17.3857 Y8.3257
G01 X17.4838 Y8.3305
G01 X17.5000 Y8.3309
G01 X17.5162 Y8.3305
G01 X17.6224 Y8.3252
G01 X17.6466 Y8.3225
G01 X17.7436 Y8.3081
G01 X17.7596 Y8.3053
G01 X17.7755 Y8.3018
G01 X17.8707 Y8.2779
G01 X17.8863 Y8.2736
G01 X17.9018 Y8.2685
G01 X17.9942 Y8.2354
G01 X18.0093 Y8.2296
G01 X18.0242 Y8.2230
G01 X18.1129 Y8.1810
G01 X18.1274 Y8.1737
G01 X18.1415 Y8.1657
G01 X18.2257 Y8.1153
G01 X18.2394 Y8.1066
G01 X18.2527 Y8.0972
G01 X18.3315 Y8.0388
G01 X18.3443 Y8.0288
G01 X18.3566 Y8.0182
G01 X18.4293 Y7.9523
G01 X18.4411 Y7.9411
G01 X18.4523 Y7.9293
G01 X18.5182 Y7.8566
G01 X18.5288 Y7.8443
G01 X18.5388 Y7.8315
G01 X18.5972 Y7.7527
G01 X18.6066 Y7.7394
G01 X18.6153 Y7.7257
G01 X18.6657 Y7.6415
G01 X18.6737 Y7.6274
G01 X18.6810 Y7.6129
G01 X18.7230 Y7.5242
G01 X18.7296 Y7.5093
G01 X18.7354 Y7.4942
G01 X18.7685 Y7.4018
G01 X18.7736 Y7.3863
G01 X18.7779 Y7.3707
G01 X18.8018 Y7.2755
G01 X18.8053 Y7.2596
G01 X18.8081 Y7.2436
G01 X18.8236 Y7.1385
G01 X18.8257 Y7.1143
G01 X18.8305 Y7.0162
G01 X18.8309 Y7.0000
G01 X18.8305 Y6.9838
G01 X18.8257 Y6.8857
G01 X18.8236 Y6.8615
G01 X18.8081 Y6.7564
G01 X18.8036 Y6.7324
G01 X18.7758 Y6.6215
G01 X18.7711 Y6.6059
G01 X18.7579 Y6.5687
G01 X18.7777 Y6.5725
G01 X18.7940 Y6.5747
G01 X18.8800 Y6.5821
G01 X18.9046 Y6.5827
G01 X18.9211 Y6.5821
G01 X18.9374 Y6.5806
G01 X18.9537 Y6.5784
G01 X18.9699 Y6.5753
G01 X18.9937 Y6.5692
G01 X19.0094 Y6.5642
G01 X19.0248 Y6.5584
G01 X19.0472 Y6.5482
G01 X19.1236 Y6.5080
G01 X19.1377 Y6.4996
G01 X19.1514 Y6.4905
G01 X19.1646 Y6.4808
G01 X19.1774 Y6.4704
G01 X19.1896 Y6.4594
G01 X19.2068 Y6.4418
G01 X19.2176 Y6.4293
G01 X19.2277 Y6.4164
G01 X19.2371 Y6.4029
G01 X19.2459 Y6.3890
G01 X19.2884 Y6.3138
G01 X19.2992 Y6.2915
G01 X19.3055 Y6.2762
G01 X19.3110 Y6.2606
G01 X19.3177 Y6.2368
G01 X19.3227 Y6.2125
G01 X19.3250 Y6.1961
G01 X19.3290 Y6.1605
G01 X19.3303 Y6.1379
G01 X19.3304 Y5.4340
G01 X19.3561 Y5.3047
G01 X19.4066 Y5.1828
G01 X19.4799 Y5.0731
G01 X20.7106 Y3.8424
G01 X20.8258 Y3.7654
G01 X20.8350 Y3.7605
G01 X20.8485 Y3.7525
G01 X20.8681 Y3.7392
G01 X20.8806 Y3.7296
G01 X20.9350 Y3.6858
G01 X20.9475 Y3.6752
G01 X20.9653 Y3.6581
G01 X20.9817 Y3.6398
G01 X20.9919 Y3.6269
G01 X21.0060 Y3.6066
G01 X21.0145 Y3.5926
G01 X21.0259 Y3.5707
G01 X21.0327 Y3.5557
G01 X21.0386 Y3.5404
G01 X21.0659 Y3.4584
G01 X21.0704 Y3.4423
G01 X21.0740 Y3.4259
G01 X21.0780 Y3.4011
G01 X21.0800 Y3.3761
G01 X21.0804 Y3.3294
G01 X21.0855 Y3.2794
G01 X21.1171 Y3.1840
G01 X21.1686 Y3.1005
G01 X21.2380 Y3.0311
G01 X21.3215 Y2.9796
G01 X21.4169 Y2.9480
G01 X21.4668 Y2.9429
G01 X22.7921 Y2.9428
G01 X22.8078 Y2.9420
G01 X22.8235 Y2.9406
G01 X22.8391 Y2.9383
G01 X22.8546 Y2.9353
G01 X22.8774 Y2.9295
G01 X22.9445 Y2.9098
G01 X22.9599 Y2.9048
G01 X22.9826 Y2.8960
G01 X22.9974 Y2.8892
G01 X23.0118 Y2.8817
G01 X23.0258 Y2.8734
G01 X23.0394 Y2.8645
G01 X23.0525 Y2.8550
G01 X23.0863 Y2.8277
G01 X23.0995 Y2.8158
G01 X23.7456 Y2.1699
G01 X23.8553 Y2.0966
G01 X23.9772 Y2.0461
G01 X24.1065 Y2.0204
G01 X36.2559 Y2.0204
G01 X36.3853 Y2.0461
G01 X36.4738 Y2.0827
G01 X36.4880 Y2.0878
G01 X36.5006 Y2.0918
G01 X36.5234 Y2.0980
G01 X36.5388 Y2.1012
G01 X36.5622 Y2.1047
G01 X36.5779 Y2.1061
G01 X36.6023 Y2.1068
G01 X36.6159 Y2.1087
G01 X36.6321 Y2.1102
G01 X36.6483 Y2.1108
G01 X36.6645 Y2.1107
G01 X36.6888 Y2.1090
G01 X36.9070 Y2.0804
G01 X37.0930 Y2.0804
G01 X37.2775 Y2.1047
G01 X37.4573 Y2.1528
G01 X37.6292 Y2.2241
G01 X37.7904 Y2.3171
G01 X37.9380 Y2.4304
G01 X38.0696 Y2.5620
G01 X38.1829 Y2.7096
G01 X38.2759 Y2.8708
G01 X38.3472 Y3.0427
G01 X38.3953 Y3.2225
G01 X38.4196 Y3.4070
G01 X38.4196 Y3.5930
G01 X38.3953 Y3.7775
G01 X38.3472 Y3.9573
G01 X38.2759 Y4.1292
G01 X38.1829 Y4.2904
G01 X38.0842 Y4.4190
G01 X37.9616 Y4.4190
G01 X38.0182 Y4.3566
G01 X38.0288 Y4.3443
G01 X38.0388 Y4.3315
G01 X38.0972 Y4.2527
G01 X38.1066 Y4.2394
G01 X38.1153 Y4.2257
G01 X38.1657 Y4.1415
G01 X38.1737 Y4.1274
G01 X38.1810 Y4.1129
G01 X38.2230 Y4.0242
G01 X38.2296 Y4.0093
G01 X38.2354 Y3.9942
G01 X38.2685 Y3.9018
G01 X38.2736 Y3.8863
G01 X38.2779 Y3.8707
G01 X38.3018 Y3.7755
G01 X38.3053 Y3.7596
G01 X38.3081 Y3.7436
G01 X38.3225 Y3.6466
G01 X38.3245 Y3.6305
G01 X38.3257 Y3.6143
G01 X38.3305 Y3.5162
G01 X38.3309 Y3.5000
G01 X38.3305 Y3.4838
G01 X38.3257 Y3.3857
G01 X38.3245 Y3.3695
G01 X38.3225 Y3.3534
G01 X38.3081 Y3.2564
G01 X38.3053 Y3.2404
G01 X38.3018 Y3.2245
G01 X38.2779 Y3.1293
G01 X38.2736 Y3.1137
G01 X38.2685 Y3.0982
G01 X38.2354 Y3.0058
G01 X38.2296 Y2.9907
G01 X38.2230 Y2.9758
G01 X38.1810 Y2.8871
G01 X38.1737 Y2.8726
G01 X38.1657 Y2.8585
G01 X38.1153 Y2.7743
G01 X38.1066 Y2.7606
G01 X38.0972 Y2.7473
G01 X38.0388 Y2.6685
G01 X38.0288 Y2.6557
G01 X38.0182 Y2.6434
G01 X37.9523 Y2.5707
G01 X37.9411 Y2.5589
G01 X37.9293 Y2.5477
G01 X37.8566 Y2.4818
G01 X37.8443 Y2.4712
G01 X37.8315 Y2.4612
G01 X37.7527 Y2.4028
G01 X37.7394 Y2.3934
G01 X37.7257 Y2.3847
G01 X37.6415 Y2.3343
G01 X37.6274 Y2.3263
G01 X37.6129 Y2.3190
G01 X37.5242 Y2.2770
G01 X37.5093 Y2.2704
G01 X37.4942 Y2.2646
G01 X37.4018 Y2.2315
G01 X37.3863 Y2.2264
G01 X37.3707 Y2.2221
G01 X37.2755 Y2.1982
G01 X37.2596 Y2.1947
G01 X37.2436 Y2.1919
G01 X37.1466 Y2.1775
G01 X37.1305 Y2.1755
G01 X37.1143 Y2.1743
G01 X37.0162 Y2.1695
G01 X37.0000 Y2.1691
G01 X36.9838 Y2.1695
G01 X36.8857 Y2.1743
G01 X36.8615 Y2.1764
G01 X36.7564 Y2.1919
G01 X36.7324 Y2.1964
G01 X36.6215 Y2.2242
G01 X36.6059 Y2.2289
G01 X36.5626 Y2.2443
G01 X36.5458 Y2.2309
G01 X36.5195 Y2.2115
G01 X36.5060 Y2.2025
G01 X36.4780 Y2.1856
G01 X36.4639 Y2.1776
G01 X36.4494 Y2.1703
G01 X36.4198 Y2.1564
G01 X36.3972 Y2.1474
G01 X36.3664 Y2.1365
G01 X36.3509 Y2.1317
G01 X36.3113 Y2.1218
G01 X36.2954 Y2.1187
G01 X36.2631 Y2.1138
G01 X36.2470 Y2.1118
G01 X36.2308 Y2.1106
G01 X36.1900 Y2.1090
G01 X24.1725 Y2.1090
G01 X24.1317 Y2.1106
G01 X24.1075 Y2.1127
G01 X24.0752 Y2.1174
G01 X24.0591 Y2.1202
G01 X24.0195 Y2.1297
G01 X23.9961 Y2.1365
G01 X23.9577 Y2.1502
G01 X23.9353 Y2.1598
G01 X23.8986 Y2.1776
G01 X23.8634 Y2.1982
G01 X23.8430 Y2.2115
G01 X23.8102 Y2.2358
G01 X23.7916 Y2.2515
G01 X23.7617 Y2.2792
G01 X23.0092 Y3.0316
G01 X21.5000 Y3.0316
G01 X21.4757 Y3.0325
G01 X21.4514 Y3.0352
G01 X21.4354 Y3.0380
G01 X21.4196 Y3.0415
G01 X21.4039 Y3.0459
G01 X21.3885 Y3.0510
G01 X21.3734 Y3.0568
G01 X21.3585 Y3.0634
G01 X21.3440 Y3.0707
G01 X21.3299 Y3.0787
G01 X21.3162 Y3.0874
G01 X21.3029 Y3.0967
G01 X21.2901 Y3.1067
G01 X21.2778 Y3.1173
G01 X21.2660 Y3.1285
G01 X21.2548 Y3.1403
G01 X21.2391 Y3.1589
G01 X21.2295 Y3.1720
G01 X21.2204 Y3.1855
G01 X21.2082 Y3.2065
G01 X21.1975 Y3.2284
G01 X21.1885 Y3.2510
G01 X21.1811 Y3.2742
G01 X21.1755 Y3.2979
G01 X21.1716 Y3.3220
G01 X21.1700 Y3.3382
G01 X21.1691 Y3.3625
G01 X21.1691 Y3.7815
G01 X21.1375 Y3.7815
G01 X21.1213 Y3.7819
G01 X21.0886 Y3.7836
G01 X21.0725 Y3.7852
G01 X21.0321 Y3.7912
G01 X21.0162 Y3.7943
G01 X20.9766 Y3.8042
G01 X20.9611 Y3.8090
G01 X20.9227 Y3.8227
G01 X20.9077 Y3.8289
G01 X20.8708 Y3.8464
G01 X20.8565 Y3.8540
G01 X20.8215 Y3.8750
G01 X20.8080 Y3.8840
G01 X20.7752 Y3.9083
G01 X20.7627 Y3.9186
G01 X20.7384 Y3.9405
G01 X20.7267 Y3.9517
G01 X19.5835 Y5.0950
G01 X19.5615 Y5.1191
G01 X19.5509 Y5.1314
G01 X19.5263 Y5.1639
G01 X19.5169 Y5.1772
G01 X19.4956 Y5.2120
G01 X19.4876 Y5.2261
G01 X19.4803 Y5.2406
G01 X19.4664 Y5.2702
G01 X19.4602 Y5.2852
G01 X19.4465 Y5.3236
G01 X19.4417 Y5.3391
G01 X19.4318 Y5.3787
G01 X19.4287 Y5.3946
G01 X19.4227 Y5.4350
G01 X19.4211 Y5.4511
G01 X19.4191 Y5.4919
G01 X19.4190 Y7.2593
G01 X17.8968 Y8.7815
G01 X16.7407 Y8.7815
G01 X14.9108 Y6.9517
G01 X14.8991 Y6.9405
G01 X14.8686 Y6.9134
G01 X14.8558 Y6.9034
G01 X14.8295 Y6.8840
G01 X14.8160 Y6.8750
G01 X14.7880 Y6.8581
G01 X14.7739 Y6.8501
G01 X14.7594 Y6.8428
G01 X14.7223 Y6.8257
G01 X14.6841 Y6.8116
G01 X14.6687 Y6.8065
G01 X14.6530 Y6.8022
G01 X14.6134 Y6.7926
G01 X14.5731 Y6.7863
G01 X14.5489 Y6.7836
G01 X14.5162 Y6.7819
G01 X14.5000 Y6.7815
G01 X10.4772 Y6.7815
G01 X10.4541 Y6.7503
G01 X10.4384 Y6.7317
G01 X10.4108 Y6.7017
G01 X10.3808 Y6.6741
G01 X10.3622 Y6.6584
G01 X10.3294 Y6.6341
G01 X10.3090 Y6.6208
G01 X10.2738 Y6.6002
G01 X10.2371 Y6.5824
G01 X10.2148 Y6.5728
G01 X10.1764 Y6.5591
G01 X10.1530 Y6.5523
G01 X10.1133 Y6.5428
G01 X10.0731 Y6.5364
G01 X10.0488 Y6.5337
G01 X10.0081 Y6.5317
G01 X5.0000 Y6.5316
G01 X4.9593 Y6.5332
G01 X4.9350 Y6.5353
G01 X4.9027 Y6.5400
G01 X4.8867 Y6.5428
G01 X4.8470 Y6.5523
G01 X4.8236 Y6.5591
G01 X4.7929 Y6.5700
G01 X4.7777 Y6.5758
G01 X4.7407 Y6.5929
G01 X4.7191 Y6.6041
G01 X4.6910 Y6.6208
G01 X4.6773 Y6.6295
G01 X4.6443 Y6.6535
G01 X4.6253 Y6.6687
G01 X4.6010 Y6.6906
G01 X4.5892 Y6.7017
G01 X4.5616 Y6.7317
G01 X4.5459 Y6.7503
G01 X4.5264 Y6.7765
G01 X4.5170 Y6.7898
G01 X4.4957 Y6.8245
G01 X4.4840 Y6.8459
G01 X4.4665 Y6.8827
G01 X4.4575 Y6.9054
G01 X4.4441 Y6.9439
G01 X4.4338 Y6.9833
G01 X4.4288 Y7.0072
G01 X4.4228 Y7.0475
G01 X4.4207 Y7.0718
G01 X4.4191 Y7.1125
G01 X4.4192 Y7.6206
G01 X4.4207 Y7.6532
G01 X4.4219 Y7.6694
G01 X4.4239 Y7.6856
G01 X4.4288 Y7.7178
G01 X4.4338 Y7.7417
G01 X4.4419 Y7.7733
G01 X4.4466 Y7.7889
G01 X4.4575 Y7.8196
G01 X4.4633 Y7.8348
G01 X4.4804 Y7.8718
G01 X4.4916 Y7.8934
G01 X4.5083 Y7.9215
G01 X4.5170 Y7.9352
G01 X4.5264 Y7.9485
G01 X4.5510 Y7.9810
G01 X4.5781 Y8.0115
G01 X4.5951 Y8.0289
G01 X4.6192 Y8.0509
G01 X4.6315 Y8.0615
G01 X4.6443 Y8.0715
G01 X4.6706 Y8.0909
G01 X4.6910 Y8.1042
G01 X4.7262 Y8.1248
G01 X4.7407 Y8.1321
G01 X4.7777 Y8.1492
G01 X4.7929 Y8.1550
G01 X4.8236 Y8.1659
G01 X4.8470 Y8.1727
G01 X4.8867 Y8.1822
G01 X4.9027 Y8.1850
G01 X4.9350 Y8.1897
G01 X4.9593 Y8.1918
G01 X5.0000 Y8.1934
G01 X10.0081 Y8.1933
G01 X10.0488 Y8.1913
G01 X10.0731 Y8.1886
G01 X10.1133 Y8.1822
G01 X10.1530 Y8.1727
G01 X10.1764 Y8.1659
G01 X10.2148 Y8.1522
G01 X10.2371 Y8.1426
G01 X10.2738 Y8.1248
G01 X10.3090 Y8.1042
G01 X10.3294 Y8.0909
G01 X10.3622 Y8.0666
G01 X10.3808 Y8.0509
G01 X10.4108 Y8.0233
G01 X10.4384 Y7.9933
G01 X10.4541 Y7.9747
G01 X10.4772 Y7.9435
G01 X14.2593 Y7.9435
G01 X15.7471 Y9.4312
G01 X14.5835 Y10.5950
G01 X14.5561 Y10.6252
G01 X14.5458 Y10.6377
G01 X14.5215 Y10.6705
G01 X14.5125 Y10.6840
G01 X14.4915 Y10.7190
G01 X14.4839 Y10.7333
G01 X14.4664 Y10.7702
G01 X14.4602 Y10.7852
G01 X14.4491 Y10.8159
G01 X14.4440 Y10.8313
G01 X14.4397 Y10.8470
G01 X14.4301 Y10.8866
G01 X14.4238 Y10.9269
G01 X14.4218 Y10.9431
G01 X14.4206 Y10.9592
G01 X14.4190 Y11.0000
G01 X14.4191 Y12.5081
G01 X14.4206 Y12.5408
G01 X14.4218 Y12.5569
G01 X14.4238 Y12.5731
G01 X14.4301 Y12.6134
G01 X14.4397 Y12.6530
G01 X14.4440 Y12.6687
G01 X14.4491 Y12.6841
G01 X14.4602 Y12.7148
G01 X14.4698 Y12.7372
G01 X14.4876 Y12.7739
G01 X14.4956 Y12.7880
G01 X14.5169 Y12.8228
G01 X14.5263 Y12.8361
G01 X14.5509 Y12.8686
G01 X14.5780 Y12.8991
G01 X14.5892 Y12.9108
G01 X17.0892 Y15.4108
G01 X17.1009 Y15.4220
G01 X17.1314 Y15.4491
G01 X17.1639 Y15.4737
G01 X17.1772 Y15.4831
G01 X17.1909 Y15.4918
G01 X17.2190 Y15.5085
G01 X17.2333 Y15.5161
G01 X17.2628 Y15.5302
G01 X17.2777 Y15.5368
G01 X17.2928 Y15.5426
G01 X17.3313 Y15.5560
G01 X17.3470 Y15.5603
G01 X17.3866 Y15.5699
G01 X17.4269 Y15.5762
G01 X17.4431 Y15.5782
G01 X17.4592 Y15.5794
G01 X17.4919 Y15.5809
G01 X23.6436 Y15.5810
G01 X23.6215 Y15.5867
G01 X23.6059 Y15.5914
G01 X23.4982 Y15.6299
G01 X23.4758 Y15.6395
G01 X23.3798 Y15.6850
G01 X23.3585 Y15.6968
G01 X23.2743 Y15.7472
G01 X23.2606 Y15.7559
G01 X23.2473 Y15.7653
G01 X23.1685 Y15.8237
G01 X23.1557 Y15.8337
G01 X23.1434 Y15.8443
G01 X23.0707 Y15.9102
G01 X23.0589 Y15.9214
G01 X23.0477 Y15.9332
G01 X22.9818 Y16.0059
G01 X22.9661 Y16.0245
G01 X22.9028 Y16.1098
G01 X22.8890 Y16.1299
G01 X22.8302 Y16.2280
G01 X22.8225 Y16.2423
G01 X22.8039 Y16.2815
G01 X16.7407 Y16.2815
G01 X11.4108 Y10.9517
G01 X11.3991 Y10.9405
G01 X11.3748 Y10.9186
G01 X11.3623 Y10.9083
G01 X11.3361 Y10.8888
G01 X11.3160 Y10.8750
G01 X11.2880 Y10.8581
G01 X11.2739 Y10.8501
G01 X11.2372 Y10.8323
G01 X11.2148 Y10.8227
G01 X11.1841 Y10.8116
G01 X11.1687 Y10.8065
G01 X11.1530 Y10.8022
G01 X11.1213 Y10.7943
G01 X11.0973 Y10.7899
G01 X11.0569 Y10.7843
G01 X11.0408 Y10.7831
G01 X11.0081 Y10.7816
G01 X10.4772 Y10.7815
G01 X10.4541 Y10.7503
G01 X10.4438 Y10.7378
G01 X10.4164 Y10.7076
G01 X10.4049 Y10.6961
G01 X10.3747 Y10.6687
G01 X10.3622 Y10.6584
G01 X10.3294 Y10.6341
G01 X10.3159 Y10.6251
G01 X10.2809 Y10.6041
G01 X10.2666 Y10.5965
G01 X10.2298 Y10.5790
G01 X10.2148 Y10.5728
G01 X10.1764 Y10.5591
G01 X10.1608 Y10.5544
G01 X10.1213 Y10.5445
G01 X10.1053 Y10.5413
G01 X10.0731 Y10.5364
G01 X10.0569 Y10.5344
G01 X10.0407 Y10.5332
G01 X10.0000 Y10.5316
G01 X5.0000 Y10.5316
G01 X4.9838 Y10.5320
G01 X4.9512 Y10.5337
G01 X4.9269 Y10.5364
G01 X4.8867 Y10.5428
G01 X4.8708 Y10.5463
G01 X4.8314 Y10.5566
G01 X4.7929 Y10.5700
G01 X4.7777 Y10.5758
G01 X4.7407 Y10.5929
G01 X4.7191 Y10.6041
G01 X4.6910 Y10.6208
G01 X4.6773 Y10.6295
G01 X4.6640 Y10.6389
G01 X4.6315 Y10.6635
G01 X4.6010 Y10.6906
G01 X4.5836 Y10.7076
G01 X4.5616 Y10.7317
G01 X4.5510 Y10.7440
G01 X4.5410 Y10.7568
G01 X4.5216 Y10.7831
G01 X4.5083 Y10.8035
G01 X4.4877 Y10.8387
G01 X4.4804 Y10.8532
G01 X4.4633 Y10.8902
G01 X4.4492 Y10.9285
G01 X4.4441 Y10.9439
G01 X4.4338 Y10.9833
G01 X4.4303 Y10.9992
G01 X4.4275 Y11.0152
G01 X4.4228 Y11.0475
G01 X4.4212 Y11.0637
G01 X4.4195 Y11.0963
G01 X4.4191 Y11.1125
G01 X4.4192 Y11.6206
G01 X4.4212 Y11.6613
G01 X4.4239 Y11.6856
G01 X4.4303 Y11.7258
G01 X4.4338 Y11.7417
G01 X4.4419 Y11.7733
G01 X4.4466 Y11.7889
G01 X4.4603 Y11.8273
G01 X4.4665 Y11.8423
G01 X4.4840 Y11.8791
G01 X4.4916 Y11.8934
G01 X4.5126 Y11.9284
G01 X4.5216 Y11.9419
G01 X4.5459 Y11.9747
G01 X4.5562 Y11.9872
G01 X4.5836 Y12.0174
G01 X4.5951 Y12.0289
G01 X4.6253 Y12.0563
G01 X4.6378 Y12.0666
G01 X4.6706 Y12.0909
G01 X4.6841 Y12.0999
G01 X4.7120 Y12.1168
G01 X4.7334 Y12.1285
G01 X4.7629 Y12.1426
G01 X4.7777 Y12.1492
G01 X4.8160 Y12.1633
G01 X4.8392 Y12.1706
G01 X4.8708 Y12.1787
G01 X4.8867 Y12.1822
G01 X4.9269 Y12.1886
G01 X4.9512 Y12.1913
G01 X4.9919 Y12.1933
G01 X10.0081 Y12.1933
G01 X10.0488 Y12.1913
G01 X10.0731 Y12.1886
G01 X10.1133 Y12.1822
G01 X10.1530 Y12.1727
G01 X10.1764 Y12.1659
G01 X10.2148 Y12.1522
G01 X10.2371 Y12.1426
G01 X10.2738 Y12.1248
G01 X10.3090 Y12.1042
G01 X10.3294 Y12.0909
G01 X10.3622 Y12.0666
G01 X10.3808 Y12.0509
G01 X10.4108 Y12.0233
G01 X10.4384 Y11.9933
G01 X10.4541 Y11.9747
G01 X10.4772 Y11.9435
G01 X10.7593 Y11.9435
G01 X16.0892 Y17.2733
G01 X16.1191 Y17.3010
G01 X16.1314 Y17.3116
G01 X16.1442 Y17.3216
G01 X16.1705 Y17.3410
G01 X16.1840 Y17.3500
G01 X16.2120 Y17.3669
G01 X16.2261 Y17.3749
G01 X16.2406 Y17.3822
G01 X16.2777 Y17.3993
G01 X16.3159 Y17.4134
G01 X16.3391 Y17.4208
G01 X16.3787 Y17.4307
G01 X16.4027 Y17.4351
G01 X16.4431 Y17.4407
G01 X16.4592 Y17.4419
G01 X16.5000 Y17.4435
G01 X22.8039 Y17.4435
G01 X22.8225 Y17.4827
G01 X22.8302 Y17.4970
G01 X22.8890 Y17.5951
G01 X22.9028 Y17.6152
G01 X22.9612 Y17.6940
G01 X22.9712 Y17.7068
G01 X22.9818 Y17.7191
G01 X23.0477 Y17.7918
G01 X23.0647 Y17.8093
G01 X23.1495 Y17.8861
G01 X23.1620 Y17.8964
G01 X23.1924 Y17.9190
G01 X23.0489 Y17.9190
G01 X22.9304 Y17.8005
G01 X22.8610 Y17.7101
G01 X22.8460 Y17.6919
G01 X22.8352 Y17.6803
G01 X22.8240 Y17.6693
G01 X22.8122 Y17.6589
G01 X22.7936 Y17.6443
G01 X22.7372 Y17.6031
G01 X22.7174 Y17.5897
G01 X22.6966 Y17.5777
G01 X22.6823 Y17.5706
G01 X22.6677 Y17.5642
G01 X22.6453 Y17.5559
G01 X22.6300 Y17.5513
G01 X22.6145 Y17.5475
G01 X22.5989 Y17.5443
G01 X22.5489 Y17.5357
G01 X22.5246 Y17.5330
G01 X22.5001 Y17.5321
G01 X16.4340 Y17.5321
G01 X16.3047 Y17.5064
G01 X16.1828 Y17.4559
G01 X16.0731 Y17.3826
G01 X10.9315 Y12.2410
G01 X10.9142 Y12.2249
G01 X10.8958 Y12.2100
G01 X10.8764 Y12.1966
G01 X10.8630 Y12.1884
G01 X10.7948 Y12.1510
G01 X10.7802 Y12.1435
G01 X10.7576 Y12.1336
G01 X10.7422 Y12.1280
G01 X10.7265 Y12.1231
G01 X10.7025 Y12.1173
G01 X10.6782 Y12.1132
G01 X10.6618 Y12.1116
G01 X10.6372 Y12.1106
G01 X10.6126 Y12.1114
G01 X10.5347 Y12.1171
G01 X10.5184 Y12.1191
G01 X10.4941 Y12.1236
G01 X10.4703 Y12.1298
G01 X10.4547 Y12.1350
G01 X10.4394 Y12.1409
G01 X10.4115 Y12.1533
G01 X10.3992 Y12.1594
G01 X10.2497 Y12.2375
G01 X10.1167 Y12.2756
G01 X10.0434 Y12.2821
G01 X7.2336 Y12.2821
G01 X7.2100 Y12.2830
G01 X7.1865 Y12.2855
G01 X7.1633 Y12.2897
G01 X7.1480 Y12.2934
G01 X7.0733 Y12.3152
G01 X7.0500 Y12.3230
G01 X7.0272 Y12.3326
G01 X7.0053 Y12.3438
G01 X6.9911 Y12.3521
G01 X6.9774 Y12.3612
G01 X6.9642 Y12.3709
G01 X6.9514 Y12.3813
G01 X6.9392 Y12.3923
G01 X6.9276 Y12.4038
G01 X6.9165 Y12.4160
G01 X6.8707 Y12.4688
G01 X6.8553 Y12.4880
G01 X6.8458 Y12.5014
G01 X6.8370 Y12.5153
G01 X6.8289 Y12.5296
G01 X6.8215 Y12.5443
G01 X6.8149 Y12.5593
G01 X6.8090 Y12.5747
G01 X6.8039 Y12.5903
G01 X6.7996 Y12.6061
G01 X6.7945 Y12.6303
G01 X6.7836 Y12.7057
G01 X6.7738 Y12.7002
G01 X6.7593 Y12.6929
G01 X6.7223 Y12.6758
G01 X6.6840 Y12.6617
G01 X6.6608 Y12.6544
G01 X6.6292 Y12.6463
G01 X6.6133 Y12.6428
G01 X6.5731 Y12.6364
G01 X6.5488 Y12.6337
G01 X6.5081 Y12.6317
G01 X4.4823 Y12.6316
G01 X4.5039 Y12.6067
G01 X4.5143 Y12.5940
G01 X4.5242 Y12.5808
G01 X4.5333 Y12.5672
G01 X4.5417 Y12.5531
G01 X4.5531 Y12.5312
G01 X4.5628 Y12.5085
G01 X4.5683 Y12.4930
G01 X4.5751 Y12.4694
G01 X4.5801 Y12.4452
G01 X4.5923 Y12.3600
G01 X4.5938 Y12.3441
G01 X4.5947 Y12.3201
G01 X4.5942 Y12.3041
G01 X4.5930 Y12.2881
G01 X4.5911 Y12.2723
G01 X4.5883 Y12.2565
G01 X4.5828 Y12.2331
G01 X4.5782 Y12.2178
G01 X4.5729 Y12.2027
G01 X4.5668 Y12.1879
G01 X4.5402 Y12.1272
G01 X4.5332 Y12.1125
G01 X4.5256 Y12.0981
G01 X4.5173 Y12.0841
G01 X4.5036 Y12.0639
G01 X4.4936 Y12.0510
G01 X4.4380 Y11.9829
G01 X4.3750 Y11.8622
G01 X4.3369 Y11.7292
G01 X4.3304 Y11.6559
G01 X4.3304 Y11.0692
G01 X4.3369 Y10.9958
G01 X4.3750 Y10.8628
G01 X4.4380 Y10.7421
G01 X4.5241 Y10.6366
G01 X4.6397 Y10.5422
G01 X4.6514 Y10.5317
G01 X4.6680 Y10.5149
G01 X4.6834 Y10.4969
G01 X4.6974 Y10.4779
G01 X4.7415 Y10.4135
G01 X4.7541 Y10.3923
G01 X4.7652 Y10.3703
G01 X4.7746 Y10.3475
G01 X4.7798 Y10.3319
G01 X4.7844 Y10.3161
G01 X4.7897 Y10.2921
G01 X4.7922 Y10.2758
G01 X4.7944 Y10.2513
G01 X4.7969 Y10.1732
G01 X4.7970 Y10.1565
G01 X4.8236 Y10.1659
G01 X4.8392 Y10.1706
G01 X4.8787 Y10.1805
G01 X4.8947 Y10.1837
G01 X4.9269 Y10.1886
G01 X4.9431 Y10.1906
G01 X4.9593 Y10.1918
G01 X5.0000 Y10.1934
G01 X10.0000 Y10.1934
G01 X10.0407 Y10.1918
G01 X10.0569 Y10.1906
G01 X10.0731 Y10.1886
G01 X10.1053 Y10.1837
G01 X10.1213 Y10.1805
G01 X10.1608 Y10.1706
G01 X10.1764 Y10.1659
G01 X10.2016 Y10.1570
G01 X10.1995 Y10.1796
G01 X10.1990 Y10.1960
G01 X10.1993 Y10.2124
G01 X10.2004 Y10.2288
G01 X10.2023 Y10.2451
G01 X10.2050 Y10.2613
G01 X10.2097 Y10.2817
G01 X10.2131 Y10.3026
G01 X10.2189 Y10.3268
G01 X10.2237 Y10.3426
G01 X10.2294 Y10.3582
G01 X10.2358 Y10.3735
G01 X10.2429 Y10.3884
G01 X10.2513 Y10.4039
G01 X10.2599 Y10.4211
G01 X10.2682 Y10.4356
G01 X10.2771 Y10.4497
G01 X10.2868 Y10.4633
G01 X10.2971 Y10.4764
G01 X10.3081 Y10.4889
G01 X10.3374 Y10.5206
G01 X10.3486 Y10.5317
G01 X10.3664 Y10.5472
G01 X10.4195 Y10.5906
G01 X10.4383 Y10.6048
G01 X10.4514 Y10.6136
G01 X10.4649 Y10.6217
G01 X10.4788 Y10.6291
G01 X10.4930 Y10.6359
G01 X10.5721 Y10.6692
G01 X10.5950 Y10.6773
G01 X10.6184 Y10.6836
G01 X10.6422 Y10.6882
G01 X10.6663 Y10.6910
G01 X10.6976 Y10.6928
G01 X11.0612 Y10.6928
G01 X11.0770 Y10.6920
G01 X11.0927 Y10.6905
G01 X11.1082 Y10.6883
G01 X11.1237 Y10.6853
G01 X11.1466 Y10.6795
G01 X11.2136 Y10.6598
G01 X11.2293 Y10.6548
G01 X11.2522 Y10.6458
G01 X11.2671 Y10.6389
G01 X11.2888 Y10.6271
G01 X11.3027 Y10.6184
G01 X11.3228 Y10.6041
G01 X11.3355 Y10.5937
G01 X11.3537 Y10.5770
G01 X11.3650 Y10.5651
G01 X11.4215 Y10.4999
G01 X11.4365 Y10.4803
G01 X11.4499 Y10.4597
G01 X11.4618 Y10.4381
G01 X11.4721 Y10.4157
G01 X11.4806 Y10.3925
G01 X11.4853 Y10.3768
G01 X11.4885 Y10.3640
G01 X11.5477 Y10.4293
G01 X11.5589 Y10.4411
G01 X11.5707 Y10.4523
G01 X11.6434 Y10.5182
G01 X11.6557 Y10.5288
G01 X11.6685 Y10.5388
G01 X11.7473 Y10.5972
G01 X11.7606 Y10.6066
G01 X11.7743 Y10.6153
G01 X11.8585 Y10.6657
G01 X11.8726 Y10.6737
G01 X11.8871 Y10.6810
G01 X11.9758 Y10.7230
G01 X11.9907 Y10.7296
G01 X12.0058 Y10.7354
G01 X12.0764 Y10.7607
G01 X12.0253 Y10.8039
G01 X12.0132 Y10.8151
G01 X12.0018 Y10.8268
G01 X11.9909 Y10.8392
G01 X11.9758 Y10.8586
G01 X11.9666 Y10.8722
G01 X11.9540 Y10.8934
G01 X11.9465 Y10.9080
G01 X11.9397 Y10.9230
G01 X11.9337 Y10.9383
G01 X11.9285 Y10.9539
G01 X11.9078 Y11.0206
G01 X11.9034 Y11.0365
G01 X11.8982 Y11.0606
G01 X11.8948 Y11.0850
G01 X11.8932 Y11.1096
G01 X11.8931 Y11.1260
G01 X11.8946 Y11.1506
G01 X11.8979 Y11.1750
G01 X11.9012 Y11.1911
G01 X11.9052 Y11.2071
G01 X11.9239 Y11.2744
G01 X11.9287 Y11.2902
G01 X11.9374 Y11.3134
G01 X11.9442 Y11.3285
G01 X11.9517 Y11.3432
G01 X11.9599 Y11.3576
G01 X11.9689 Y11.3715
G01 X11.9785 Y11.3849
G01 X12.0059 Y11.4195
G01 X12.0158 Y11.4309
G01 X12.0263 Y11.4418
G01 X13.5630 Y12.9786
G01 X13.5744 Y12.9894
G01 X13.5863 Y12.9997
G01 X13.6051 Y13.0141
G01 X13.6248 Y13.0271
G01 X13.6384 Y13.0350
G01 X13.6997 Y13.0685
G01 X13.7144 Y13.0760
G01 X13.7369 Y13.0859
G01 X13.7524 Y13.0915
G01 X13.7681 Y13.0964
G01 X13.7920 Y13.1022
G01 X13.8082 Y13.1051
G01 X13.8327 Y13.1080
G01 X13.8491 Y13.1088
G01 X13.8737 Y13.1086
G01 X13.9516 Y13.1031
G01 X13.9680 Y13.1015
G01 X13.9923 Y13.0977
G01 X14.0163 Y13.0920
G01 X14.0398 Y13.0845
G01 X14.0627 Y13.0753
G01 X14.0775 Y13.0683
G01 X14.0920 Y13.0605
G01 X14.1129 Y13.0475
G01 X14.1263 Y13.0380
G01 X14.1822 Y12.9961
G01 X14.1951 Y12.9859
G01 X14.2075 Y12.9751
G01 X14.2194 Y12.9637
G01 X14.2360 Y12.9456
G01 X14.2513 Y12.9262
G01 X14.2651 Y12.9058
G01 X14.2773 Y12.8843
G01 X14.2878 Y12.8621
G01 X14.2940 Y12.8468
G01 X14.3184 Y12.7814
G01 X14.3237 Y12.7659
G01 X14.3303 Y12.7423
G01 X14.3350 Y12.7183
G01 X14.3380 Y12.6940
G01 X14.3390 Y12.6777
G01 X14.3392 Y12.6614
G01 X14.3386 Y12.6451
G01 X14.3359 Y12.6032
G01 X14.3338 Y12.5856
G01 X14.3304 Y12.5660
G01 X14.3304 Y10.9340
G01 X14.3561 Y10.8047
G01 X14.4066 Y10.6828
G01 X14.4799 Y10.5731
G01 X15.3001 Y9.7529
G01 X15.3110 Y9.7415
G01 X15.3262 Y9.7235
G01 X15.3402 Y9.7044
G01 X15.3527 Y9.6844
G01 X15.3939 Y9.6089
G01 X15.4010 Y9.5941
G01 X15.4075 Y9.5790
G01 X15.4131 Y9.5636
G01 X15.4180 Y9.5479
G01 X15.4238 Y9.5239
G01 X15.4267 Y9.5077
G01 X15.4288 Y9.4914
G01 X15.4301 Y9.4751
G01 X15.4305 Y9.4586
G01 X15.4297 Y9.4340
G01 X15.4247 Y9.3643
G01 X15.4231 Y9.3479
G01 X15.4207 Y9.3315
G01 X15.4156 Y9.3072
G01 X15.4111 Y9.2913
G01 X15.4059 Y9.2756
G01 X15.3999 Y9.2602
G01 X15.3931 Y9.2451
G01 X15.3856 Y9.2304
G01 X15.3730 Y9.2090
G01 X15.3445 Y9.1647
G01 X15.3357 Y9.1516
G01 X15.3213 Y9.1329
G01 X15.3056 Y9.1152
G01 X14.3559 Y8.1653
G01 X14.3386 Y8.1492
G01 X14.3264 Y8.1392
G01 X14.3138 Y8.1298
G01 X14.3008 Y8.1210
G01 X14.2873 Y8.1128
G01 X14.2120 Y8.0716
G01 X14.1899 Y8.0613
G01 X14.1748 Y8.0553
G01 X14.1595 Y8.0501
G01 X14.1438 Y8.0456
G01 X14.1280 Y8.0419
G01 X14.1040 Y8.0378
G01 X14.0608 Y8.0332
G01 X14.0342 Y8.0321
G01 X13.7714 Y8.0321
G01 X13.7478 Y8.0330
G01 X13.7321 Y8.0345
G01 X13.7088 Y8.0381
G01 X13.6857 Y8.0434
G01 X13.6033 Y8.0676
G01 X13.5877 Y8.0730
G01 X13.5725 Y8.0792
G01 X13.5576 Y8.0861
G01 X13.5431 Y8.0938
G01 X13.5220 Y8.1066
G01 X13.5020 Y8.1209
G01 X13.4830 Y8.1367
G01 X13.4653 Y8.1538
G01 X13.4543 Y8.1660
G01 X13.4032 Y8.2251
G01 X13.3883 Y8.2447
G01 X13.3748 Y8.2653
G01 X13.3629 Y8.2869
G01 X13.3559 Y8.3018
G01 X13.3468 Y8.3247
G01 X13.3394 Y8.3482
G01 X13.3355 Y8.3641
G01 X13.3323 Y8.3803
G01 X13.3217 Y8.4539
G01 X13.2527 Y8.4028
G01 X13.2394 Y8.3934
G01 X13.2257 Y8.3847
G01 X13.1415 Y8.3343
G01 X13.1274 Y8.3263
G01 X13.1129 Y8.3190
G01 X13.0242 Y8.2770
G01 X13.0093 Y8.2704
G01 X12.9942 Y8.2646
G01 X12.9018 Y8.2315
G01 X12.8863 Y8.2264
G01 X12.8707 Y8.2221
G01 X12.7755 Y8.1982
G01 X12.7596 Y8.1947
G01 X12.7436 Y8.1919
G01 X12.6466 Y8.1775
G01 X12.6305 Y8.1755
G01 X12.6143 Y8.1743
G01 X12.5162 Y8.1695
G01 X12.5000 Y8.1691
G01 X12.4838 Y8.1695
G01 X12.3857 Y8.1743
G01 X12.3695 Y8.1755
G01 X12.3534 Y8.1775
G01 X12.2564 Y8.1919
G01 X12.2404 Y8.1947
G01 X12.2245 Y8.1982
G01 X12.1293 Y8.2221
G01 X12.1137 Y8.2264
G01 X12.0982 Y8.2315
G01 X12.0058 Y8.2646
G01 X11.9907 Y8.2704
G01 X11.9758 Y8.2770
G01 X11.8871 Y8.3190
G01 X11.8726 Y8.3263
G01 X11.8585 Y8.3343
G01 X11.7743 Y8.3847
G01 X11.7606 Y8.3934
G01 X11.7473 Y8.4028
G01 X11.6806 Y8.4522
G01 X11.6780 Y8.4352
G01 X11.6747 Y8.4191
G01 X11.6569 Y8.3431
G01 X11.6499 Y8.3195
G01 X11.6442 Y8.3041
G01 X11.6342 Y8.2815
G01 X11.6227 Y8.2597
G01 X11.6095 Y8.2389
G01 X11.5948 Y8.2191
G01 X11.5787 Y8.2005
G01 X11.5672 Y8.1887
G01 X11.5171 Y8.1400
G01 X11.5054 Y8.1292
G01 X11.4870 Y8.1141
G01 X11.4675 Y8.1004
G01 X11.4540 Y8.0920
G01 X11.4401 Y8.0843
G01 X11.4186 Y8.0740
G01 X11.3965 Y8.0653
G01 X11.3814 Y8.0603
G01 X11.3660 Y8.0561
G01 X11.3082 Y8.0418
G01 X11.2925 Y8.0383
G01 X11.2766 Y8.0356
G01 X11.2607 Y8.0337
G01 X11.2447 Y8.0325
G01 X11.2286 Y8.0321
G01 X10.6991 Y8.0322
G01 X10.6755 Y8.0336
G01 X10.6599 Y8.0355
G01 X10.6366 Y8.0397
G01 X10.6176 Y8.0444
G01 X10.6051 Y8.0462
G01 X10.5887 Y8.0493
G01 X10.5725 Y8.0533
G01 X10.5565 Y8.0580
G01 X10.5408 Y8.0636
G01 X10.5178 Y8.0734
G01 X10.4868 Y8.0893
G01 X10.4727 Y8.0972
G01 X10.4522 Y8.1102
G01 X10.4343 Y8.1231
G01 X10.4195 Y8.1345
G01 X10.3603 Y8.1828
G01 X10.3429 Y8.1988
G01 X10.3320 Y8.2101
G01 X10.3166 Y8.2281
G01 X10.3071 Y8.2406
G01 X10.2585 Y8.3115
G01 X10.2459 Y8.3327
G01 X10.2383 Y8.3473
G01 X10.2315 Y8.3622
G01 X10.2254 Y8.3775
G01 X10.2178 Y8.4009
G01 X10.2137 Y8.4168
G01 X10.2090 Y8.4410
G01 X10.2069 Y8.4573
G01 X10.2052 Y8.4819
G01 X10.2031 Y8.5518
G01 X10.2030 Y8.5685
G01 X10.1764 Y8.5591
G01 X10.1608 Y8.5544
G01 X10.1213 Y8.5445
G01 X10.1053 Y8.5413
G01 X10.0731 Y8.5364
G01 X10.0569 Y8.5344
G01 X10.0407 Y8.5332
G01 X10.0000 Y8.5316
G01 X5.0000 Y8.5316
G01 X4.9593 Y8.5332
G01 X4.9431 Y8.5344
G01 X4.9269 Y8.5364
G01 X4.8947 Y8.5413
G01 X4.8787 Y8.5445
G01 X4.8392 Y8.5544
G01 X4.8236 Y8.5591
G01 X4.7980 Y8.5681
G01 X4.7982 Y8.5577
G01 X4.7979 Y8.5413
G01 X4.7924 Y8.4634
G01 X4.7897 Y8.4387
G01 X4.7869 Y8.4224
G01 X4.7811 Y8.3982
G01 X4.7736 Y8.3746
G01 X4.7643 Y8.3515
G01 X4.7532 Y8.3293
G01 X4.7450 Y8.3149
G01 X4.7313 Y8.2942
G01 X4.6888 Y8.2350
G01 X4.6789 Y8.2225
G01 X4.6684 Y8.2105
G01 X4.6516 Y8.1935
G01 X4.6397 Y8.1829
G01 X4.5241 Y8.0884
G01 X4.4380 Y7.9829
G01 X4.3750 Y7.8622
G01 X4.3369 Y7.7292
G01 X4.3304 Y7.6559
G01 X4.3304 Y7.0692
G01 X4.3369 Y6.9958
G01 X4.3750 Y6.8628
G01 X4.4380 Y6.7421
G01 X4.4936 Y6.6740
G01 X4.5032 Y6.6615
G01 X4.5123 Y6.6486
G01 X4.5207 Y6.6353
G01 X4.5322 Y6.6147
G01 X4.5421 Y6.5932
G01 X4.5692 Y6.5288
G01 X4.5779 Y6.5058
G01 X4.5849 Y6.4821
G01 X4.5886 Y6.4661
G01 X4.5914 Y6.4499
G01 X4.5935 Y6.4336
G01 X4.5947 Y6.4173
G01 X4.5951 Y6.4008
G01 X4.5942 Y6.3762
G01 X4.5926 Y6.3598
G01 X4.5902 Y6.3436
G01 X4.5767 Y6.2667
G01 X4.5710 Y6.2427
G01 X4.5661 Y6.2270
G01 X4.5575 Y6.2039
G01 X4.5508 Y6.1889
G01 X4.5393 Y6.1671
G01 X4.5308 Y6.1530
G01 X4.5216 Y6.1394
G01 X4.5117 Y6.1263
G01 X4.5012 Y6.1137
G01 X4.4827 Y6.0934
G00 Z2.0000
G00 X4.6480 Y6.1847
G01 F30.00
G01 Z-0.0400
G01 F80.00
G01 X6.5104 Y6.1845
G01 X6.5452 Y6.1830
G01 X6.5659 Y6.1814
G01 X6.5864 Y6.1789
G01 X6.6209 Y6.1737
G01 X6.6413 Y6.1696
G01 X6.6752 Y6.1613
G01 X6.6951 Y6.1557
G01 X6.7152 Y6.1491
G01 X6.7237 Y6.1705
G01 X6.7310 Y6.1933
G01 X6.7383 Y6.2130
G01 X6.7423 Y6.2227
G01 X6.7510 Y6.2418
G01 X6.7606 Y6.2604
G01 X6.7712 Y6.2785
G01 X6.7826 Y6.2961
G01 X6.7956 Y6.3142
G01 X6.8084 Y6.3308
G01 X6.8220 Y6.3467
G01 X6.8364 Y6.3620
G01 X6.8515 Y6.3765
G01 X6.8673 Y6.3903
G01 X6.8755 Y6.3969
G01 X6.9033 Y6.4172
G01 X6.9217 Y6.4324
G01 X6.9321 Y6.4403
G01 X5.0000 Y6.4403
G01 X4.9793 Y6.4408
G01 X4.9548 Y6.4420
G01 X4.9341 Y6.4436
G01 X4.9136 Y6.4461
G01 X4.8893 Y6.4497
G01 X4.8791 Y6.4513
G01 X4.8587 Y6.4554
G01 X4.8148 Y6.4664
G01 X4.7950 Y6.4724
G01 X4.7852 Y6.4758
G01 X4.7621 Y6.4840
G01 X4.7428 Y6.4915
G01 X4.7238 Y6.4999
G01 X4.6923 Y6.5149
G01 X4.6663 Y6.5292
G01 X4.6706 Y6.5148
G01 X4.6758 Y6.4945
G01 X4.6800 Y6.4739
G01 X4.6831 Y6.4532
G01 X4.6852 Y6.4324
G01 X4.6859 Y6.4219
G01 X4.6864 Y6.4009
G01 X4.6859 Y6.3800
G01 X4.6844 Y6.3591
G01 X4.6818 Y6.3383
G01 X4.6662 Y6.2488
G01 X4.6616 Y6.2283
G01 X4.6589 Y6.2182
G01 X4.6527 Y6.1981
G01 X4.6480 Y6.1847
G00 Z2.0000
G00 X4.7637 Y6.2759
G01 F30.00
G01 Z-0.0400
G01 F80.00
G01 X6.5000 Y6.2759
G01 X6.5126 Y6.2758
G01 X6.5497 Y6.2741
G01 X6.5748 Y6.2723
G01 X6.5874 Y6.2709
G01 X6.6241 Y6.2656
G01 X6.6366 Y6.2636
G01 X6.6586 Y6.2592
G01 X6.6691 Y6.2822
G01 X6.6810 Y6.3050
G01 X6.6940 Y6.3272
G01 X6.7083 Y6.3491
G01 X4.9874 Y6.3492
G01 X4.9503 Y6.3509
G01 X4.9252 Y6.3527
G01 X4.9126 Y6.3541
G01 X4.8759 Y6.3594
G01 X4.8634 Y6.3614
G01 X4.8387 Y6.3663
G01 X4.8027 Y6.3752
G01 X4.7773 Y6.3823
G01 X4.7763 Y6.3628
G01 X4.7738 Y6.3374
G01 X4.7701 Y6.3122
G01 X4.7637 Y6.2759
G00 Z2.0000
G00 X5.0000 Y6.8055
G01 F30.00
G01 Z-0.0400
G01 F80.00
G01 X10.0014 Y6.8055
G01 X10.0301 Y6.8069
G01 X10.0599 Y6.8113
G01 X10.0891 Y6.8187
G01 X10.1149 Y6.8278
G01 X10.1422 Y6.8404
G01 X10.1472 Y6.8431
G01 X10.1706 Y6.8572
G01 X10.1948 Y6.8751
G01 X10.2171 Y6.8954
G01 X10.2374 Y6.9177
G01 X10.2553 Y6.9419
G01 X10.2694 Y6.9653
G01 X10.2825 Y6.9924
G01 X10.2847 Y6.9976
G01 X10.2938 Y7.0234
G01 X10.3016 Y7.0553
G01 X14.5000 Y7.0553
G01 X14.5301 Y7.0568
G01 X14.5586 Y7.0610
G01 X14.5865 Y7.0678
G01 X14.5918 Y7.0694
G01 X14.6176 Y7.0787
G01 X14.6448 Y7.0916
G01 X14.6729 Y7.1087
G01 X14.6949 Y7.1251
G01 X14.7162 Y7.1443
G01 X16.6272 Y9.0553
G01 X18.0103 Y9.0553
G01 X19.6928 Y7.3728
G01 X19.6928 Y5.5000
G01 X19.6943 Y5.4699
G01 X19.6987 Y5.4401
G01 X19.7061 Y5.4108
G01 X19.7168 Y5.3812
G01 X19.7291 Y5.3552
G01 X19.7446 Y5.3293
G01 X19.7626 Y5.3051
G01 X19.7828 Y5.2828
G01 X20.9203 Y4.1453
G01 X20.9437 Y4.1242
G01 X20.9668 Y4.1071
G01 X20.9903 Y4.0930
G01 X21.0199 Y4.0787
G01 X21.0510 Y4.0678
G01 X21.0776 Y4.0612
G01 X21.1046 Y4.0571
G01 X21.1375 Y4.0553
G01 X21.4430 Y4.0553
G01 X21.4430 Y3.3611
G01 X21.4440 Y3.3514
G01 X21.4454 Y3.3459
G01 X21.4473 Y3.3407
G01 X21.4518 Y3.3320
G01 X21.4577 Y3.3242
G01 X21.4617 Y3.3202
G01 X21.4660 Y3.3167
G01 X21.4707 Y3.3136
G01 X21.4769 Y3.3103
G01 X21.4821 Y3.3083
G01 X21.4875 Y3.3068
G01 X21.4930 Y3.3059
G01 X21.5000 Y3.3055
G01 X23.1226 Y3.3055
G01 X23.9563 Y2.4718
G01 X23.9776 Y2.4526
G01 X24.0042 Y2.4331
G01 X24.0277 Y2.4191
G01 X24.0524 Y2.4073
G01 X24.0820 Y2.3965
G01 X24.1098 Y2.3893
G01 X24.1153 Y2.3882
G01 X24.1424 Y2.3843
G01 X24.1725 Y2.3828
G01 X36.1914 Y2.3828
G01 X36.2229 Y2.3846
G01 X36.2499 Y2.3887
G01 X36.2765 Y2.3953
G01 X36.3076 Y2.4062
G01 X36.3372 Y2.4205
G01 X36.3607 Y2.4346
G01 X36.3870 Y2.4544
G01 X36.4072 Y2.4728
G01 X36.5020 Y2.5676
G01 X36.5955 Y2.5234
G01 X36.6932 Y2.4885
G01 X36.7938 Y2.4633
G01 X36.8936 Y2.4484
G01 X36.8992 Y2.4478
G01 X36.9972 Y2.4430
G01 X37.0028 Y2.4430
G01 X37.1036 Y2.4480
G01 X37.2076 Y2.4636
G01 X37.3068 Y2.4885
G01 X37.4045 Y2.5234
G01 X37.4983 Y2.5678
G01 X37.5873 Y2.6211
G01 X37.6706 Y2.6829
G01 X37.7474 Y2.7526
G01 X37.8171 Y2.8294
G01 X37.8773 Y2.9104
G01 X37.8804 Y2.9151
G01 X37.9322 Y3.0017
G01 X37.9755 Y3.0929
G01 X37.9776 Y3.0981
G01 X38.0107 Y3.1905
G01 X38.0123 Y3.1959
G01 X38.0367 Y3.2938
G01 X38.0520 Y3.3964
G01 X38.0570 Y3.5000
G01 X38.0520 Y3.6036
G01 X38.0367 Y3.7062
G01 X38.0115 Y3.8068
G01 X37.9766 Y3.9045
G01 X37.9335 Y3.9958
G01 X37.9309 Y4.0007
G01 X37.8789 Y4.0873
G01 X37.8188 Y4.1684
G01 X37.8153 Y4.1727
G01 X37.7494 Y4.2454
G01 X37.7454 Y4.2494
G01 X37.6706 Y4.3171
G01 X37.5873 Y4.3789
G01 X37.4983 Y4.4322
G01 X37.4045 Y4.4766
G01 X37.3068 Y4.5115
G01 X37.2062 Y4.5367
G01 X37.1036 Y4.5520
G01 X37.0028 Y4.5570
G01 X36.9972 Y4.5570
G01 X36.8964 Y4.5520
G01 X36.7965 Y4.5372
G01 X36.7910 Y4.5361
G01 X36.6932 Y4.5115
G01 X36.5981 Y4.4776
G01 X36.5929 Y4.4755
G01 X36.5017 Y4.4322
G01 X36.4151 Y4.3804
G01 X36.4104 Y4.3773
G01 X36.3294 Y4.3171
G01 X36.2546 Y4.2494
G01 X36.2506 Y4.2454
G01 X36.1829 Y4.1706
G01 X36.1227 Y4.0896
G01 X36.1196 Y4.0849
G01 X36.0678 Y3.9983
G01 X36.0245 Y3.9071
G01 X36.0224 Y3.9019
G01 X35.9893 Y3.8095
G01 X35.9877 Y3.8041
G01 X35.9633 Y3.7062
G01 X35.9484 Y3.6064
G01 X35.9478 Y3.6008
G01 X35.9430 Y3.5000
G01 X35.9478 Y3.3992
G01 X35.9484 Y3.3936
G01 X35.9633 Y3.2938
G01 X35.9889 Y3.1918
G01 X36.0234 Y3.0955
G01 X36.0676 Y3.0020
G01 X36.0628 Y2.9972
G01 X24.2997 Y2.9972
G01 X23.5570 Y3.7399
G01 X23.5570 Y4.9851
G01 X24.7169 Y6.1450
G01 X24.7938 Y6.1258
G01 X24.8936 Y6.1109
G01 X24.8992 Y6.1103
G01 X25.0000 Y6.1055
G01 X25.1036 Y6.1105
G01 X25.2035 Y6.1253
G01 X25.2090 Y6.1264
G01 X25.3082 Y6.1514
G01 X25.4045 Y6.1859
G01 X25.4958 Y6.2290
G01 X25.5007 Y6.2316
G01 X25.5873 Y6.2836
G01 X25.6706 Y6.3454
G01 X25.7454 Y6.4131
G01 X25.7494 Y6.4171
G01 X25.8153 Y6.4898
G01 X25.8188 Y6.4941
G01 X25.8789 Y6.5752
G01 X25.9322 Y6.6642
G01 X25.9766 Y6.7580
G01 X26.0115 Y6.8557
G01 X26.0367 Y6.9563
G01 X26.0520 Y7.0589
G01 X26.0570 Y7.1625
G01 X26.0522 Y7.2633
G01 X26.0516 Y7.2689
G01 X26.0367 Y7.3687
G01 X26.0123 Y7.4666
G01 X26.0107 Y7.4720
G01 X25.9776 Y7.5644
G01 X25.9755 Y7.5696
G01 X25.9322 Y7.6608
G01 X25.8789 Y7.7498
G01 X25.8171 Y7.8331
G01 X25.7484 Y7.9089
G01 X25.6706 Y7.9796
G01 X25.5896 Y8.0398
G01 X25.5849 Y8.0429
G01 X25.5007 Y8.0934
G01 X25.4958 Y8.0960
G01 X25.4045 Y8.1391
G01 X25.3068 Y8.1740
G01 X25.2062 Y8.1992
G01 X25.1036 Y8.2145
G01 X25.0000 Y8.2195
G01 X24.8964 Y8.2145
G01 X24.7938 Y8.1992
G01 X24.6959 Y8.1748
G01 X24.6905 Y8.1732
G01 X24.5981 Y8.1401
G01 X24.5929 Y8.1380
G01 X24.5017 Y8.0947
G01 X24.4116 Y8.0406
G01 X24.3294 Y7.9796
G01 X24.2526 Y7.9099
G01 X24.1829 Y7.8331
G01 X24.1227 Y7.7521
G01 X24.1196 Y7.7474
G01 X24.0678 Y7.6608
G01 X24.0245 Y7.5696
G01 X24.0224 Y7.5644
G01 X23.9885 Y7.4693
G01 X23.9639 Y7.3715
G01 X23.9628 Y7.3660
G01 X23.9484 Y7.2689
G01 X23.9478 Y7.2633
G01 X23.9430 Y7.1625
G01 X23.9480 Y7.0589
G01 X23.9633 Y6.9563
G01 X23.9885 Y6.8557
G01 X24.0234 Y6.7580
G01 X24.0678 Y6.6642
G01 X24.1211 Y6.5752
G01 X24.1812 Y6.4941
G01 X24.1886 Y6.4855
G01 X23.1226 Y5.4195
G01 X21.5000 Y5.4195
G01 X21.4916 Y5.4189
G01 X21.4834 Y5.4171
G01 X21.4756 Y5.4141
G01 X21.4695 Y5.4107
G01 X21.4638 Y5.4066
G01 X21.4587 Y5.4018
G01 X21.4542 Y5.3965
G01 X21.4504 Y5.3906
G01 X21.4473 Y5.3843
G01 X21.4450 Y5.3777
G01 X21.4436 Y5.3709
G01 X21.4430 Y5.3639
G01 X21.4430 Y4.6697
G01 X21.2647 Y4.6697
G01 X20.3072 Y5.6272
G01 X20.3072 Y7.5014
G01 X20.3057 Y7.5301
G01 X20.3018 Y7.5572
G01 X20.2947 Y7.5865
G01 X20.2931 Y7.5918
G01 X20.2838 Y7.6176
G01 X20.2709 Y7.6448
G01 X20.2554 Y7.6707
G01 X20.2383 Y7.6938
G01 X20.2172 Y7.7172
G01 X18.3547 Y9.5797
G01 X18.3302 Y9.6017
G01 X18.3082 Y9.6179
G01 X18.2835 Y9.6327
G01 X18.2551 Y9.6463
G01 X18.2240 Y9.6572
G01 X18.1974 Y9.6638
G01 X18.1704 Y9.6679
G01 X18.1389 Y9.6697
G01 X16.7560 Y9.6697
G01 X16.7374 Y9.6949
G01 X16.7172 Y9.7172
G01 X15.3072 Y11.1272
G01 X15.3072 Y12.3728
G01 X17.6272 Y14.6928
G01 X26.0000 Y14.6928
G01 X26.0301 Y14.6943
G01 X26.0599 Y14.6987
G01 X26.0892 Y14.7061
G01 X26.1149 Y14.7152
G01 X26.1448 Y14.7291
G01 X26.1707 Y14.7446
G01 X26.1949 Y14.7626
G01 X26.2172 Y14.7828
G01 X28.6272 Y17.1928
G01 X29.8728 Y17.1928
G01 X30.5178 Y16.5478
G01 X30.5178 Y16.5084
G01 X30.5038 Y16.5017
G01 X30.4834 Y16.4895
G01 X30.4630 Y16.4746
G01 X30.4432 Y16.4568
G01 X30.4254 Y16.4370
G01 X30.4098 Y16.4154
G01 X30.3983 Y16.3962
G01 X30.3887 Y16.3759
G01 X30.3790 Y16.3496
G01 X30.3726 Y16.3238
G01 X30.3692 Y16.3002
G01 X30.3680 Y16.2750
G01 X30.3680 Y15.7250
G01 X30.3691 Y15.7012
G01 X30.3729 Y15.6749
G01 X30.3783 Y15.6531
G01 X30.3865 Y15.6292
G01 X30.3887 Y15.6241
G01 X30.3983 Y15.6038
G01 X30.4113 Y15.5822
G01 X30.4263 Y15.5619
G01 X30.4432 Y15.5432
G01 X30.4619 Y15.5263
G01 X30.4799 Y15.5129
G01 X30.5014 Y15.4997
G01 X30.5063 Y15.4970
G01 X30.5266 Y15.4875
G01 X30.5504 Y15.4790
G01 X30.5749 Y15.4729
G01 X30.5998 Y15.4692
G01 X30.6250 Y15.4680
G01 X31.0250 Y15.4680
G01 X31.0502 Y15.4692
G01 X31.0738 Y15.4726
G01 X31.0996 Y15.4790
G01 X31.1234 Y15.4875
G01 X31.1462 Y15.4983
G01 X31.1678 Y15.5113
G01 X31.1881 Y15.5263
G01 X31.2068 Y15.5432
G01 X31.2237 Y15.5619
G01 X31.2371 Y15.5799
G01 X31.2503 Y15.6014
G01 X31.2530 Y15.6063
G01 X31.2625 Y15.6266
G01 X31.2710 Y15.6504
G01 X31.2776 Y15.6776
G01 X31.2808 Y15.6998
G01 X31.2820 Y15.7236
G01 X31.2820 Y16.2764
G01 X31.2808 Y16.3002
G01 X31.2771 Y16.3251
G01 X31.2710 Y16.3496
G01 X31.2645 Y16.3678
G01 X35.4731 Y16.3678
G01 X36.9591 Y14.8818
G01 X36.9805 Y14.8626
G01 X37.0047 Y14.8446
G01 X37.0305 Y14.8291
G01 X37.0552 Y14.8173
G01 X37.0835 Y14.8069
G01 X37.0889 Y14.8053
G01 X37.1154 Y14.7987
G01 X37.1452 Y14.7943
G01 X37.1753 Y14.7928
G01 X39.9484 Y14.7928
G01 X39.9562 Y14.7609
G01 X39.9653 Y14.7351
G01 X39.9779 Y14.7078
G01 X39.9806 Y14.7028
G01 X39.9947 Y14.6794
G01 X40.0126 Y14.6552
G01 X40.0329 Y14.6329
G01 X40.0552 Y14.6126
G01 X40.0794 Y14.5947
G01 X40.1028 Y14.5806
G01 X40.1299 Y14.5675
G01 X40.1351 Y14.5653
G01 X40.1609 Y14.5562
G01 X40.1901 Y14.5488
G01 X40.2199 Y14.5444
G01 X40.2486 Y14.5430
G01 X45.2500 Y14.5430
G01 X45.2787 Y14.5443
G01 X45.3071 Y14.5484
G01 X45.3126 Y14.5495
G01 X45.3391 Y14.5562
G01 X45.3675 Y14.5663
G01 X45.3947 Y14.5792
G01 X45.4182 Y14.5932
G01 X45.4448 Y14.6126
G01 X45.4690 Y14.6349
G01 X45.4874 Y14.6552
G01 X45.5053 Y14.6794
G01 X45.5208 Y14.7053
G01 X45.5325 Y14.7299
G01 X45.5438 Y14.7609
G01 X45.5512 Y14.7901
G01 X45.5552 Y14.8171
G01 X45.5570 Y14.8500
G01 X45.5570 Y15.3500
G01 X45.5556 Y15.3801
G01 X45.5509 Y15.4113
G01 X45.5438 Y15.4391
G01 X45.5337 Y15.4675
G01 X45.5208 Y15.4947
G01 X45.5068 Y15.5182
G01 X45.5037 Y15.5229
G01 X45.4855 Y15.5469
G01 X45.4671 Y15.5671
G01 X45.4448 Y15.5874
G01 X45.4206 Y15.6053
G01 X45.3972 Y15.6194
G01 X45.3701 Y15.6325
G01 X45.3649 Y15.6347
G01 X45.3391 Y15.6438
G01 X45.3099 Y15.6512
G01 X45.2801 Y15.6556
G01 X45.2528 Y15.6570
G01 X40.2500 Y15.6570
G01 X40.2199 Y15.6556
G01 X40.1929 Y15.6516
G01 X40.1874 Y15.6505
G01 X40.1582 Y15.6430
G01 X40.1325 Y15.6337
G01 X40.1053 Y15.6208
G01 X40.0794 Y15.6053
G01 X40.0552 Y15.5874
G01 X40.0329 Y15.5671
G01 X40.0126 Y15.5448
G01 X39.9947 Y15.5206
G01 X39.9806 Y15.4972
G01 X39.9675 Y15.4701
G01 X39.9653 Y15.4649
G01 X39.9562 Y15.4391
G01 X39.9484 Y15.4072
G01 X37.3026 Y15.4072
G01 X35.8165 Y16.8932
G01 X35.7930 Y16.9142
G01 X35.7710 Y16.9304
G01 X35.7476 Y16.9445
G01 X35.7179 Y16.9588
G01 X35.6882 Y16.9693
G01 X35.6603 Y16.9763
G01 X35.6332 Y16.9804
G01 X35.6003 Y16.9822
G01 X30.9522 Y16.9822
G01 X30.2162 Y17.7182
G01 X30.1949 Y17.7374
G01 X30.1683 Y17.7569
G01 X30.1448 Y17.7709
G01 X30.1201 Y17.7827
G01 X30.0905 Y17.7935
G01 X30.0627 Y17.8007
G01 X30.0572 Y17.8018
G01 X30.0301 Y17.8057
G01 X30.0000 Y17.8072
G01 X28.5000 Y17.8072
G01 X28.4699 Y17.8057
G01 X28.4387 Y17.8010
G01 X28.4108 Y17.7939
G01 X28.3851 Y17.7848
G01 X28.3552 Y17.7709
G01 X28.3271 Y17.7538
G01 X28.3051 Y17.7374
G01 X28.2838 Y17.7182
G01 X25.8728 Y15.3072
G01 X17.5000 Y15.3072
G01 X17.4671 Y15.3054
G01 X17.4401 Y15.3013
G01 X17.4108 Y15.2939
G01 X17.3824 Y15.2838
G01 X17.3577 Y15.2722
G01 X17.3528 Y15.2695
G01 X17.3282 Y15.2546
G01 X17.3051 Y15.2374
G01 X17.2828 Y15.2172
G01 X14.7828 Y12.7172
G01 X14.7626 Y12.6949
G01 X14.7446 Y12.6707
G01 X14.7291 Y12.6448
G01 X14.7157 Y12.6163
G01 X14.7061 Y12.5892
G01 X14.6987 Y12.5599
G01 X14.6943 Y12.5301
G01 X14.6928 Y12.5014
G01 X14.6928 Y11.0000
G01 X14.6943 Y10.9699
G01 X14.6987 Y10.9401
G01 X14.7061 Y10.9108
G01 X14.7168 Y10.8812
G01 X14.7291 Y10.8552
G01 X14.7446 Y10.8293
G01 X14.7626 Y10.8051
G01 X14.7828 Y10.7828
G01 X16.1343 Y9.4312
G01 X14.3728 Y7.6697
G01 X10.3016 Y7.6697
G01 X10.2938 Y7.7016
G01 X10.2847 Y7.7274
G01 X10.2721 Y7.7547
G01 X10.2694 Y7.7597
G01 X10.2553 Y7.7831
G01 X10.2374 Y7.8073
G01 X10.2171 Y7.8296
G01 X10.1948 Y7.8499
G01 X10.1706 Y7.8678
G01 X10.1472 Y7.8819
G01 X10.1201 Y7.8950
G01 X10.1149 Y7.8972
G01 X10.0891 Y7.9063
G01 X10.0599 Y7.9137
G01 X10.0301 Y7.9181
G01 X10.0014 Y7.9195
G01 X5.0000 Y7.9195
G01 X4.9699 Y7.9181
G01 X4.9374 Y7.9130
G01 X4.9109 Y7.9063
G01 X4.8825 Y7.8962
G01 X4.8553 Y7.8833
G01 X4.8318 Y7.8693
G01 X4.8052 Y7.8499
G01 X4.7810 Y7.8276
G01 X4.7626 Y7.8073
G01 X4.7447 Y7.7831
G01 X4.7279 Y7.7547
G01 X4.7163 Y7.7300
G01 X4.7066 Y7.7030
G01 X4.6995 Y7.6751
G01 X4.6984 Y7.6696
G01 X4.6944 Y7.6426
G01 X4.6930 Y7.6139
G01 X4.6930 Y7.1111
G01 X4.6944 Y7.0824
G01 X4.6988 Y7.0526
G01 X4.7062 Y7.0234
G01 X4.7163 Y6.9950
G01 X4.7292 Y6.9678
G01 X4.7447 Y6.9419
G01 X4.7626 Y6.9177
G01 X4.7829 Y6.8954
G01 X4.8052 Y6.8751
G01 X4.8294 Y6.8572
G01 X4.8553 Y6.8417
G01 X4.8825 Y6.8288
G01 X4.9109 Y6.8187
G01 X4.9401 Y6.8113
G01 X4.9699 Y6.8069
G01 X5.0000 Y6.8055
G00 Z2.0000
G00 X6.8070 Y4.6555
G01 F30.00
G01 Z-0.0400
G01 F80.00
G01 X6.8070 Y4.4111
G01 X6.8056 Y4.3824
G01 X6.8009 Y4.3512
G01 X6.7938 Y4.3234
G01 X6.7837 Y4.2950
G01 X6.7708 Y4.2678
G01 X6.7568 Y4.2443
G01 X6.7374 Y4.2177
G01 X6.7190 Y4.1974
G01 X6.7151 Y4.1935
G01 X6.6926 Y4.1734
G01 X6.6706 Y4.1572
G01 X6.6472 Y4.1431
G01 X6.6175 Y4.1288
G01 X6.5891 Y4.1187
G01 X6.5626 Y4.1120
G01 X6.5329 Y4.1073
G01 X6.5273 Y4.1067
G01 X6.5000 Y4.1055
G01 X5.5570 Y4.1055
G01 X5.5570 Y3.7196
G01 X6.5471 Y3.7196
G01 X6.6407 Y3.7291
G01 X6.7948 Y3.7802
G01 X6.9327 Y3.8652
G01 X7.0473 Y3.9798
G01 X7.1323 Y4.1177
G01 X7.1834 Y4.2718
G01 X7.1929 Y4.3654
G01 X7.1929 Y4.6555
G01 X6.8070 Y4.6555
G00 Z2.0000
G00 X6.8983 Y4.5642
G01 F30.00
G01 Z-0.0400
G01 F80.00
G01 X6.8983 Y4.4125
G01 X6.8964 Y4.3735
G01 X6.8919 Y4.3420
G01 X6.8891 Y4.3277
G01 X6.8812 Y4.2969
G01 X6.8694 Y4.2634
G01 X6.8651 Y4.2534
G01 X6.8546 Y4.2312
G01 X6.8477 Y4.2184
G01 X6.8312 Y4.1912
G01 X6.8079 Y4.1598
G01 X6.7817 Y4.1308
G01 X6.7582 Y4.1093
G01 X6.7499 Y4.1023
G01 X6.7273 Y4.0855
G01 X6.7151 Y4.0774
G01 X6.6878 Y4.0612
G01 X6.6591 Y4.0474
G01 X6.6491 Y4.0431
G01 X6.6191 Y4.0324
G01 X6.6086 Y4.0294
G01 X6.5777 Y4.0218
G01 X6.5463 Y4.0170
G01 X6.5318 Y4.0156
G01 X6.5000 Y4.0142
G01 X5.6483 Y4.0142
G01 X5.6483 Y3.8108
G01 X6.5424 Y3.8108
G01 X6.6215 Y3.8189
G01 X6.7560 Y3.8635
G01 X6.8757 Y3.9373
G01 X6.9752 Y4.0368
G01 X7.0490 Y4.1565
G01 X7.0936 Y4.2910
G01 X7.1017 Y4.3701
G01 X7.1017 Y4.5642
G01 X6.8983 Y4.5642
G00 Z2.0000
G00 X6.9896 Y4.4729
G01 F30.00
G01 Z-0.0400
G01 F80.00
G01 X6.9895 Y4.4066
G01 X6.9881 Y4.3762
G01 X6.9866 Y4.3587
G01 X6.9802 Y4.3170
G01 X6.9776 Y4.3055
G01 X6.9685 Y4.2704
G01 X6.9566 Y4.2361
G01 X6.9523 Y4.2251
G01 X6.9476 Y4.2144
G01 X6.9345 Y4.1869
G01 X6.9290 Y4.1765
G01 X6.9071 Y4.1405
G01 X6.8821 Y4.1065
G01 X6.8747 Y4.0974
G01 X6.8543 Y4.0748
G01 X6.8462 Y4.0663
G01 X6.8377 Y4.0582
G01 X6.8106 Y4.0340
G01 X6.7816 Y4.0122
G01 X6.7720 Y4.0054
G01 X6.7621 Y3.9991
G01 X6.7308 Y3.9807
G01 X6.6928 Y3.9625
G01 X6.6764 Y3.9559
G01 X6.6477 Y3.9457
G01 X6.6365 Y3.9423
G01 X6.6070 Y3.9349
G01 X6.5955 Y3.9323
G01 X6.5839 Y3.9303
G01 X6.5538 Y3.9259
G01 X6.5421 Y3.9247
G01 X6.5000 Y3.9229
G01 X5.7396 Y3.9229
G01 X5.7396 Y3.9021
G01 X6.5378 Y3.9021
G01 X6.6022 Y3.9087
G01 X6.7172 Y3.9468
G01 X6.8187 Y4.0094
G01 X6.9031 Y4.0938
G01 X6.9657 Y4.1953
G01 X7.0038 Y4.3103
G01 X7.0104 Y4.3747
G01 X7.0104 Y4.4729
G01 X6.9896 Y4.4729
G00 Z2.0000
G00 X10.1839 Y8.2590
G01 F30.00
G01 Z-0.0400
G01 F80.00
G01 X10.1710 Y8.2796
G01 X10.1609 Y8.2980
G01 X10.1517 Y8.3169
G01 X10.1435 Y8.3362
G01 X10.1398 Y8.3460
G01 X10.1330 Y8.3658
G01 X10.1273 Y8.3860
G01 X10.1248 Y8.3962
G01 X10.1225 Y8.4064
G01 X10.1188 Y8.4270
G01 X10.1158 Y8.4505
G01 X10.0864 Y8.4461
G01 X10.0659 Y8.4436
G01 X10.0452 Y8.4420
G01 X10.0207 Y8.4408
G01 X10.0000 Y8.4403
G01 X5.0000 Y8.4403
G01 X4.9793 Y8.4408
G01 X4.9548 Y8.4420
G01 X4.9341 Y8.4436
G01 X4.9136 Y8.4461
G01 X4.8829 Y8.4507
G01 X4.8800 Y8.4254
G01 X4.8764 Y8.4046
G01 X4.8718 Y8.3839
G01 X4.8661 Y8.3636
G01 X4.8629 Y8.3535
G01 X4.8557 Y8.3337
G01 X4.8517 Y8.3239
G01 X4.8431 Y8.3046
G01 X4.8335 Y8.2858
G01 X4.8283 Y8.2766
G01 X4.8179 Y8.2594
G01 X4.8486 Y8.2672
G01 X4.8689 Y8.2718
G01 X4.8893 Y8.2753
G01 X4.9136 Y8.2789
G01 X4.9238 Y8.2803
G01 X4.9444 Y8.2823
G01 X4.9793 Y8.2842
G01 X5.0000 Y8.2847
G01 X10.0000 Y8.2847
G01 X10.0207 Y8.2842
G01 X10.0556 Y8.2823
G01 X10.0762 Y8.2803
G01 X10.0864 Y8.2789
G01 X10.1107 Y8.2753
G01 X10.1311 Y8.2718
G01 X10.1514 Y8.2672
G01 X10.1839 Y8.2590
G00 Z2.0000
G00 X11.8680 Y8.1261
G01 F30.00
G01 Z-0.0400
G01 F80.00
G01 X11.8091 Y8.1539
G01 X11.7978 Y8.1595
G01 X11.7808 Y8.1685
G01 X11.7671 Y8.1463
G01 X11.7533 Y8.1261
G01 X11.8680 Y8.1261
G00 Z2.0000
G00 X13.2489 Y8.1261
G01 F30.00
G01 Z-0.0400
G01 F80.00
G01 X13.2319 Y8.1499
G01 X13.2199 Y8.1688
G01 X13.2022 Y8.1595
G01 X13.1909 Y8.1539
G01 X13.1320 Y8.1261
G01 X13.2489 Y8.1261
G00 Z2.0000
G00 X13.4652 Y8.0348
G01 F30.00
G01 Z-0.0400
G01 F80.00
G01 X13.4545 Y8.0424
G01 X13.4379 Y8.0552
G01 X13.4220 Y8.0688
G01 X13.4068 Y8.0832
G01 X13.3923 Y8.0984
G01 X13.3853 Y8.1062
G01 X13.3395 Y8.1590
G01 X13.3262 Y8.1752
G01 X13.3137 Y8.1920
G01 X13.3020 Y8.2095
G01 X13.2912 Y8.2274
G01 X13.2862 Y8.2366
G01 X13.2814 Y8.2459
G01 X13.2724 Y8.2649
G01 X13.2644 Y8.2843
G01 X13.2593 Y8.2985
G01 X13.1884 Y8.2560
G01 X13.1704 Y8.2458
G01 X13.1519 Y8.2364
G01 X13.0632 Y8.1945
G01 X13.0442 Y8.1861
G01 X13.0249 Y8.1786
G01 X12.9325 Y8.1456
G01 X12.9128 Y8.1391
G01 X12.8929 Y8.1335
G01 X12.7977 Y8.1097
G01 X12.7775 Y8.1052
G01 X12.7570 Y8.1016
G01 X12.6600 Y8.0872
G01 X12.6394 Y8.0847
G01 X12.6187 Y8.0832
G01 X12.5207 Y8.0783
G01 X12.5000 Y8.0778
G01 X12.4793 Y8.0783
G01 X12.3813 Y8.0832
G01 X12.3606 Y8.0847
G01 X12.3400 Y8.0872
G01 X12.2430 Y8.1016
G01 X12.2225 Y8.1052
G01 X12.2023 Y8.1097
G01 X12.1071 Y8.1335
G01 X12.0872 Y8.1391
G01 X12.0675 Y8.1456
G01 X11.9751 Y8.1786
G01 X11.9558 Y8.1861
G01 X11.9368 Y8.1945
G01 X11.8481 Y8.2364
G01 X11.8296 Y8.2458
G01 X11.8116 Y8.2560
G01 X11.7393 Y8.2993
G01 X11.7328 Y8.2802
G01 X11.7250 Y8.2607
G01 X11.7208 Y8.2511
G01 X11.7117 Y8.2323
G01 X11.7016 Y8.2139
G01 X11.6906 Y8.1960
G01 X11.6848 Y8.1873
G01 X11.6725 Y8.1703
G01 X11.6594 Y8.1539
G01 X11.6525 Y8.1460
G01 X11.6382 Y8.1307
G01 X11.6308 Y8.1233
G01 X11.5733 Y8.0676
G01 X11.5503 Y8.0478
G01 X11.5332 Y8.0348
G01 X13.4652 Y8.0348
G00 Z2.0000
G00 X15.7766 Y7.6883
G01 F30.00
G01 Z-0.0400
G01 F80.00
G01 X15.7999 Y7.6920
G01 X15.8208 Y7.6941
G01 X15.8417 Y7.6952
G01 X15.8522 Y7.6954
G01 X15.8731 Y7.6949
G01 X15.9533 Y7.6893
G01 X15.9742 Y7.6873
G01 X15.9846 Y7.6859
G01 X16.0052 Y7.6824
G01 X16.0257 Y7.6778
G01 X16.0459 Y7.6722
G01 X16.0658 Y7.6656
G01 X16.0853 Y7.6580
G01 X16.0950 Y7.6539
G01 X16.1139 Y7.6449
G01 X16.1232 Y7.6400
G01 X16.1414 Y7.6296
G01 X16.1591 Y7.6183
G01 X16.1762 Y7.6062
G01 X16.2047 Y7.5848
G01 X16.2364 Y7.6519
G01 X16.2458 Y7.6704
G01 X16.2560 Y7.6884
G01 X16.3064 Y7.7726
G01 X16.3175 Y7.7901
G01 X16.3234 Y7.7987
G01 X16.3879 Y7.8859
G01 X16.4006 Y7.9022
G01 X16.4142 Y7.9179
G01 X16.4801 Y7.9906
G01 X16.4944 Y8.0056
G01 X16.5094 Y8.0199
G01 X16.5899 Y8.0927
G01 X16.5978 Y8.0994
G01 X16.6141 Y8.1121
G01 X16.6929 Y8.1706
G01 X16.7099 Y8.1825
G01 X16.7274 Y8.1936
G01 X16.8116 Y8.2440
G01 X16.8296 Y8.2542
G01 X16.8481 Y8.2636
G01 X16.9368 Y8.3055
G01 X16.9558 Y8.3139
G01 X16.9751 Y8.3214
G01 X17.0675 Y8.3544
G01 X17.0872 Y8.3609
G01 X17.1071 Y8.3665
G01 X17.2023 Y8.3903
G01 X17.2225 Y8.3948
G01 X17.2430 Y8.3984
G01 X17.3400 Y8.4128
G01 X17.3606 Y8.4153
G01 X17.3813 Y8.4168
G01 X17.4793 Y8.4217
G01 X17.5000 Y8.4222
G01 X17.5207 Y8.4217
G01 X17.6187 Y8.4168
G01 X17.6394 Y8.4153
G01 X17.6600 Y8.4128
G01 X17.7570 Y8.3984
G01 X17.7775 Y8.3948
G01 X17.7977 Y8.3903
G01 X17.9029 Y8.3638
G01 X17.9128 Y8.3609
G01 X17.9325 Y8.3544
G01 X18.0249 Y8.3214
G01 X18.0442 Y8.3139
G01 X18.0632 Y8.3055
G01 X18.1519 Y8.2636
G01 X18.1704 Y8.2542
G01 X18.1884 Y8.2440
G01 X18.2726 Y8.1936
G01 X18.2901 Y8.1825
G01 X18.3071 Y8.1706
G01 X18.3859 Y8.1121
G01 X18.4022 Y8.0994
G01 X18.4179 Y8.0858
G01 X18.4906 Y8.0199
G01 X18.4982 Y8.0129
G01 X18.5129 Y7.9982
G01 X18.5858 Y7.9179
G01 X18.5994 Y7.9022
G01 X18.6121 Y7.8859
G01 X18.6706 Y7.8071
G01 X18.6825 Y7.7901
G01 X18.6936 Y7.7726
G01 X18.7440 Y7.6884
G01 X18.7542 Y7.6704
G01 X18.7636 Y7.6519
G01 X18.8055 Y7.5632
G01 X18.8139 Y7.5442
G01 X18.8214 Y7.5249
G01 X18.8544 Y7.4325
G01 X18.8609 Y7.4128
G01 X18.8665 Y7.3929
G01 X18.8903 Y7.2977
G01 X18.8948 Y7.2775
G01 X18.8984 Y7.2570
G01 X18.9128 Y7.1600
G01 X18.9153 Y7.1394
G01 X18.9168 Y7.1187
G01 X18.9217 Y7.0207
G01 X18.9222 Y7.0000
G01 X18.9220 Y6.9896
G01 X18.9168 Y6.8813
G01 X18.9153 Y6.8606
G01 X18.9142 Y6.8503
G01 X18.8967 Y6.7327
G01 X18.8927 Y6.7124
G01 X18.8831 Y6.6736
G01 X18.8954 Y6.6740
G01 X18.9164 Y6.6737
G01 X18.9373 Y6.6724
G01 X18.9477 Y6.6713
G01 X18.9581 Y6.6700
G01 X18.9788 Y6.6666
G01 X18.9993 Y6.6622
G01 X19.0196 Y6.6568
G01 X19.0395 Y6.6503
G01 X19.0494 Y6.6467
G01 X19.0688 Y6.6388
G01 X19.0784 Y6.6345
G01 X19.0971 Y6.6252
G01 X19.1681 Y6.5876
G01 X19.1862 Y6.5769
G01 X19.2037 Y6.5653
G01 X19.2122 Y6.5592
G01 X19.2205 Y6.5529
G01 X19.2368 Y6.5396
G01 X19.2447 Y6.5327
G01 X19.2599 Y6.5183
G01 X19.2672 Y6.5108
G01 X19.2813 Y6.4953
G01 X19.2946 Y6.4791
G01 X19.3010 Y6.4708
G01 X19.3130 Y6.4536
G01 X19.3277 Y6.4299
G01 X19.3277 Y7.2215
G01 X17.8590 Y8.6902
G01 X16.7785 Y8.6902
G01 X15.7766 Y7.6883
G00 Z2.0000
G00 X15.9941 Y7.7767
G01 F30.00
G01 Z-0.0400
G01 F80.00
G01 X16.0104 Y7.7742
G01 X16.0354 Y7.7693
G01 X16.0602 Y7.7631
G01 X16.0846 Y7.7557
G01 X16.1086 Y7.7471
G01 X16.1321 Y7.7373
G01 X16.1551 Y7.7263
G01 X16.1685 Y7.7193
G01 X16.1777 Y7.7354
G01 X16.2281 Y7.8195
G01 X16.2416 Y7.8408
G01 X16.2561 Y7.8614
G01 X16.3146 Y7.9403
G01 X16.3301 Y7.9601
G01 X16.3465 Y7.9792
G01 X16.4125 Y8.0519
G01 X16.4298 Y8.0702
G01 X16.4481 Y8.0875
G01 X16.5208 Y8.1535
G01 X16.5399 Y8.1699
G01 X16.5597 Y8.1854
G01 X16.6386 Y8.2439
G01 X16.6592 Y8.2584
G01 X16.6805 Y8.2719
G01 X16.7646 Y8.3223
G01 X16.7866 Y8.3347
G01 X16.8091 Y8.3461
G01 X16.8978 Y8.3880
G01 X16.9208 Y8.3982
G01 X16.9443 Y8.4073
G01 X17.0487 Y8.4445
G01 X17.0607 Y8.4483
G01 X17.0850 Y8.4550
G01 X17.1802 Y8.4788
G01 X17.2047 Y8.4844
G01 X17.2296 Y8.4887
G01 X17.3266 Y8.5031
G01 X17.3517 Y8.5062
G01 X17.3768 Y8.5080
G01 X17.4748 Y8.5128
G01 X17.4874 Y8.5133
G01 X17.5126 Y8.5133
G01 X17.6232 Y8.5080
G01 X17.6483 Y8.5062
G01 X17.6734 Y8.5031
G01 X17.7829 Y8.4867
G01 X17.8076 Y8.4818
G01 X17.8198 Y8.4788
G01 X17.9272 Y8.4518
G01 X17.9513 Y8.4445
G01 X17.9890 Y8.4312
G01 X17.8212 Y8.5989
G01 X16.8163 Y8.5989
G01 X15.9941 Y7.7767
G00 Z2.0000
G00 X15.5147 Y9.5345
G01 F30.00
G01 Z-0.0400
G01 F80.00
G01 X15.5184 Y9.5112
G01 X15.5205 Y9.4903
G01 X15.5216 Y9.4694
G01 X15.5217 Y9.4484
G01 X15.5207 Y9.4275
G01 X15.5157 Y9.3578
G01 X15.5137 Y9.3368
G01 X15.5122 Y9.3254
G01 X15.6180 Y9.4312
G01 X15.5147 Y9.5345
G00 Z2.0000
G00 X16.0688 Y12.4890
G01 F30.00
G01 Z-0.0400
G01 F80.00
G01 X15.7636 Y12.1837
G01 X15.7636 Y11.3163
G01 X16.9538 Y10.1261
G01 X18.1501 Y10.1259
G01 X18.1998 Y10.1235
G01 X18.2249 Y10.1210
G01 X18.2741 Y10.1137
G01 X18.2988 Y10.1088
G01 X18.3153 Y10.1048
G01 X17.8831 Y10.5370
G01 X17.8198 Y10.5212
G01 X17.7953 Y10.5156
G01 X17.7704 Y10.5113
G01 X17.6609 Y10.4952
G01 X17.6483 Y10.4938
