(G-CODE GENERATED BY FLATCAM v8.994 - www.flatcam.org - Version Date: 2020/11/7)

(Name: Photoeye PCB_V1-PTH.drl_cnc)
(Type: G-code from Geometry)
(Units: MM)

(Created on Tuesday, 10 March 2026 at 17:30)

(This preprocessor is the default preprocessor used by FlatCAM.)
(It is made to work with MACH3 compatible motion controllers.)


(TOOLS DIAMETER: )
(Tool: 1 -> Dia: 0.9)
(Tool: 2 -> Dia: 0.91)

(FEEDRATE Z: )
(Tool: 1 -> Feedrate: 30.0)
(Tool: 2 -> Feedrate: 30.0)

(FEEDRATE RAPIDS: )
(Tool: 1 -> Feedrate Rapids: 1500)
(Tool: 2 -> Feedrate Rapids: 1500)

(Z_CUT: )
(Tool: 1 -> Z_Cut: -2.0)
(Tool: 2 -> Z_Cut: -2.0)

(Tools Offset: )
(Tool: 1 -> Offset Z: 0.0)
(Tool: 2 -> Offset Z: 0.0)

(Z_MOVE: )
(Tool: 1 -> Z_Move: 2.0)
(Tool: 2 -> Z_Move: 2.0)

(Z Toolchange: 15 mm)
(X,Y Toolchange: 0.0000, 0.0000 mm)
(Z Start: None mm)
(Z End: 0.5 mm)
(X,Y End: None mm)
(Steps per circle: 64)
(Preprocessor Excellon: default)

(X range:   12.0500 ...   37.4500  mm)
(Y range:    3.0500 ...   17.3130  mm)

(Spindle Speed: 10000 RPM)
G21
G90
G94

G01 F30.00

M5
G00 Z15.0000
T1
G00 X0.0000 Y0.0000                
M6
(MSG, Change to Tool Dia = 0.9000 ||| Total drills for tool T1 = 12)
M0
G00 Z15.0000

G01 F30.00
M03 S10000
G00 X12.5000 Y9.5000
G01 Z-2.0000
G01 Z0
G00 Z2.0000
G00 X17.5000 Y7.0000
G01 Z-2.0000
G01 Z0
G00 Z2.0000
G00 X22.5000 Y7.1620
G01 Z-2.0000
G01 Z0
G00 Z2.0000
G00 X22.5000 Y4.3620
G01 Z-2.0000
G01 Z0
G00 Z2.0000
G00 X25.0000 Y4.3620
G01 Z-2.0000
G01 Z0
G00 Z2.0000
G00 X25.0000 Y7.1620
G01 Z-2.0000
G01 Z0
G00 Z2.0000
G00 X37.0000 Y3.5000
G01 Z-2.0000
G01 Z0
G00 Z2.0000
G00 X37.0000 Y6.5000
G01 Z-2.0000
G01 Z0
G00 Z2.0000
G00 X26.5000 Y11.8620
G01 Z-2.0000
G01 Z0
G00 Z2.0000
G00 X24.0000 Y16.8630
G01 Z-2.0000
G01 Z0
G00 Z2.0000
G00 X21.5000 Y11.8620
G01 Z-2.0000
G01 Z0
G00 Z2.0000
G00 X17.5000 Y12.0000
G01 Z-2.0000
G01 Z0
G00 Z2.0000
M05
G00 Z0.50


