(G-CODE GENERATED BY FLATCAM v8.994 - www.flatcam.org - Version Date: 2020/11/7)

(Name: Photoeye PCB_V1-Edge_Cuts.gbr_cutout_cnc)
(Type: G-code from Geometry)
(Units: MM)

(Created on Tuesday, 10 March 2026 at 18:01)

(This preprocessor is the default preprocessor used by FlatCAM.)
(It is made to work with MACH3 compatible motion controllers.)

(TOOL DIAMETER: 1.5 mm)
(Feedrate_XY: 100.0 mm/min)
(Feedrate_Z: 30.0 mm/min)
(Feedrate rapids 1500.0 mm/min)

(Z_Cut: -2.0 mm)
(DepthPerCut: 0.6 mm <=>4 passes)
(Z_Move: 2.0 mm)
(Z Start: None mm)
(Z End: 15.0 mm)
(X,Y End: None mm)
(Steps per circle: 64)
(Preprocessor Geometry: default)

(X range:   -0.8750 ...   50.8750  mm)
(Y range:   -0.8750 ...   20.8750  mm)

(Spindle Speed: 10000.0 RPM)
G21
G90
G94

G01 F100.00

M5
G00 Z15.0000
G00 X0.0000 Y0.0000
T1
M6    
(MSG, Change to Tool Dia = 1.5000)
M0
G00 Z15.0000

M03 S10000.0
G01 F100.00
G00 X-0.8750 Y9.1000
G01 F30.00
G01 Z-0.6000
G01 F100.00
G01 X-0.8750 Y-0.0250
G01 X-0.8709 Y-0.1083
G01 X-0.8587 Y-0.1908
G01 X-0.8384 Y-0.2718
G01 X-0.8103 Y-0.3503
G01 X-0.7746 Y-0.4257
G01 X-0.7318 Y-0.4972
G01 X-0.6821 Y-0.5642
G01 X-0.6261 Y-0.6261
G01 X-0.5642 Y-0.6821
G01 X-0.4972 Y-0.7318
G01 X-0.4257 Y-0.7746
G01 X-0.3503 Y-0.8103
G01 X-0.2718 Y-0.8384
G01 X-0.1908 Y-0.8587
G01 X-0.1083 Y-0.8709
G01 X-0.0250 Y-0.8750
G01 X24.1000 Y-0.8750
G00 X24.1000 Y-0.8750
G01 F30.00
G01 Z-1.2000
G01 F100.00
G01 X-0.0250 Y-0.8750
G01 X-0.1083 Y-0.8709
G01 X-0.1908 Y-0.8587
G01 X-0.2718 Y-0.8384
G01 X-0.3503 Y-0.8103
G01 X-0.4257 Y-0.7746
G01 X-0.4972 Y-0.7318
G01 X-0.5642 Y-0.6821
G01 X-0.6261 Y-0.6261
G01 X-0.6821 Y-0.5642
G01 X-0.7318 Y-0.4972
G01 X-0.7746 Y-0.4257
G01 X-0.8103 Y-0.3503
G01 X-0.8384 Y-0.2718
G01 X-0.8587 Y-0.1908
G01 X-0.8709 Y-0.1083
G01 X-0.8750 Y-0.0250
G01 X-0.8750 Y9.1000
G00 X-0.8750 Y9.1000
G01 F30.00
G01 Z-1.8000
G01 F100.00
G01 X-0.8750 Y-0.0250
G01 X-0.8709 Y-0.1083
G01 X-0.8587 Y-0.1908
G01 X-0.8384 Y-0.2718
G01 X-0.8103 Y-0.3503
G01 X-0.7746 Y-0.4257
G01 X-0.7318 Y-0.4972
G01 X-0.6821 Y-0.5642
G01 X-0.6261 Y-0.6261
G01 X-0.5642 Y-0.6821
G01 X-0.4972 Y-0.7318
G01 X-0.4257 Y-0.7746
G01 X-0.3503 Y-0.8103
G01 X-0.2718 Y-0.8384
G01 X-0.1908 Y-0.8587
G01 X-0.1083 Y-0.8709
G01 X-0.0250 Y-0.8750
G01 X24.1000 Y-0.8750
G00 X24.1000 Y-0.8750
G01 F30.00
G01 Z-2.0000
G01 F100.00
G01 X-0.0250 Y-0.8750
G01 X-0.1083 Y-0.8709
G01 X-0.1908 Y-0.8587
G01 X-0.2718 Y-0.8384
G01 X-0.3503 Y-0.8103
G01 X-0.4257 Y-0.7746
G01 X-0.4972 Y-0.7318
G01 X-0.5642 Y-0.6821
G01 X-0.6261 Y-0.6261
G01 X-0.6821 Y-0.5642
G01 X-0.7318 Y-0.4972
G01 X-0.7746 Y-0.4257
G01 X-0.8103 Y-0.3503
G01 X-0.8384 Y-0.2718
G01 X-0.8587 Y-0.1908
G01 X-0.8709 Y-0.1083
G01 X-0.8750 Y-0.0250
G01 X-0.8750 Y9.1000
G00 Z2.0000
G00 X-0.8750 Y11.1000
G01 F30.00
G01 Z-0.6000
G01 F100.00
G01 X-0.8750 Y20.0250
G01 X-0.8709 Y20.1083
G01 X-0.8587 Y20.1908
G01 X-0.8384 Y20.2718
G01 X-0.8103 Y20.3503
G01 X-0.7746 Y20.4257
G01 X-0.7318 Y20.4972
G01 X-0.6821 Y20.5642
G01 X-0.6261 Y20.6261
G01 X-0.5642 Y20.6821
G01 X-0.4972 Y20.7318
G01 X-0.4257 Y20.7746
G01 X-0.3503 Y20.8103
G01 X-0.2718 Y20.8384
G01 X-0.1908 Y20.8587
G01 X-0.1083 Y20.8709
G01 X-0.0250 Y20.8750
G01 X24.1000 Y20.8750
G00 X24.1000 Y20.8750
G01 F30.00
G01 Z-1.2000
G01 F100.00
G01 X-0.0250 Y20.8750
G01 X-0.1083 Y20.8709
G01 X-0.1908 Y20.8587
G01 X-0.2718 Y20.8384
G01 X-0.3503 Y20.8103
G01 X-0.4257 Y20.7746
G01 X-0.4972 Y20.7318
G01 X-0.5642 Y20.6821
G01 X-0.6261 Y20.6261
G01 X-0.6821 Y20.5642
G01 X-0.7318 Y20.4972
G01 X-0.7746 Y20.4257
G01 X-0.8103 Y20.3503
G01 X-0.8384 Y20.2718
G01 X-0.8587 Y20.1908
G01 X-0.8709 Y20.1083
G01 X-0.8750 Y20.0250
G01 X-0.8750 Y11.1000
G00 X-0.8750 Y11.1000
G01 F30.00
G01 Z-1.8000
G01 F100.00
G01 X-0.8750 Y20.0250
G01 X-0.8709 Y20.1083
G01 X-0.8587 Y20.1908
G01 X-0.8384 Y20.2718
G01 X-0.8103 Y20.3503
G01 X-0.7746 Y20.4257
G01 X-0.7318 Y20.4972
G01 X-0.6821 Y20.5642
G01 X-0.6261 Y20.6261
G01 X-0.5642 Y20.6821
G01 X-0.4972 Y20.7318
G01 X-0.4257 Y20.7746
G01 X-0.3503 Y20.8103
G01 X-0.2718 Y20.8384
G01 X-0.1908 Y20.8587
G01 X-0.1083 Y20.8709
G01 X-0.0250 Y20.8750
G01 X24.1000 Y20.8750
G00 X24.1000 Y20.8750
G01 F30.00
G01 Z-2.0000
G01 F100.00
G01 X-0.0250 Y20.8750
G01 X-0.1083 Y20.8709
G01 X-0.1908 Y20.8587
G01 X-0.2718 Y20.8384
G01 X-0.3503 Y20.8103
G01 X-0.4257 Y20.7746
G01 X-0.4972 Y20.7318
G01 X-0.5642 Y20.6821
G01 X-0.6261 Y20.6261
G01 X-0.6821 Y20.5642
G01 X-0.7318 Y20.4972
G01 X-0.7746 Y20.4257
G01 X-0.8103 Y20.3503
G01 X-0.8384 Y20.2718
G01 X-0.8587 Y20.1908
G01 X-0.8709 Y20.1083
G01 X-0.8750 Y20.0250
G01 X-0.8750 Y11.1000
G00 Z2.0000
G00 X26.1000 Y20.8750
G01 F30.00
G01 Z-0.6000
G01 F100.00
G01 X50.0250 Y20.8750
G01 X50.1083 Y20.8709
G01 X50.1908 Y20.8587
G01 X50.2718 Y20.8384
G01 X50.3503 Y20.8103
G01 X50.4257 Y20.7746
G01 X50.4972 Y20.7318
G01 X50.5642 Y20.6821
G01 X50.6261 Y20.6261
G01 X50.6821 Y20.5642
G01 X50.7318 Y20.4972
G01 X50.7746 Y20.4257
G01 X50.8103 Y20.3503
G01 X50.8384 Y20.2718
G01 X50.8587 Y20.1908
G01 X50.8709 Y20.1083
G01 X50.8750 Y20.0250
G01 X50.8750 Y11.1000
G00 X50.8750 Y11.1000
G01 F30.00
G01 Z-1.2000
G01 F100.00
G01 X50.8750 Y20.0250
G01 X50.8709 Y20.1083
G01 X50.8587 Y20.1908
G01 X50.8384 Y20.2718
G01 X50.8103 Y20.3503
G01 X50.7746 Y20.4257
G01 X50.7318 Y20.4972
G01 X50.6821 Y20.5642
G01 X50.6261 Y20.6261
G01 X50.5642 Y20.6821
G01 X50.4972 Y20.7318
G01 X50.4257 Y20.7746
G01 X50.3503 Y20.8103
G01 X50.2718 Y20.8384
G01 X50.1908 Y20.8587
G01 X50.1083 Y20.8709
G01 X50.0250 Y20.8750
G01 X26.1000 Y20.8750
G00 X26.1000 Y20.8750
G01 F30.00
G01 Z-1.8000
G01 F100.00
G01 X50.0250 Y20.8750
G01 X50.1083 Y20.8709
G01 X50.1908 Y20.8587
G01 X50.2718 Y20.8384
G01 X50.3503 Y20.8103
G01 X50.4257 Y20.7746
G01 X50.4972 Y20.7318
G01 X50.5642 Y20.6821
G01 X50.6261 Y20.6261
G01 X50.6821 Y20.5642
G01 X50.7318 Y20.4972
G01 X50.7746 Y20.4257
G01 X50.8103 Y20.3503
G01 X50.8384 Y20.2718
G01 X50.8587 Y20.1908
G01 X50.8709 Y20.1083
G01 X50.8750 Y20.0250
G01 X50.8750 Y11.1000
G00 X50.8750 Y11.1000
G01 F30.00
G01 Z-2.0000
G01 F100.00
G01 X50.8750 Y20.0250
G01 X50.8709 Y20.1083
G01 X50.8587 Y20.1908
G01 X50.8384 Y20.2718
G01 X50.8103 Y20.3503
G01 X50.7746 Y20.4257
G01 X50.7318 Y20.4972
G01 X50.6821 Y20.5642
G01 X50.6261 Y20.6261
G01 X50.5642 Y20.6821
G01 X50.4972 Y20.7318
G01 X50.4257 Y20.7746
G01 X50.3503 Y20.8103
G01 X50.2718 Y20.8384
G01 X50.1908 Y20.8587
G01 X50.1083 Y20.8709
G01 X50.0250 Y20.8750
G01 X26.1000 Y20.8750
G00 Z2.0000
G00 X50.8750 Y9.1000
G01 F30.00
G01 Z-0.6000
G01 F100.00
G01 X50.8750 Y-0.0250
G01 X50.8709 Y-0.1083
G01 X50.8587 Y-0.1908
G01 X50.8384 Y-0.2718
G01 X50.8103 Y-0.3503
G01 X50.7746 Y-0.4257
G01 X50.7318 Y-0.4972
G01 X50.6821 Y-0.5642
G01 X50.6261 Y-0.6261
G01 X50.5642 Y-0.6821
G01 X50.4972 Y-0.7318
G01 X50.4257 Y-0.7746
G01 X50.3503 Y-0.8103
G01 X50.2718 Y-0.8384
G01 X50.1908 Y-0.8587
G01 X50.1083 Y-0.8709
G01 X50.0250 Y-0.8750
G01 X26.1000 Y-0.8750
G00 X26.1000 Y-0.8750
G01 F30.00
G01 Z-1.2000
G01 F100.00
G01 X50.0250 Y-0.8750
G01 X50.1083 Y-0.8709
G01 X50.1908 Y-0.8587
G01 X50.2718 Y-0.8384
G01 X50.3503 Y-0.8103
G01 X50.4257 Y-0.7746
G01 X50.4972 Y-0.7318
G01 X50.5642 Y-0.6821
G01 X50.6261 Y-0.6261
G01 X50.6821 Y-0.5642
G01 X50.7318 Y-0.4972
G01 X50.7746 Y-0.4257
G01 X50.8103 Y-0.3503
G01 X50.8384 Y-0.2718
G01 X50.8587 Y-0.1908
G01 X50.8709 Y-0.1083
G01 X50.8750 Y-0.0250
G01 X50.8750 Y9.1000
G00 X50.8750 Y9.1000
G01 F30.00
G01 Z-1.8000
G01 F100.00
G01 X50.8750 Y-0.0250
G01 X50.8709 Y-0.1083
G01 X50.8587 Y-0.1908
G01 X50.8384 Y-0.2718
G01 X50.8103 Y-0.3503
G01 X50.7746 Y-0.4257
G01 X50.7318 Y-0.4972
G01 X50.6821 Y-0.5642
G01 X50.6261 Y-0.6261
G01 X50.5642 Y-0.6821
G01 X50.4972 Y-0.7318
G01 X50.4257 Y-0.7746
G01 X50.3503 Y-0.8103
G01 X50.2718 Y-0.8384
G01 X50.1908 Y-0.8587
G01 X50.1083 Y-0.8709
G01 X50.0250 Y-0.8750
G01 X26.1000 Y-0.8750
G00 X26.1000 Y-0.8750
G01 F30.00
G01 Z-2.0000
G01 F100.00
G01 X50.0250 Y-0.8750
G01 X50.1083 Y-0.8709
G01 X50.1908 Y-0.8587
G01 X50.2718 Y-0.8384
G01 X50.3503 Y-0.8103
G01 X50.4257 Y-0.7746
G01 X50.4972 Y-0.7318
G01 X50.5642 Y-0.6821
G01 X50.6261 Y-0.6261
G01 X50.6821 Y-0.5642
G01 X50.7318 Y-0.4972
G01 X50.7746 Y-0.4257
G01 X50.8103 Y-0.3503
G01 X50.8384 Y-0.2718
G01 X50.8587 Y-0.1908
G01 X50.8709 Y-0.1083
G01 X50.8750 Y-0.0250
G01 X50.8750 Y9.1000
G00 Z2.0000
M05
G00 Z2.0000
G00 Z15.00


