(G-CODE GENERATED BY FLATCAM v8.994 - www.flatcam.org - Version Date: 2020/11/7)

(Name: Photoeye PCB_V1-Edge_Cuts.gbr_cutout_cutout_cnc)
(Type: G-code from Geometry)
(Units: MM)

(Created on Tuesday, 10 March 2026 at 18:11)

(This preprocessor is the default preprocessor used by FlatCAM.)
(It is made to work with MACH3 compatible motion controllers.)

(TOOL DIAMETER: 1.5 mm)
(Feedrate_XY: 100.0 mm/min)
(Feedrate_Z: 30.0 mm/min)
(Feedrate rapids 1500.0 mm/min)

(Z_Cut: -2.5 mm)
(DepthPerCut: 1.0 mm <=>3 passes)
(Z_Move: 2.0 mm)
(Z Start: None mm)
(Z End: 20.0 mm)
(X,Y End: None mm)
(Steps per circle: 64)
(Preprocessor Geometry: default)

(X range:   -0.8750 ...   50.8750  mm)
(Y range:   -0.8750 ...   20.8750  mm)

(Spindle Speed: 10000.0 RPM)
G21
G90
G94

G01 F100.00

M5
G00 Z15.0000
G00 X0.0000 Y0.0000
T1
M6    
(MSG, Change to Tool Dia = 1.5000)
M0
G00 Z15.0000

M03 S10000.0
G01 F100.00
G00 X-0.8750 Y9.1000
G01 F30.00
G01 Z-1.0000
G01 F100.00
G01 X-0.8750 Y-0.8750
G01 X24.1000 Y-0.8750
G00 X24.1000 Y-0.8750
G01 F30.00
G01 Z-2.0000
G01 F100.00
G01 X-0.8750 Y-0.8750
G01 X-0.8750 Y9.1000
G00 X-0.8750 Y9.1000
G01 F30.00
G01 Z-2.5000
G01 F100.00
G01 X-0.8750 Y-0.8750
G01 X24.1000 Y-0.8750
G00 Z2.0000
G00 X26.1000 Y-0.8750
G01 F30.00
G01 Z-1.0000
G01 F100.00
G01 X50.8750 Y-0.8750
G01 X50.8750 Y9.1000
G00 X50.8750 Y9.1000
G01 F30.00
G01 Z-2.0000
G01 F100.00
G01 X50.8750 Y-0.8750
G01 X26.1000 Y-0.8750
G00 X26.1000 Y-0.8750
G01 F30.00
G01 Z-2.5000
G01 F100.00
G01 X50.8750 Y-0.8750
G01 X50.8750 Y9.1000
G00 Z2.0000
G00 X50.8750 Y11.1000
G01 F30.00
G01 Z-1.0000
G01 F100.00
G01 X50.8750 Y20.8750
G01 X26.1000 Y20.8750
G00 X26.1000 Y20.8750
G01 F30.00
G01 Z-2.0000
G01 F100.00
G01 X50.8750 Y20.8750
G01 X50.8750 Y11.1000
G00 X50.8750 Y11.1000
G01 F30.00
G01 Z-2.5000
G01 F100.00
G01 X50.8750 Y20.8750
G01 X26.1000 Y20.8750
G00 Z2.0000
G00 X24.1000 Y20.8750
G01 F30.00
G01 Z-1.0000
G01 F100.00
G01 X-0.8750 Y20.8750
G01 X-0.8750 Y11.1000
G00 X-0.8750 Y11.1000
G01 F30.00
G01 Z-2.0000
G01 F100.00
G01 X-0.8750 Y20.8750
G01 X24.1000 Y20.8750
G00 X24.1000 Y20.8750
G01 F30.00
G01 Z-2.5000
G01 F100.00
G01 X-0.8750 Y20.8750
G01 X-0.8750 Y11.1000
G00 Z2.0000
M05
G00 Z2.0000
G00 Z20.00


