(G-CODE GENERATED BY FLATCAM v8.994 - www.flatcam.org - Version Date: 2020/11/7)

(Name: PhotoeyeOnlyEye PCB_V1-F_Cu.gbr_iso_combined_cnc)
(Type: G-code from Geometry)
(Units: MM)

(Created on Monday, 09 March 2026 at 16:33)

(This preprocessor is the default preprocessor used by FlatCAM.)
(It is made to work with MACH3 compatible motion controllers.)

(TOOL DIAMETER: 0.1141 mm)
(Feedrate_XY: 80.0 mm/min)
(Feedrate_Z: 30.0 mm/min)
(Feedrate rapids 1500.0 mm/min)

(Z_Cut: -0.04 mm)
(Z_Move: 2.0 mm)
(Z Start: None mm)
(Z End: 20.0 mm)
(X,Y End: None mm)
(Steps per circle: 64)
(Preprocessor Geometry: default)

(X range:    0.1696 ...   19.8304  mm)
(Y range:    0.1696 ...   19.8304  mm)

(Spindle Speed: 10000.0 RPM)
G21
G90
G94

G01 F80.00

M5
G00 Z15.0000
G00 X0.0000 Y0.0000
T2
M6    
(MSG, Change to Tool Dia = 0.1141)
M0
G00 Z15.0000

M03 S10000.0
G01 F80.00
G00 X1.6182 Y4.9049
G01 F30.00
G01 Z-0.0400
G01 F80.00
G01 X1.7311 Y4.8474
G01 X1.9335 Y4.7816
G01 X2.1436 Y4.7483
G01 X2.3564 Y4.7483
G01 X2.5665 Y4.7816
G01 X2.7689 Y4.8474
G01 X2.7823 Y4.8542
G01 X2.6218 Y5.0147
G01 X2.5903 Y5.0034
G01 X2.5798 Y5.0001
G01 X2.4776 Y4.9745
G01 X2.4669 Y4.9725
G01 X2.3662 Y4.9576
G01 X2.3553 Y4.9567
G01 X2.2500 Y4.9517
G01 X2.1447 Y4.9567
G01 X2.1302 Y4.9581
G01 X2.0260 Y4.9737
G01 X1.9202 Y5.0001
G01 X1.9097 Y5.0034
G01 X1.8139 Y5.0377
G01 X1.8039 Y5.0420
G01 X1.7709 Y5.0576
G01 X1.6182 Y4.9049
G00 Z2.0000
G00 X1.7913 Y4.9488
G01 F30.00
G01 Z-0.0400
G01 F80.00
G01 X1.7724 Y4.9299
G01 X1.9549 Y4.8706
G01 X2.1508 Y4.8396
G01 X2.3492 Y4.8396
G01 X2.5451 Y4.8706
G01 X2.6143 Y4.8931
G01 X2.5971 Y4.9103
G01 X2.5033 Y4.8868
G01 X2.4918 Y4.8842
G01 X2.4802 Y4.8822
G01 X2.3832 Y4.8678
G01 X2.3715 Y4.8664
G01 X2.3598 Y4.8655
G01 X2.2618 Y4.8607
G01 X2.2500 Y4.8604
G01 X2.2382 Y4.8607
G01 X2.1344 Y4.8659
G01 X2.1168 Y4.8678
G01 X2.0198 Y4.8822
G01 X2.0082 Y4.8842
G01 X1.9967 Y4.8868
G01 X1.9015 Y4.9106
G01 X1.8902 Y4.9138
G01 X1.8790 Y4.9175
G01 X1.7913 Y4.9488
G00 Z2.0000
G00 X1.7519 Y5.1677
G01 F30.00
G01 Z-0.0400
G01 F80.00
G01 X1.4685 Y4.8842
G01 X1.4937 Y4.8659
G01 X1.6961 Y4.7628
G01 X1.9121 Y4.6926
G01 X2.1364 Y4.6570
G01 X2.3636 Y4.6570
G01 X2.5879 Y4.6926
G01 X2.8039 Y4.7628
G01 X2.9357 Y4.8299
G01 X2.6455 Y5.1201
G01 X2.5568 Y5.0885
G01 X2.4590 Y5.0639
G01 X2.4535 Y5.0628
G01 X2.3564 Y5.0484
G01 X2.3508 Y5.0478
G01 X2.2500 Y5.0430
G01 X2.1492 Y5.0478
G01 X2.1436 Y5.0484
G01 X2.0438 Y5.0633
G01 X1.9432 Y5.0885
G01 X1.8455 Y5.1234
G01 X1.7519 Y5.1677
G00 Z2.0000
G00 X0.9896 Y6.1992
G01 F30.00
G01 Z-0.0400
G01 F80.00
G01 X0.9896 Y6.0008
G01 X1.0206 Y5.8049
G01 X1.0799 Y5.6224
G01 X1.0988 Y5.6413
G01 X1.0675 Y5.7290
G01 X1.0638 Y5.7402
G01 X1.0606 Y5.7515
G01 X1.0368 Y5.8467
G01 X1.0342 Y5.8582
G01 X1.0322 Y5.8698
G01 X1.0178 Y5.9668
G01 X1.0164 Y5.9785
G01 X1.0155 Y5.9902
G01 X1.0107 Y6.0882
G01 X1.0104 Y6.1000
G01 X1.0107 Y6.1118
G01 X1.0155 Y6.2098
G01 X1.0164 Y6.2215
G01 X1.0178 Y6.2332
G01 X1.0322 Y6.3302
G01 X1.0342 Y6.3418
G01 X1.0368 Y6.3533
G01 X1.0606 Y6.4485
G01 X1.0638 Y6.4598
G01 X1.0675 Y6.4710
G01 X1.0988 Y6.5587
G01 X1.0799 Y6.5776
G01 X1.0206 Y6.3951
G01 X0.9896 Y6.1992
G00 Z2.0000
G00 X0.8983 Y6.2064
G01 F30.00
G01 Z-0.0400
G01 F80.00
G01 X0.8983 Y5.9936
G01 X0.9316 Y5.7835
G01 X0.9974 Y5.5811
G01 X1.0549 Y5.4682
G01 X1.2076 Y5.6209
G01 X1.1920 Y5.6539
G01 X1.1877 Y5.6639
G01 X1.1522 Y5.7632
G01 X1.1492 Y5.7737
G01 X1.1245 Y5.8724
G01 X1.1225 Y5.8831
G01 X1.1072 Y5.9874
G01 X1.1017 Y6.1000
G01 X1.1072 Y6.2126
G01 X1.1225 Y6.3169
G01 X1.1245 Y6.3276
G01 X1.1492 Y6.4263
G01 X1.1522 Y6.4368
G01 X1.1877 Y6.5361
G01 X1.1920 Y6.5461
G01 X1.2076 Y6.5791
G01 X1.0549 Y6.7318
G01 X0.9974 Y6.6189
G01 X0.9316 Y6.4165
G01 X0.8983 Y6.2064
G00 Z2.0000
G00 X0.8070 Y6.2136
G01 F30.00
G01 Z-0.0400
G01 F80.00
G01 X0.8070 Y5.9864
G01 X0.8426 Y5.7621
G01 X0.9128 Y5.5461
G01 X1.0159 Y5.3437
G01 X1.0342 Y5.3185
G01 X1.3177 Y5.6019
G01 X1.2745 Y5.6929
G01 X1.2724 Y5.6981
G01 X1.2385 Y5.7932
G01 X1.2139 Y5.8910
G01 X1.2128 Y5.8965
G01 X1.1980 Y5.9964
G01 X1.1930 Y6.1000
G01 X1.1980 Y6.2036
G01 X1.2128 Y6.3035
G01 X1.2139 Y6.3090
G01 X1.2385 Y6.4068
G01 X1.2724 Y6.5019
G01 X1.2745 Y6.5071
G01 X1.3177 Y6.5981
G01 X1.0342 Y6.8815
G01 X1.0159 Y6.8563
G01 X0.9128 Y6.6539
G01 X0.8426 Y6.4379
G01 X0.8070 Y6.2136
G00 Z2.0000
G00 X1.7519 Y7.0323
G01 F30.00
G01 Z-0.0400
G01 F80.00
G01 X1.8455 Y7.0766
G01 X1.9428 Y7.1114
G01 X1.9428 Y7.5123
G01 X1.9121 Y7.5074
G01 X1.6961 Y7.4372
G01 X1.4937 Y7.3341
G01 X1.4685 Y7.3158
G01 X1.7519 Y7.0323
G00 Z2.0000
G00 X1.6182 Y7.2951
G01 F30.00
G01 Z-0.0400
G01 F80.00
G01 X1.7709 Y7.1424
G01 X1.8106 Y7.1609
G01 X1.8515 Y7.1758
G01 X1.8515 Y7.3918
G01 X1.7311 Y7.3526
G01 X1.6182 Y7.2951
G00 Z2.0000
G00 X2.5572 Y7.5123
G01 F30.00
G01 Z-0.0400
G01 F80.00
G01 X2.5572 Y7.1114
G01 X2.6545 Y7.0766
G01 X2.7481 Y7.0323
G01 X3.0315 Y7.3158
G01 X3.0063 Y7.3341
G01 X2.8039 Y7.4372
G01 X2.5879 Y7.5074
G01 X2.5572 Y7.5123
G00 Z2.0000
G00 X2.6485 Y7.3918
G01 F30.00
G01 Z-0.0400
G01 F80.00
G01 X2.6485 Y7.1758
G01 X2.6894 Y7.1609
G01 X2.7291 Y7.1424
G01 X2.8818 Y7.2951
G01 X2.7689 Y7.3526
G01 X2.6485 Y7.3918
G00 Z2.0000
G00 X3.1823 Y6.5981
G01 F30.00
G01 Z-0.0400
G01 F80.00
G01 X3.2255 Y6.5071
G01 X3.2276 Y6.5019
G01 X3.2615 Y6.4068
G01 X3.2861 Y6.3090
G01 X3.2872 Y6.3035
G01 X3.3020 Y6.2036
G01 X3.3070 Y6.1000
G01 X3.3020 Y5.9964
G01 X3.2872 Y5.8965
G01 X3.2861 Y5.8910
G01 X3.2615 Y5.7932
G01 X3.2276 Y5.6981
G01 X3.2255 Y5.6929
G01 X3.1823 Y5.6019
G01 X3.4658 Y5.3185
G01 X3.4841 Y5.3437
G01 X3.5872 Y5.5461
G01 X3.6574 Y5.7621
G01 X3.6930 Y5.9864
G01 X3.6930 Y6.2136
G01 X3.6574 Y6.4379
G01 X3.5872 Y6.6539
G01 X3.4841 Y6.8563
G01 X3.4658 Y6.8815
G01 X3.1823 Y6.5981
G00 Z2.0000
G00 X3.2924 Y6.5791
G01 F30.00
G01 Z-0.0400
G01 F80.00
G01 X3.3080 Y6.5461
G01 X3.3123 Y6.5361
G01 X3.3478 Y6.4368
G01 X3.3508 Y6.4263
G01 X3.3755 Y6.3276
G01 X3.3775 Y6.3169
G01 X3.3928 Y6.2126
G01 X3.3983 Y6.1000
G01 X3.3928 Y5.9874
G01 X3.3775 Y5.8831
G01 X3.3755 Y5.8724
G01 X3.3508 Y5.7737
G01 X3.3478 Y5.7632
G01 X3.3123 Y5.6639
G01 X3.3080 Y5.6539
G01 X3.2924 Y5.6209
G01 X3.4451 Y5.4682
G01 X3.5026 Y5.5811
G01 X3.5684 Y5.7835
G01 X3.6017 Y5.9936
G01 X3.6017 Y6.2064
G01 X3.5684 Y6.4165
G01 X3.5026 Y6.6189
G01 X3.4451 Y6.7318
G01 X3.2924 Y6.5791
G00 Z2.0000
G00 X3.4012 Y6.5587
G01 F30.00
G01 Z-0.0400
G01 F80.00
G01 X3.4325 Y6.4710
G01 X3.4362 Y6.4598
G01 X3.4394 Y6.4485
G01 X3.4632 Y6.3533
G01 X3.4658 Y6.3418
G01 X3.4678 Y6.3302
G01 X3.4822 Y6.2332
G01 X3.4836 Y6.2215
G01 X3.4845 Y6.2098
G01 X3.4895 Y6.1059
G01 X3.4893 Y6.0882
G01 X3.4845 Y5.9902
G01 X3.4836 Y5.9785
G01 X3.4822 Y5.9668
G01 X3.4678 Y5.8698
G01 X3.4658 Y5.8582
G01 X3.4632 Y5.8467
G01 X3.4394 Y5.7515
G01 X3.4362 Y5.7402
G01 X3.4325 Y5.7290
G01 X3.4012 Y5.6413
G01 X3.4201 Y5.6224
G01 X3.4794 Y5.8049
G01 X3.5104 Y6.0008
G01 X3.5104 Y6.1992
G01 X3.4794 Y6.3951
G01 X3.4201 Y6.5776
G01 X3.4012 Y6.5587
G00 Z2.0000
G00 X5.8377 Y3.9072
G01 F30.00
G01 Z-0.0400
G01 F80.00
G01 X6.2386 Y3.9072
G01 X6.2734 Y4.0045
G01 X6.3177 Y4.0981
G01 X6.0342 Y4.3815
G01 X6.0159 Y4.3563
G01 X5.9128 Y4.1539
G01 X5.8426 Y3.9379
G01 X5.8377 Y3.9072
G00 Z2.0000
G00 X5.9582 Y3.9985
G01 F30.00
G01 Z-0.0400
G01 F80.00
G01 X6.1742 Y3.9985
G01 X6.1891 Y4.0394
G01 X6.2076 Y4.0791
G01 X6.0549 Y4.2318
G01 X5.9974 Y4.1189
G01 X5.9582 Y3.9985
G00 Z2.0000
G00 X5.8377 Y3.2928
G01 F30.00
G01 Z-0.0400
G01 F80.00
G01 X5.8426 Y3.2621
G01 X5.9128 Y3.0461
G01 X6.0159 Y2.8437
G01 X6.0342 Y2.8185
G01 X6.3177 Y3.1019
G01 X6.2734 Y3.1955
G01 X6.2386 Y3.2928
G01 X5.8377 Y3.2928
G00 Z2.0000
G00 X5.9582 Y3.2015
G01 F30.00
G01 Z-0.0400
G01 F80.00
G01 X5.9974 Y3.0811
G01 X6.0549 Y2.9682
G01 X6.2076 Y3.1209
G01 X6.1891 Y3.1606
G01 X6.1742 Y3.2015
G01 X5.9582 Y3.2015
G00 Z2.0000
G00 X6.7519 Y2.6677
G01 F30.00
G01 Z-0.0400
G01 F80.00
G01 X6.4685 Y2.3842
G01 X6.4937 Y2.3659
G01 X6.6961 Y2.2628
G01 X6.9121 Y2.1926
G01 X7.1364 Y2.1570
G01 X7.3636 Y2.1570
G01 X7.5879 Y2.1926
G01 X7.8039 Y2.2628
G01 X8.0063 Y2.3659
G01 X8.0315 Y2.3842
G01 X7.7481 Y2.6677
G01 X7.6571 Y2.6245
G01 X7.6519 Y2.6224
G01 X7.5568 Y2.5885
G01 X7.4590 Y2.5639
G01 X7.4535 Y2.5628
G01 X7.3536 Y2.5480
G01 X7.2500 Y2.5430
G01 X7.1464 Y2.5480
G01 X7.0465 Y2.5628
G01 X7.0410 Y2.5639
G01 X6.9432 Y2.5885
G01 X6.8481 Y2.6224
G01 X6.8429 Y2.6245
G01 X6.7519 Y2.6677
G00 Z2.0000
G00 X6.7913 Y2.4488
G01 F30.00
G01 Z-0.0400
G01 F80.00
G01 X6.7724 Y2.4299
G01 X6.9549 Y2.3706
G01 X7.1508 Y2.3396
G01 X7.3492 Y2.3396
G01 X7.5451 Y2.3706
G01 X7.7276 Y2.4299
G01 X7.7087 Y2.4488
G01 X7.6210 Y2.4175
G01 X7.6098 Y2.4138
G01 X7.5985 Y2.4106
G01 X7.5033 Y2.3868
G01 X7.4918 Y2.3842
G01 X7.4802 Y2.3822
G01 X7.3832 Y2.3678
G01 X7.3715 Y2.3664
G01 X7.3598 Y2.3655
G01 X7.2618 Y2.3607
G01 X7.2441 Y2.3605
G01 X7.1402 Y2.3655
G01 X7.1285 Y2.3664
G01 X7.1168 Y2.3678
G01 X7.0198 Y2.3822
G01 X7.0082 Y2.3842
G01 X6.9967 Y2.3868
G01 X6.9015 Y2.4106
G01 X6.8902 Y2.4138
G01 X6.8790 Y2.4175
G01 X6.7913 Y2.4488
G00 Z2.0000
G00 X6.6182 Y2.4049
G01 F30.00
G01 Z-0.0400
G01 F80.00
G01 X6.7311 Y2.3474
G01 X6.9335 Y2.2816
G01 X7.1436 Y2.2483
G01 X7.3564 Y2.2483
G01 X7.5665 Y2.2816
G01 X7.7689 Y2.3474
G01 X7.8818 Y2.4049
G01 X7.7291 Y2.5576
G01 X7.6961 Y2.5420
G01 X7.6861 Y2.5377
G01 X7.5868 Y2.5022
G01 X7.5763 Y2.4992
G01 X7.4776 Y2.4745
G01 X7.4669 Y2.4725
G01 X7.3626 Y2.4572
G01 X7.2500 Y2.4517
G01 X7.1374 Y2.4572
G01 X7.0331 Y2.4725
G01 X7.0224 Y2.4745
G01 X6.9237 Y2.4992
G01 X6.9132 Y2.5022
G01 X6.8139 Y2.5377
G01 X6.8039 Y2.5420
G01 X6.7709 Y2.5576
G01 X6.6182 Y2.4049
G00 Z2.0000
G00 X8.1823 Y3.1019
G01 F30.00
G01 Z-0.0400
G01 F80.00
G01 X8.4658 Y2.8185
G01 X8.4841 Y2.8437
G01 X8.5872 Y3.0461
G01 X8.6574 Y3.2621
G01 X8.6930 Y3.4864
G01 X8.6930 Y3.7136
G01 X8.6574 Y3.9379
G01 X8.5872 Y4.1539
G01 X8.4841 Y4.3563
G01 X8.4658 Y4.3815
G01 X8.1823 Y4.0981
G01 X8.2255 Y4.0071
G01 X8.2276 Y4.0019
G01 X8.2615 Y3.9068
G01 X8.2861 Y3.8090
G01 X8.2872 Y3.8035
G01 X8.3020 Y3.7036
G01 X8.3070 Y3.6000
G01 X8.3020 Y3.4964
G01 X8.2872 Y3.3965
G01 X8.2861 Y3.3910
G01 X8.2615 Y3.2932
G01 X8.2276 Y3.1981
G01 X8.2255 Y3.1929
G01 X8.1823 Y3.1019
G00 Z2.0000
G00 X8.2924 Y3.1209
G01 F30.00
G01 Z-0.0400
G01 F80.00
G01 X8.4451 Y2.9682
G01 X8.5026 Y3.0811
G01 X8.5684 Y3.2835
G01 X8.6017 Y3.4936
G01 X8.6017 Y3.7064
G01 X8.5684 Y3.9165
G01 X8.5026 Y4.1189
G01 X8.4451 Y4.2318
G01 X8.2924 Y4.0791
G01 X8.3080 Y4.0461
G01 X8.3123 Y4.0361
G01 X8.3478 Y3.9368
G01 X8.3508 Y3.9263
G01 X8.3755 Y3.8276
G01 X8.3775 Y3.8169
G01 X8.3928 Y3.7126
G01 X8.3983 Y3.6000
G01 X8.3928 Y3.4874
G01 X8.3775 Y3.3831
G01 X8.3755 Y3.3724
G01 X8.3508 Y3.2737
G01 X8.3478 Y3.2632
G01 X8.3123 Y3.1639
G01 X8.3080 Y3.1539
G01 X8.2924 Y3.1209
G00 Z2.0000
G00 X8.4012 Y3.1413
G01 F30.00
G01 Z-0.0400
G01 F80.00
G01 X8.4201 Y3.1224
G01 X8.4794 Y3.3049
G01 X8.5104 Y3.5008
G01 X8.5104 Y3.6992
G01 X8.4794 Y3.8951
G01 X8.4201 Y4.0776
G01 X8.4012 Y4.0587
G01 X8.4325 Y3.9710
G01 X8.4362 Y3.9598
G01 X8.4394 Y3.9485
G01 X8.4632 Y3.8533
G01 X8.4658 Y3.8418
G01 X8.4678 Y3.8302
G01 X8.4822 Y3.7332
G01 X8.4836 Y3.7215
G01 X8.4845 Y3.7098
G01 X8.4893 Y3.6118
G01 X8.4895 Y3.5941
G01 X8.4845 Y3.4902
G01 X8.4836 Y3.4785
G01 X8.4822 Y3.4668
G01 X8.4678 Y3.3698
G01 X8.4658 Y3.3582
G01 X8.4632 Y3.3467
G01 X8.4394 Y3.2515
G01 X8.4362 Y3.2402
G01 X8.4325 Y3.2290
G01 X8.4012 Y3.1413
G00 Z2.0000
G00 X10.5000 Y3.1430
G01 F30.00
G01 Z-0.0400
G01 F80.00
G01 X12.5000 Y3.1430
G01 X12.5098 Y3.1438
G01 X12.5192 Y3.1463
G01 X12.5281 Y3.1504
G01 X12.5362 Y3.1559
G01 X12.5403 Y3.1597
G01 X12.5450 Y3.1649
G01 X12.5482 Y3.1695
G01 X12.5516 Y3.1756
G01 X12.5537 Y3.1808
G01 X12.5557 Y3.1875
G01 X12.5566 Y3.1930
G01 X12.5570 Y3.1986
G01 X12.5570 Y4.8226
G01 X13.7169 Y5.9825
G01 X13.7938 Y5.9633
G01 X13.8936 Y5.9484
G01 X13.8992 Y5.9478
G01 X13.9972 Y5.9430
G01 X14.0028 Y5.9430
G01 X14.1036 Y5.9480
G01 X14.2062 Y5.9633
G01 X14.3041 Y5.9877
G01 X14.3095 Y5.9893
G01 X14.4045 Y6.0234
G01 X14.4958 Y6.0665
G01 X14.5007 Y6.0691
G01 X14.5873 Y6.1211
G01 X14.6706 Y6.1829
G01 X14.7474 Y6.2526
G01 X14.8171 Y6.3294
G01 X14.8789 Y6.4127
G01 X14.9322 Y6.5017
G01 X14.9766 Y6.5955
G01 X15.0115 Y6.6932
G01 X15.0367 Y6.7938
G01 X15.0521 Y6.8978
G01 X15.0570 Y7.0000
G01 X15.0520 Y7.1036
G01 X15.0367 Y7.2062
G01 X15.0123 Y7.3041
G01 X15.0107 Y7.3095
G01 X14.9776 Y7.4019
G01 X14.9755 Y7.4071
G01 X14.9322 Y7.4983
G01 X14.8789 Y7.5873
G01 X14.8171 Y7.6706
G01 X14.7494 Y7.7454
G01 X14.7454 Y7.7494
G01 X14.6727 Y7.8153
G01 X14.6684 Y7.8188
G01 X14.5873 Y7.8789
G01 X14.4983 Y7.9322
G01 X14.4045 Y7.9766
G01 X14.3072 Y8.0114
G01 X14.3072 Y8.4473
G01 X14.3057 Y8.4774
G01 X14.3007 Y8.5100
G01 X14.2939 Y8.5365
G01 X14.2838 Y8.5649
G01 X14.2695 Y8.5945
G01 X14.2554 Y8.6180
G01 X14.2383 Y8.6411
G01 X14.2172 Y8.6645
G01 X11.5572 Y11.3245
G01 X11.5572 Y11.8984
G01 X11.5891 Y11.9062
G01 X11.6149 Y11.9153
G01 X11.6201 Y11.9175
G01 X11.6472 Y11.9306
G01 X11.6706 Y11.9447
G01 X11.6948 Y11.9626
G01 X11.7171 Y11.9829
G01 X11.7374 Y12.0052
G01 X11.7553 Y12.0294
G01 X11.7694 Y12.0528
G01 X11.7825 Y12.0799
G01 X11.7847 Y12.0851
G01 X11.7938 Y12.1109
G01 X11.8012 Y12.1401
G01 X11.8056 Y12.1699
G01 X11.8070 Y12.1972
G01 X11.8070 Y17.2000
G01 X11.8056 Y17.2301
G01 X11.8012 Y17.2599
G01 X11.7938 Y17.2891
G01 X11.7837 Y17.3175
G01 X11.7708 Y17.3447
G01 X11.7553 Y17.3706
G01 X11.7374 Y17.3948
G01 X11.7190 Y17.4151
G01 X11.7151 Y17.4190
G01 X11.6926 Y17.4391
G01 X11.6706 Y17.4553
G01 X11.6422 Y17.4721
G01 X11.6175 Y17.4837
G01 X11.5891 Y17.4938
G01 X11.5599 Y17.5012
G01 X11.5287 Y17.5057
G01 X11.5000 Y17.5070
G01 X10.9986 Y17.5070
G01 X10.9699 Y17.5056
G01 X10.9429 Y17.5016
G01 X10.9109 Y17.4938
G01 X10.8799 Y17.4825
G01 X10.8553 Y17.4708
G01 X10.8294 Y17.4553
G01 X10.8031 Y17.4355
G01 X10.7829 Y17.4171
G01 X10.7645 Y17.3969
G01 X10.7463 Y17.3729
G01 X10.7432 Y17.3682
G01 X10.7292 Y17.3447
G01 X10.7175 Y17.3201
G01 X10.7062 Y17.2891
G01 X10.6984 Y17.2571
G01 X10.6944 Y17.2301
G01 X10.6930 Y17.2000
G01 X10.6930 Y12.2000
G01 X10.6944 Y12.1699
G01 X10.6991 Y12.1387
G01 X10.7062 Y12.1109
G01 X10.7153 Y12.0851
G01 X10.7292 Y12.0553
G01 X10.7463 Y12.0271
G01 X10.7626 Y12.0052
G01 X10.7829 Y11.9829
G01 X10.8052 Y11.9626
G01 X10.8271 Y11.9463
G01 X10.8553 Y11.9292
G01 X10.8825 Y11.9163
G01 X10.9082 Y11.9070
G01 X10.9136 Y11.9054
G01 X10.9428 Y11.8984
G01 X10.9428 Y11.1973
G01 X10.9441 Y11.1700
G01 X10.9487 Y11.1374
G01 X10.9569 Y11.1055
G01 X10.9662 Y11.0798
G01 X10.9778 Y11.0550
G01 X10.9805 Y11.0501
G01 X10.9962 Y11.0244
G01 X11.0125 Y11.0024
G01 X11.0328 Y10.9801
G01 X13.6928 Y8.3201
G01 X13.6928 Y8.0114
G01 X13.5981 Y7.9776
G01 X13.5929 Y7.9755
G01 X13.5017 Y7.9322
G01 X13.4151 Y7.8804
G01 X13.4104 Y7.8773
G01 X13.3294 Y7.8171
G01 X13.2526 Y7.7474
G01 X13.1829 Y7.6706
G01 X13.1227 Y7.5896
G01 X13.1196 Y7.5849
G01 X13.0678 Y7.4983
G01 X13.0245 Y7.4071
G01 X13.0224 Y7.4019
G01 X12.9885 Y7.3068
G01 X12.9639 Y7.2090
G01 X12.9628 Y7.2035
G01 X12.9480 Y7.1036
G01 X12.9430 Y7.0028
G01 X12.9430 Y6.9972
G01 X12.9480 Y6.8964
G01 X12.9633 Y6.7938
G01 X12.9877 Y6.6959
G01 X12.9893 Y6.6905
G01 X13.0234 Y6.5955
G01 X13.0665 Y6.5042
G01 X13.0691 Y6.4993
G01 X13.1211 Y6.4127
G01 X13.1812 Y6.3316
G01 X13.1886 Y6.3230
G01 X12.1226 Y5.2570
G01 X10.4986 Y5.2570
G01 X10.4916 Y5.2564
G01 X10.4861 Y5.2553
G01 X10.4795 Y5.2532
G01 X10.4731 Y5.2503
G01 X10.4672 Y5.2466
G01 X10.4617 Y5.2423
G01 X10.4568 Y5.2373
G01 X10.4526 Y5.2317
G01 X10.4484 Y5.2244
G01 X10.4454 Y5.2166
G01 X10.4436 Y5.2084
G01 X10.4430 Y5.2000
G01 X10.4430 Y3.1986
G01 X10.4434 Y3.1930
G01 X10.4443 Y3.1875
G01 X10.4458 Y3.1821
G01 X10.4478 Y3.1769
G01 X10.4526 Y3.1683
G01 X10.4559 Y3.1638
G01 X10.4597 Y3.1597
G01 X10.4638 Y3.1559
G01 X10.4683 Y3.1526
G01 X10.4731 Y3.1497
G01 X10.4782 Y3.1473
G01 X10.4834 Y3.1454
G01 X10.4889 Y3.1440
G01 X10.4944 Y3.1432
G01 X10.5000 Y3.1430
G00 Z2.0000
G00 X10.5000 Y3.0517
G01 F30.00
G01 Z-0.0400
G01 F80.00
G01 X12.5036 Y3.0517
G01 X12.5145 Y3.0524
G01 X12.5289 Y3.0545
G01 X12.5396 Y3.0570
G01 X12.5534 Y3.0616
G01 X12.5667 Y3.0675
G01 X12.5763 Y3.0728
G01 X12.5854 Y3.0787
G01 X12.5941 Y3.0853
G01 X12.6049 Y3.0951
G01 X12.6099 Y3.1004
G01 X12.6169 Y3.1087
G01 X12.6253 Y3.1206
G01 X12.6325 Y3.1333
G01 X12.6384 Y3.1466
G01 X12.6419 Y3.1569
G01 X12.6439 Y3.1640
G01 X12.6455 Y3.1711
G01 X12.6472 Y3.1818
G01 X12.6483 Y3.1964
G01 X12.6483 Y4.7848
G01 X13.7448 Y5.8813
G01 X13.7689 Y5.8753
G01 X13.7796 Y5.8731
G01 X13.8838 Y5.8576
G01 X13.8947 Y5.8567
G01 X13.9964 Y5.8517
G01 X14.0073 Y5.8518
G01 X14.1126 Y5.8572
G01 X14.2169 Y5.8725
G01 X14.2276 Y5.8745
G01 X14.3263 Y5.8992
G01 X14.3403 Y5.9034
G01 X14.4394 Y5.9391
G01 X14.5348 Y5.9840
G01 X14.5477 Y5.9909
G01 X14.6380 Y6.0452
G01 X14.7228 Y6.1078
G01 X14.7313 Y6.1147
G01 X14.8120 Y6.1880
G01 X14.8877 Y6.2715
G01 X14.9548 Y6.3620
G01 X15.0127 Y6.4587
G01 X15.0609 Y6.5606
G01 X15.0989 Y6.6667
G01 X15.1263 Y6.7760
G01 X15.1419 Y6.8802
G01 X15.1431 Y6.8911
G01 X15.1483 Y7.0000
G01 X15.1433 Y7.1053
G01 X15.1419 Y7.1198
G01 X15.1275 Y7.2169
G01 X15.1247 Y7.2311
G01 X15.0989 Y7.3333
G01 X15.0609 Y7.4394
G01 X15.0127 Y7.5413
G01 X14.9568 Y7.6349
G01 X14.9506 Y7.6439
G01 X14.8877 Y7.7285
G01 X14.8170 Y7.8067
G01 X14.8067 Y7.8170
G01 X14.7340 Y7.8829
G01 X14.7257 Y7.8899
G01 X14.6380 Y7.9548
G01 X14.5445 Y8.0110
G01 X14.5348 Y8.0160
G01 X14.4428 Y8.0595
G01 X14.4327 Y8.0635
G01 X14.3985 Y8.0758
G01 X14.3985 Y8.4473
G01 X14.3971 Y8.4791
G01 X14.3956 Y8.4936
G01 X14.3908 Y8.5250
G01 X14.3832 Y8.5560
G01 X14.3790 Y8.5699
G01 X14.3681 Y8.5998
G01 X14.3547 Y8.6286
G01 X14.3478 Y8.6415
G01 X14.3313 Y8.6687
G01 X14.3103 Y8.6972
G01 X14.3033 Y8.7056
G01 X14.2818 Y8.7291
G01 X11.6485 Y11.3624
G01 X11.6485 Y11.8304
G01 X11.6558 Y11.8334
G01 X11.6813 Y11.8454
G01 X11.6941 Y11.8523
G01 X11.7213 Y11.8688
G01 X11.7527 Y11.8921
G01 X11.7764 Y11.9133
G01 X11.7867 Y11.9236
G01 X11.8079 Y11.9473
G01 X11.8291 Y11.9757
G01 X11.8351 Y11.9849
G01 X11.8477 Y12.0059
G01 X11.8546 Y12.0187
G01 X11.8680 Y12.0476
G01 X11.8801 Y12.0809
G01 X11.8831 Y12.0914
G01 X11.8891 Y12.1152
G01 X11.8913 Y12.1259
G01 X11.8964 Y12.1610
G01 X11.8982 Y12.1927
G01 X11.8983 Y17.2036
G01 X11.8964 Y17.2390
G01 X11.8907 Y17.2777
G01 X11.8812 Y17.3156
G01 X11.8680 Y17.3524
G01 X11.8513 Y17.3878
G01 X11.8312 Y17.4213
G01 X11.8079 Y17.4527
G01 X11.7867 Y17.4764
G01 X11.7791 Y17.4842
G01 X11.7582 Y17.5032
G01 X11.7470 Y17.5124
G01 X11.7273 Y17.5270
G01 X11.7182 Y17.5332
G01 X11.6910 Y17.5495
G01 X11.6813 Y17.5546
G01 X11.6591 Y17.5651
G01 X11.6491 Y17.5694
G01 X11.6225 Y17.5789
G01 X11.6121 Y17.5822
G01 X11.5777 Y17.5907
G01 X11.5463 Y17.5955
G01 X11.5354 Y17.5967
G01 X11.5000 Y17.5983
G01 X10.9964 Y17.5983
G01 X10.9610 Y17.5964
G01 X10.9259 Y17.5913
G01 X10.9152 Y17.5891
G01 X10.8914 Y17.5831
G01 X10.8775 Y17.5789
G01 X10.8476 Y17.5680
G01 X10.8187 Y17.5546
G01 X10.8059 Y17.5477
G01 X10.7787 Y17.5312
G01 X10.7530 Y17.5124
G01 X10.7418 Y17.5032
G01 X10.7183 Y17.4817
G01 X10.6944 Y17.4555
G01 X10.6876 Y17.4470
G01 X10.6730 Y17.4273
G01 X10.6668 Y17.4182
G01 X10.6487 Y17.3878
G01 X10.6349 Y17.3591
G01 X10.6294 Y17.3456
G01 X10.6188 Y17.3156
G01 X10.6109 Y17.2848
G01 X10.6087 Y17.2741
G01 X10.6036 Y17.2390
G01 X10.6017 Y17.2000
G01 X10.6017 Y12.2000
G01 X10.6036 Y12.1610
G01 X10.6081 Y12.1295
G01 X10.6101 Y12.1187
G01 X10.6178 Y12.0879
G01 X10.6211 Y12.0775
G01 X10.6320 Y12.0476
G01 X10.6454 Y12.0187
G01 X10.6523 Y12.0059
G01 X10.6688 Y11.9787
G01 X10.6921 Y11.9473
G01 X10.7133 Y11.9236
G01 X10.7236 Y11.9133
G01 X10.7473 Y11.8921
G01 X10.7727 Y11.8730
G01 X10.7849 Y11.8649
G01 X10.8122 Y11.8487
G01 X10.8409 Y11.8349
G01 X10.8515 Y11.8304
G01 X10.8515 Y11.1973
G01 X10.8532 Y11.1619
G01 X10.8544 Y11.1510
G01 X10.8580 Y11.1268
G01 X10.8600 Y11.1160
G01 X10.8687 Y11.0817
G01 X10.8793 Y11.0516
G01 X10.8848 Y11.0382
G01 X10.8986 Y11.0095
G01 X10.9148 Y10.9821
G01 X10.9229 Y10.9700
G01 X10.9420 Y10.9445
G01 X10.9682 Y10.9156
G01 X13.6015 Y8.2823
G01 X13.6015 Y8.0758
G01 X13.5673 Y8.0635
G01 X13.5572 Y8.0595
G01 X13.4619 Y8.0144
G01 X13.4523 Y8.0091
G01 X13.3651 Y7.9568
G01 X13.3561 Y7.9506
G01 X13.2715 Y7.8877
G01 X13.1933 Y7.8170
G01 X13.1855 Y7.8094
G01 X13.1171 Y7.7340
G01 X13.1078 Y7.7228
G01 X13.0452 Y7.6380
G01 X12.9909 Y7.5477
G01 X12.9840 Y7.5348
G01 X12.9391 Y7.4394
G01 X12.9011 Y7.3333
G01 X12.8737 Y7.2240
G01 X12.8581 Y7.1198
G01 X12.8567 Y7.1053
G01 X12.8517 Y7.0000
G01 X12.8567 Y6.8947
G01 X12.8581 Y6.8802
G01 X12.8731 Y6.7796
G01 X12.8753 Y6.7689
G01 X12.9011 Y6.6667
G01 X12.9365 Y6.5673
G01 X12.9405 Y6.5572
G01 X12.9840 Y6.4652
G01 X12.9890 Y6.4555
G01 X13.0432 Y6.3651
G01 X13.0494 Y6.3561
G01 X13.0678 Y6.3313
G01 X12.0848 Y5.3483
G01 X10.4927 Y5.3482
G01 X10.4818 Y5.3472
G01 X10.4746 Y5.3461
G01 X10.4604 Y5.3430
G01 X10.4500 Y5.3397
G01 X10.4432 Y5.3370
G01 X10.4366 Y5.3341
G01 X10.4269 Y5.3291
G01 X10.4176 Y5.3233
G01 X10.4116 Y5.3191
G01 X10.4059 Y5.3147
G01 X10.3977 Y5.3074
G01 X10.3901 Y5.2996
G01 X10.3853 Y5.2941
G01 X10.3809 Y5.2884
G01 X10.3747 Y5.2794
G01 X10.3709 Y5.2731
G01 X10.3659 Y5.2634
G01 X10.3616 Y5.2534
G01 X10.3581 Y5.2431
G01 X10.3553 Y5.2325
G01 X10.3533 Y5.2218
G01 X10.3521 Y5.2109
G01 X10.3517 Y5.2000
G01 X10.3518 Y3.1927
G01 X10.3533 Y3.1782
G01 X10.3553 Y3.1675
G01 X10.3592 Y3.1535
G01 X10.3644 Y3.1399
G01 X10.3709 Y3.1269
G01 X10.3787 Y3.1146
G01 X10.3877 Y3.1031
G01 X10.3977 Y3.0926
G01 X10.4087 Y3.0831
G01 X10.4206 Y3.0747
G01 X10.4333 Y3.0675
G01 X10.4466 Y3.0616
G01 X10.4569 Y3.0581
G01 X10.4711 Y3.0545
G01 X10.4855 Y3.0524
G01 X10.5000 Y3.0517
G00 Z2.0000
G00 X10.5000 Y2.9604
G01 F30.00
G01 Z-0.0400
G01 F80.00
G01 X12.5059 Y2.9605
G01 X12.5176 Y2.9610
G01 X12.5293 Y2.9622
G01 X12.5467 Y2.9650
G01 X12.5639 Y2.9691
G01 X12.5807 Y2.9744
G01 X12.5917 Y2.9786
G01 X12.6024 Y2.9834
G01 X12.6181 Y2.9915
G01 X12.6282 Y2.9976
G01 X12.6380 Y3.0041
G01 X12.6520 Y3.0148
G01 X12.6652 Y3.0265
G01 X12.6735 Y3.0348
G01 X12.6814 Y3.0435
G01 X12.6889 Y3.0526
G01 X12.6959 Y3.0620
G01 X12.7024 Y3.0718
G01 X12.7085 Y3.0819
G01 X12.7140 Y3.0923
G01 X12.7191 Y3.1029
G01 X12.7236 Y3.1138
G01 X12.7293 Y3.1304
G01 X12.7324 Y3.1418
G01 X12.7350 Y3.1533
G01 X12.7370 Y3.1648
G01 X12.7385 Y3.1765
G01 X12.7393 Y3.1882
G01 X12.7396 Y3.2000
G01 X12.7396 Y4.7470
G01 X13.7741 Y5.7815
G01 X13.8668 Y5.7678
G01 X13.8785 Y5.7664
G01 X13.8902 Y5.7655
G01 X13.9882 Y5.7607
G01 X14.0000 Y5.7604
G01 X14.0118 Y5.7607
G01 X14.1098 Y5.7655
G01 X14.1215 Y5.7664
G01 X14.1332 Y5.7678
G01 X14.2302 Y5.7822
G01 X14.2418 Y5.7842
G01 X14.2533 Y5.7868
G01 X14.3485 Y5.8106
G01 X14.3598 Y5.8138
G01 X14.3710 Y5.8175
G01 X14.4634 Y5.8505
G01 X14.4744 Y5.8547
G01 X14.4851 Y5.8595
G01 X14.5738 Y5.9015
G01 X14.5843 Y5.9068
G01 X14.5946 Y5.9126
G01 X14.6788 Y5.9630
G01 X14.6887 Y5.9693
G01 X14.6983 Y5.9761
G01 X14.7771 Y6.0345
G01 X14.7909 Y6.0456
G01 X14.8680 Y6.1154
G01 X14.8765 Y6.1235
G01 X14.8846 Y6.1320
G01 X14.9505 Y6.2047
G01 X14.9582 Y6.2136
G01 X14.9655 Y6.2229
G01 X15.0239 Y6.3017
G01 X15.0307 Y6.3113
G01 X15.0370 Y6.3212
G01 X15.0874 Y6.4054
G01 X15.0932 Y6.4157
G01 X15.0985 Y6.4262
G01 X15.1405 Y6.5149
G01 X15.1453 Y6.5256
G01 X15.1495 Y6.5366
G01 X15.1825 Y6.6290
G01 X15.1862 Y6.6402
G01 X15.1894 Y6.6515
G01 X15.2132 Y6.7467
G01 X15.2158 Y6.7582
G01 X15.2178 Y6.7698
G01 X15.2322 Y6.8668
G01 X15.2341 Y6.8844
G01 X15.2393 Y6.9882
G01 X15.2396 Y7.0000
G01 X15.2393 Y7.0118
G01 X15.2345 Y7.1098
G01 X15.2336 Y7.1215
G01 X15.2322 Y7.1332
G01 X15.2178 Y7.2302
G01 X15.2158 Y7.2418
G01 X15.2132 Y7.2533
G01 X15.1894 Y7.3485
G01 X15.1862 Y7.3598
G01 X15.1825 Y7.3710
G01 X15.1495 Y7.4634
G01 X15.1429 Y7.4798
G01 X15.0985 Y7.5738
G01 X15.0932 Y7.5843
G01 X15.0874 Y7.5946
G01 X15.0370 Y7.6788
G01 X15.0307 Y7.6887
G01 X15.0239 Y7.6983
G01 X14.9655 Y7.7771
G01 X14.9582 Y7.7864
G01 X14.9505 Y7.7953
G01 X14.8846 Y7.8680
G01 X14.8765 Y7.8765
G01 X14.8680 Y7.8846
G01 X14.7953 Y7.9505
G01 X14.7864 Y7.9582
G01 X14.7771 Y7.9655
G01 X14.6983 Y8.0239
G01 X14.6887 Y8.0307
G01 X14.6788 Y8.0370
G01 X14.5946 Y8.0874
G01 X14.5843 Y8.0932
G01 X14.5738 Y8.0985
G01 X14.4897 Y8.1383
G01 X14.4897 Y8.4532
G01 X14.4874 Y8.4953
G01 X14.4814 Y8.5371
G01 X14.4777 Y8.5543
G01 X14.4687 Y8.5895
G01 X14.4546 Y8.6293
G01 X14.4477 Y8.6455
G01 X14.4319 Y8.6782
G01 X14.4135 Y8.7095
G01 X14.4039 Y8.7242
G01 X14.3822 Y8.7534
G01 X14.3709 Y8.7669
G01 X14.3463 Y8.7936
G01 X11.7397 Y11.4002
G01 X11.7397 Y11.7732
G01 X11.7720 Y11.7929
G01 X11.8013 Y11.8143
G01 X11.8151 Y11.8253
G01 X11.8420 Y11.8497
G01 X11.8543 Y11.8623
G01 X11.8785 Y11.8894
G01 X11.9038 Y11.9231
G01 X11.9134 Y11.9379
G01 X11.9318 Y11.9692
G01 X11.9476 Y12.0019
G01 X11.9545 Y12.0181
G01 X11.9685 Y12.0579
G01 X11.9790 Y12.0987
G01 X11.9822 Y12.1161
G01 X11.9873 Y12.1520
G01 X11.9893 Y12.1882
G01 X11.9896 Y12.2000
G01 X11.9895 Y17.2059
G01 X11.9873 Y17.2480
G01 X11.9858 Y17.2597
G01 X11.9802 Y17.2955
G01 X11.9717 Y17.3308
G01 X11.9685 Y17.3421
G01 X11.9566 Y17.3764
G01 X11.9523 Y17.3874
G01 X11.9476 Y17.3981
G01 X11.9318 Y17.4308
G01 X11.9134 Y17.4621
G01 X11.9071 Y17.4720
G01 X11.9003 Y17.4816
G01 X11.8785 Y17.5106
G01 X11.8543 Y17.5377
G01 X11.8420 Y17.5503
G01 X11.8195 Y17.5708
G01 X11.8106 Y17.5785
G01 X11.8013 Y17.5857
G01 X11.7769 Y17.6038
G01 X11.7671 Y17.6103
G01 X11.7360 Y17.6290
G01 X11.7203 Y17.6371
G01 X11.6928 Y17.6500
G01 X11.6819 Y17.6545
G01 X11.6533 Y17.6648
G01 X11.6365 Y17.6702
G01 X11.5955 Y17.6802
G01 X11.5597 Y17.6858
G01 X11.5421 Y17.6878
G01 X11.5000 Y17.6896
G01 X11.0000 Y17.6896
G01 X10.9882 Y17.6893
G01 X10.9520 Y17.6873
G01 X10.9403 Y17.6858
G01 X10.9045 Y17.6802
G01 X10.8692 Y17.6717
G01 X10.8579 Y17.6685
G01 X10.8181 Y17.6545
G01 X10.8019 Y17.6476
G01 X10.7692 Y17.6318
G01 X10.7329 Y17.6103
G01 X10.7184 Y17.6003
G01 X10.6894 Y17.5785
G01 X10.6623 Y17.5543
G01 X10.6497 Y17.5420
G01 X10.6215 Y17.5106
G01 X10.5962 Y17.4769
G01 X10.5866 Y17.4621
G01 X10.5682 Y17.4308
G01 X10.5524 Y17.3981
G01 X10.5455 Y17.3819
G01 X10.5315 Y17.3421
G01 X10.5224 Y17.3070
G01 X10.5187 Y17.2897
G01 X10.5127 Y17.2480
G01 X10.5107 Y17.2118
G01 X10.5104 Y17.2000
G01 X10.5104 Y12.2000
G01 X10.5107 Y12.1882
G01 X10.5127 Y12.1520
G01 X10.5142 Y12.1403
G01 X10.5198 Y12.1045
G01 X10.5224 Y12.0930
G01 X10.5315 Y12.0579
G01 X10.5434 Y12.0236
G01 X10.5500 Y12.0072
G01 X10.5629 Y11.9797
G01 X10.5710 Y11.9640
G01 X10.5897 Y11.9329
G01 X10.5997 Y11.9184
G01 X10.6215 Y11.8894
G01 X10.6457 Y11.8623
G01 X10.6580 Y11.8497
G01 X10.6805 Y11.8292
G01 X10.6940 Y11.8179
G01 X10.7231 Y11.7962
G01 X10.7329 Y11.7897
G01 X10.7603 Y11.7732
G01 X10.7603 Y11.1973
G01 X10.7618 Y11.1610
G01 X10.7633 Y11.1435
G01 X10.7697 Y11.1018
G01 X10.7782 Y11.0665
G01 X10.7831 Y11.0496
G01 X10.7975 Y11.0099
G01 X10.8154 Y10.9717
G01 X10.8239 Y10.9562
G01 X10.8428 Y10.9252
G01 X10.8642 Y10.8959
G01 X10.8752 Y10.8821
G01 X10.9037 Y10.8510
G01 X13.5103 Y8.2445
G01 X13.5103 Y8.1383
G01 X13.4262 Y8.0985
G01 X13.4157 Y8.0932
G01 X13.4054 Y8.0874
G01 X13.3212 Y8.0370
G01 X13.3113 Y8.0307
G01 X13.3017 Y8.0239
G01 X13.2229 Y7.9655
G01 X13.2136 Y7.9582
G01 X13.2047 Y7.9505
G01 X13.1320 Y7.8846
G01 X13.1235 Y7.8765
G01 X13.1154 Y7.8680
G01 X13.0495 Y7.7953
G01 X13.0418 Y7.7864
G01 X13.0345 Y7.7771
G01 X12.9761 Y7.6983
G01 X12.9693 Y7.6887
G01 X12.9630 Y7.6788
G01 X12.9126 Y7.5946
G01 X12.9068 Y7.5843
G01 X12.9015 Y7.5738
G01 X12.8595 Y7.4851
G01 X12.8547 Y7.4744
G01 X12.8505 Y7.4634
G01 X12.8175 Y7.3710
G01 X12.8138 Y7.3598
G01 X12.8106 Y7.3485
G01 X12.7868 Y7.2533
G01 X12.7842 Y7.2418
G01 X12.7822 Y7.2302
G01 X12.7678 Y7.1332
G01 X12.7664 Y7.1215
G01 X12.7655 Y7.1098
G01 X12.7607 Y7.0118
G01 X12.7604 Y7.0000
G01 X12.7607 Y6.9882
G01 X12.7655 Y6.8902
G01 X12.7670 Y6.8727
G01 X12.7822 Y6.7698
G01 X12.7842 Y6.7582
G01 X12.7868 Y6.7467
G01 X12.8106 Y6.6515
G01 X12.8138 Y6.6402
G01 X12.8175 Y6.6290
G01 X12.8505 Y6.5366
G01 X12.8547 Y6.5256
G01 X12.8595 Y6.5149
G01 X12.9015 Y6.4262
G01 X12.9068 Y6.4157
G01 X12.9501 Y6.3427
G01 X12.0470 Y5.4396
G01 X10.5000 Y5.4396
G01 X10.4824 Y5.4390
G01 X10.4707 Y5.4378
G01 X10.4533 Y5.4350
G01 X10.4418 Y5.4324
G01 X10.4248 Y5.4275
G01 X10.4138 Y5.4236
G01 X10.3976 Y5.4166
G01 X10.3819 Y5.4085
G01 X10.3718 Y5.4024
G01 X10.3620 Y5.3959
G01 X10.3480 Y5.3852
G01 X10.3348 Y5.3735
G01 X10.3265 Y5.3652
G01 X10.3186 Y5.3565
G01 X10.3075 Y5.3427
G01 X10.3008 Y5.3331
G01 X10.2915 Y5.3181
G01 X10.2834 Y5.3024
G01 X10.2786 Y5.2917
G01 X10.2725 Y5.2752
G01 X10.2691 Y5.2639
G01 X10.2662 Y5.2525
G01 X10.2630 Y5.2352
G01 X10.2610 Y5.2176
G01 X10.2605 Y5.2059
G01 X10.2604 Y3.2000
G01 X10.2607 Y3.1882
G01 X10.2615 Y3.1765
G01 X10.2630 Y3.1648
G01 X10.2650 Y3.1533
G01 X10.2691 Y3.1361
G01 X10.2725 Y3.1248
G01 X10.2764 Y3.1138
G01 X10.2809 Y3.1029
G01 X10.2860 Y3.0923
G01 X10.2915 Y3.0819
G01 X10.2976 Y3.0718
G01 X10.3041 Y3.0620
G01 X10.3111 Y3.0526
G01 X10.3186 Y3.0435
G01 X10.3265 Y3.0348
G01 X10.3391 Y3.0225
G01 X10.3480 Y3.0148
G01 X10.3573 Y3.0075
G01 X10.3669 Y3.0008
G01 X10.3768 Y2.9945
G01 X10.3870 Y2.9887
G01 X10.3976 Y2.9834
G01 X10.4138 Y2.9764
G01 X10.4248 Y2.9725
G01 X10.4361 Y2.9691
G01 X10.4475 Y2.9662
G01 X10.4590 Y2.9639
G01 X10.4765 Y2.9615
G01 X10.4882 Y2.9607
G01 X10.5000 Y2.9604
G00 Z2.0000
G00 X12.9912 Y3.3331
G01 F30.00
G01 Z-0.0400
G01 F80.00
G01 X12.9764 Y3.3495
G01 X12.9661 Y3.3620
G01 X12.8980 Y3.4539
G01 X12.8847 Y3.4743
G01 X12.8309 Y3.5643
G01 X12.8309 Y3.2855
G01 X12.8521 Y3.2973
G01 X12.8670 Y3.3043
G01 X12.8822 Y3.3106
G01 X12.9055 Y3.3187
G01 X12.9293 Y3.3250
G01 X12.9454 Y3.3281
G01 X12.9698 Y3.3314
G01 X12.9912 Y3.3331
G00 Z2.0000
G00 X14.4586 Y3.0488
G01 F30.00
G01 Z-0.0400
G01 F80.00
G01 X14.4829 Y3.0246
G01 X14.5054 Y3.0041
G01 X14.5189 Y2.9928
G01 X14.5529 Y2.9678
G01 X14.5839 Y2.9489
G01 X14.5994 Y2.9404
G01 X14.6376 Y2.9225
G01 X14.6486 Y2.9183
G01 X14.6828 Y2.9064
G01 X14.7180 Y2.8973
G01 X14.7295 Y2.8947
G01 X14.7410 Y2.8927
G01 X14.7770 Y2.8876
G01 X14.7887 Y2.8868
G01 X14.8250 Y2.8853
G01 X16.8946 Y2.8853
G01 X16.9100 Y2.8684
G01 X16.9184 Y2.8600
G01 X16.9461 Y2.8352
G01 X16.9712 Y2.8162
G01 X16.9808 Y2.8095
G01 X17.0126 Y2.7901
G01 X17.0230 Y2.7846
G01 X17.0514 Y2.7712
G01 X17.0622 Y2.7667
G01 X17.0862 Y2.7580
G01 X17.1030 Y2.7527
G01 X17.1278 Y2.7464
G01 X17.1392 Y2.7438
G01 X17.1508 Y2.7418
G01 X17.1819 Y2.7375
G01 X17.2132 Y2.7357
G01 X17.2250 Y2.7354
G01 X17.7750 Y2.7354
G01 X17.7868 Y2.7357
G01 X17.8181 Y2.7375
G01 X17.8550 Y2.7428
G01 X17.8722 Y2.7464
G01 X17.9026 Y2.7543
G01 X17.9378 Y2.7667
G01 X17.9540 Y2.7736
G01 X17.9822 Y2.7873
G01 X18.0093 Y2.8032
G01 X18.0241 Y2.8128
G01 X18.0539 Y2.8352
G01 X18.0816 Y2.8600
G01 X18.0940 Y2.8727
G01 X18.1148 Y2.8961
G01 X18.1338 Y2.9212
G01 X18.1437 Y2.9357
G01 X18.1627 Y2.9678
G01 X18.1764 Y2.9960
G01 X18.1833 Y3.0122
G01 X18.1957 Y3.0474
G01 X18.1988 Y3.0587
G01 X18.2062 Y3.0892
G01 X18.2082 Y3.1008
G01 X18.2125 Y3.1319
G01 X18.2143 Y3.1632
G01 X18.2146 Y3.1750
G01 X18.2145 Y3.5809
G01 X18.2125 Y3.6181
G01 X18.2072 Y3.6550
G01 X18.2049 Y3.6665
G01 X18.1988 Y3.6913
G01 X18.1957 Y3.7026
G01 X18.1920 Y3.7138
G01 X18.1811 Y3.7432
G01 X18.1764 Y3.7540
G01 X18.1627 Y3.7822
G01 X18.1468 Y3.8093
G01 X18.1405 Y3.8192
G01 X18.1185 Y3.8493
G01 X18.1110 Y3.8584
G01 X18.0940 Y3.8773
G01 X18.0859 Y3.8859
G01 X18.0773 Y3.8940
G01 X18.0539 Y3.9148
G01 X18.0446 Y3.9221
G01 X18.0192 Y3.9405
G01 X17.9925 Y3.9569
G01 X17.9822 Y3.9627
G01 X17.9486 Y3.9788
G01 X17.9378 Y3.9833
G01 X17.9138 Y3.9920
G01 X17.9026 Y3.9957
G01 X17.8913 Y3.9988
G01 X17.8665 Y4.0049
G01 X17.8550 Y4.0072
G01 X17.8239 Y4.0118
G01 X17.8122 Y4.0130
G01 X17.7750 Y4.0146
G01 X17.2250 Y4.0146
G01 X17.2132 Y4.0143
G01 X17.1819 Y4.0125
G01 X17.1450 Y4.0072
G01 X17.1335 Y4.0049
G01 X17.1030 Y3.9973
G01 X17.0918 Y3.9939
G01 X17.0677 Y3.9854
G01 X17.0568 Y3.9811
G01 X17.0460 Y3.9764
G01 X17.0230 Y3.9654
G01 X17.0126 Y3.9599
G01 X16.9808 Y3.9405
G01 X16.9554 Y3.9221
G01 X16.9461 Y3.9148
G01 X16.9184 Y3.8900
G01 X16.9100 Y3.8816
G01 X16.8946 Y3.8647
G01 X15.1927 Y3.8647
G01 X15.2132 Y3.9467
G01 X15.2158 Y3.9582
G01 X15.2178 Y3.9698
G01 X15.2322 Y4.0668
G01 X15.2336 Y4.0785
G01 X15.2345 Y4.0902
G01 X15.2393 Y4.1882
G01 X15.2396 Y4.2000
G01 X15.2393 Y4.2118
G01 X15.2345 Y4.3098
G01 X15.2336 Y4.3215
G01 X15.2322 Y4.3332
G01 X15.2178 Y4.4302
G01 X15.2158 Y4.4418
G01 X15.2132 Y4.4533
G01 X15.1894 Y4.5485
G01 X15.1862 Y4.5598
G01 X15.1825 Y4.5710
G01 X15.1495 Y4.6634
G01 X15.1453 Y4.6744
G01 X15.1405 Y4.6851
G01 X15.0985 Y4.7738
G01 X15.0932 Y4.7843
G01 X15.0874 Y4.7946
G01 X15.0370 Y4.8788
G01 X15.0307 Y4.8887
G01 X15.0239 Y4.8983
G01 X14.9655 Y4.9771
G01 X14.9582 Y4.9864
G01 X14.9505 Y4.9953
G01 X14.8846 Y5.0680
G01 X14.8765 Y5.0765
G01 X14.8680 Y5.0846
G01 X14.7953 Y5.1505
G01 X14.7864 Y5.1582
G01 X14.7771 Y5.1655
G01 X14.6983 Y5.2239
G01 X14.6887 Y5.2307
G01 X14.6788 Y5.2370
G01 X14.5946 Y5.2874
G01 X14.5843 Y5.2932
G01 X14.5738 Y5.2985
G01 X14.4851 Y5.3405
G01 X14.4744 Y5.3453
G01 X14.4634 Y5.3495
G01 X14.3710 Y5.3825
G01 X14.3598 Y5.3862
G01 X14.3485 Y5.3894
G01 X14.2533 Y5.4132
G01 X14.2418 Y5.4158
G01 X14.2302 Y5.4178
G01 X14.1332 Y5.4322
G01 X14.1215 Y5.4336
G01 X14.1098 Y5.4345
G01 X14.0118 Y5.4393
G01 X14.0000 Y5.4396
G01 X13.9882 Y5.4393
G01 X13.8902 Y5.4345
G01 X13.8785 Y5.4336
G01 X13.8668 Y5.4322
G01 X13.7698 Y5.4178
G01 X13.7582 Y5.4158
G01 X13.7467 Y5.4132
G01 X13.6515 Y5.3894
G01 X13.6402 Y5.3862
G01 X13.6290 Y5.3825
G01 X13.5366 Y5.3495
G01 X13.5256 Y5.3453
G01 X13.5149 Y5.3405
G01 X13.4262 Y5.2985
G01 X13.4157 Y5.2932
G01 X13.4054 Y5.2874
G01 X13.3212 Y5.2370
G01 X13.3113 Y5.2307
G01 X13.3017 Y5.2239
G01 X13.2229 Y5.1655
G01 X13.2136 Y5.1582
G01 X13.2047 Y5.1505
G01 X13.1320 Y5.0846
G01 X13.1235 Y5.0765
G01 X13.1154 Y5.0680
G01 X13.0495 Y4.9953
G01 X13.0418 Y4.9864
G01 X13.0345 Y4.9771
G01 X12.9761 Y4.8983
G01 X12.9693 Y4.8887
G01 X12.9630 Y4.8788
G01 X12.9126 Y4.7946
G01 X12.9068 Y4.7843
G01 X12.9015 Y4.7738
G01 X12.8595 Y4.6851
G01 X12.8547 Y4.6744
G01 X12.8505 Y4.6634
G01 X12.8175 Y4.5710
G01 X12.8138 Y4.5598
G01 X12.8106 Y4.5485
G01 X12.7868 Y4.4533
G01 X12.7842 Y4.4418
G01 X12.7822 Y4.4302
G01 X12.7678 Y4.3332
G01 X12.7664 Y4.3215
G01 X12.7655 Y4.3098
G01 X12.7607 Y4.2118
G01 X12.7604 Y4.2000
G01 X12.7607 Y4.1882
G01 X12.7655 Y4.0902
G01 X12.7664 Y4.0785
G01 X12.7678 Y4.0668
G01 X12.7822 Y3.9698
G01 X12.7842 Y3.9582
G01 X12.7868 Y3.9467
G01 X12.8106 Y3.8515
G01 X12.8138 Y3.8402
G01 X12.8175 Y3.8290
G01 X12.8505 Y3.7366
G01 X12.8547 Y3.7256
G01 X12.8595 Y3.7149
G01 X12.9015 Y3.6262
G01 X12.9068 Y3.6157
G01 X12.9126 Y3.6054
G01 X12.9630 Y3.5212
G01 X12.9693 Y3.5113
G01 X12.9761 Y3.5017
G01 X13.0345 Y3.4229
G01 X13.0418 Y3.4136
G01 X13.0495 Y3.4047
G01 X13.1154 Y3.3320
G01 X13.1235 Y3.3235
G01 X13.1320 Y3.3154
G01 X13.2047 Y3.2495
G01 X13.2136 Y3.2418
G01 X13.2229 Y3.2345
G01 X13.3017 Y3.1761
G01 X13.3113 Y3.1693
G01 X13.3212 Y3.1630
G01 X13.4054 Y3.1126
G01 X13.4157 Y3.1068
G01 X13.4262 Y3.1015
G01 X13.5149 Y3.0595
G01 X13.5256 Y3.0547
G01 X13.5366 Y3.0505
G01 X13.6290 Y3.0175
G01 X13.6402 Y3.0138
G01 X13.6515 Y3.0106
G01 X13.7467 Y2.9868
G01 X13.7582 Y2.9842
G01 X13.7698 Y2.9822
G01 X13.8668 Y2.9678
G01 X13.8785 Y2.9664
G01 X13.8902 Y2.9655
G01 X13.9882 Y2.9607
G01 X14.0000 Y2.9604
G01 X14.0118 Y2.9607
G01 X14.1098 Y2.9655
G01 X14.1215 Y2.9664
G01 X14.1332 Y2.9678
G01 X14.2302 Y2.9822
G01 X14.2418 Y2.9842
G01 X14.2533 Y2.9868
G01 X14.3485 Y3.0106
G01 X14.3598 Y3.0138
G01 X14.3710 Y3.0175
G01 X14.4586 Y3.0488
G00 Z2.0000
G00 X14.4789 Y3.1576
G01 F30.00
G01 Z-0.0400
G01 F80.00
G01 X14.5459 Y3.0907
G01 X14.5694 Y3.0693
G01 X14.5780 Y3.0625
G01 X14.6006 Y3.0458
G01 X14.6098 Y3.0398
G01 X14.6308 Y3.0272
G01 X14.6437 Y3.0203
G01 X14.6725 Y3.0069
G01 X14.7093 Y2.9937
G01 X14.7473 Y2.9842
G01 X14.7859 Y2.9785
G01 X14.8250 Y2.9765
G01 X16.9388 Y2.9765
G01 X16.9513 Y2.9598
G01 X16.9581 Y2.9512
G01 X16.9737 Y2.9340
G01 X16.9813 Y2.9262
G01 X17.0040 Y2.9057
G01 X17.0255 Y2.8896
G01 X17.0345 Y2.8834
G01 X17.0608 Y2.8678
G01 X17.0917 Y2.8532
G01 X17.1239 Y2.8417
G01 X17.1499 Y2.8350
G01 X17.1606 Y2.8327
G01 X17.1909 Y2.8283
G01 X17.2250 Y2.8267
G01 X17.7750 Y2.8267
G01 X17.8019 Y2.8278
G01 X17.8128 Y2.8287
G01 X17.8430 Y2.8334
G01 X17.8691 Y2.8397
G01 X17.8796 Y2.8428
G01 X17.9083 Y2.8532
G01 X17.9360 Y2.8661
G01 X17.9455 Y2.8714
G01 X17.9685 Y2.8854
G01 X17.9902 Y2.9013
G01 X17.9988 Y2.9081
G01 X18.0213 Y2.9287
G01 X18.0419 Y2.9512
G01 X18.0487 Y2.9598
G01 X18.0646 Y2.9815
G01 X18.0804 Y3.0076
G01 X18.0855 Y3.0173
G01 X18.0954 Y3.0384
G01 X18.0982 Y3.0451
G01 X18.1083 Y3.0739
G01 X18.1166 Y3.1070
G01 X18.1217 Y3.1409
G01 X18.1232 Y3.1677
G01 X18.1233 Y3.5750
G01 X18.1222 Y3.6019
G01 X18.1213 Y3.6128
G01 X18.1166 Y3.6430
G01 X18.1083 Y3.6761
G01 X18.0968 Y3.7083
G01 X18.0855 Y3.7327
G01 X18.0804 Y3.7424
G01 X18.0685 Y3.7624
G01 X18.0604 Y3.7745
G01 X18.0465 Y3.7931
G01 X18.0419 Y3.7988
G01 X18.0263 Y3.8160
G01 X18.0187 Y3.8238
G01 X17.9960 Y3.8443
G01 X17.9685 Y3.8646
G01 X17.9392 Y3.8822
G01 X17.9116 Y3.8954
G01 X17.9015 Y3.8994
G01 X17.8796 Y3.9072
G01 X17.8726 Y3.9093
G01 X17.8501 Y3.9150
G01 X17.8358 Y3.9179
G01 X17.8128 Y3.9213
G01 X17.8019 Y3.9222
G01 X17.7750 Y3.9233
G01 X17.2250 Y3.9233
G01 X17.1909 Y3.9217
G01 X17.1606 Y3.9173
G01 X17.1499 Y3.9150
G01 X17.1239 Y3.9083
G01 X17.0917 Y3.8968
G01 X17.0608 Y3.8822
G01 X17.0345 Y3.8666
G01 X17.0255 Y3.8604
G01 X17.0040 Y3.8443
G01 X16.9813 Y3.8238
G01 X16.9737 Y3.8160
G01 X16.9581 Y3.7988
G01 X16.9513 Y3.7902
G01 X16.9388 Y3.7735
G01 X15.0657 Y3.7735
G01 X15.0989 Y3.8667
G01 X15.1247 Y3.9689
G01 X15.1275 Y3.9831
G01 X15.1428 Y4.0874
G01 X15.1482 Y4.1927
G01 X15.1482 Y4.2073
G01 X15.1428 Y4.3126
G01 X15.1263 Y4.4240
G01 X15.0989 Y4.5333
G01 X15.0635 Y4.6327
G01 X15.0580 Y4.6461
G01 X15.0127 Y4.7413
G01 X14.9587 Y4.8318
G01 X14.9506 Y4.8439
G01 X14.8877 Y4.9285
G01 X14.8120 Y5.0120
G01 X14.7285 Y5.0877
G01 X14.6439 Y5.1506
G01 X14.6318 Y5.1587
G01 X14.5413 Y5.2127
G01 X14.4394 Y5.2609
G01 X14.3403 Y5.2966
G01 X14.3263 Y5.3008
G01 X14.2240 Y5.3263
G01 X14.1126 Y5.3428
G01 X14.0073 Y5.3482
G01 X13.9927 Y5.3482
G01 X13.8874 Y5.3428
G01 X13.7760 Y5.3263
G01 X13.6737 Y5.3008
G01 X13.6597 Y5.2966
G01 X13.5673 Y5.2635
G01 X13.5572 Y5.2595
G01 X13.4587 Y5.2127
G01 X13.3620 Y5.1548
G01 X13.2715 Y5.0877
G01 X13.1880 Y5.0120
G01 X13.1123 Y4.9285
G01 X13.0452 Y4.8380
G01 X12.9873 Y4.7413
G01 X12.9391 Y4.6394
G01 X12.9011 Y4.5333
G01 X12.8737 Y4.4240
G01 X12.8572 Y4.3126
G01 X12.8517 Y4.2000
G01 X12.8572 Y4.0874
G01 X12.8737 Y3.9760
G01 X12.9011 Y3.8667
G01 X12.9365 Y3.7673
G01 X12.9405 Y3.7572
G01 X12.9873 Y3.6587
G01 X13.0452 Y3.5620
G01 X13.1123 Y3.4715
G01 X13.1880 Y3.3880
G01 X13.2715 Y3.3123
G01 X13.3620 Y3.2452
G01 X13.4587 Y3.1873
G01 X13.5539 Y3.1420
G01 X13.5639 Y3.1377
G01 X13.6667 Y3.1011
G01 X13.7760 Y3.0737
G01 X13.8874 Y3.0572
G01 X13.9927 Y3.0518
G01 X14.0036 Y3.0517
G01 X14.1126 Y3.0572
G01 X14.2169 Y3.0725
G01 X14.2276 Y3.0745
G01 X14.3263 Y3.0992
G01 X14.3368 Y3.1022
G01 X14.4361 Y3.1377
G01 X14.4461 Y3.1420
G01 X14.4789 Y3.1576
G00 Z2.0000
G00 X14.4980 Y3.2676
G01 F30.00
G01 Z-0.0400
G01 F80.00
G01 X14.6088 Y3.1568
G01 X14.6301 Y3.1376
G01 X14.6543 Y3.1196
G01 X14.6802 Y3.1041
G01 X14.7101 Y3.0902
G01 X14.7358 Y3.0811
G01 X14.7623 Y3.0743
G01 X14.7949 Y3.0693
G01 X14.8250 Y3.0678
G01 X16.9916 Y3.0678
G01 X16.9983 Y3.0538
G01 X17.0105 Y3.0334
G01 X17.0254 Y3.0130
G01 X17.0432 Y2.9932
G01 X17.0630 Y2.9754
G01 X17.0846 Y2.9598
G01 X17.1038 Y2.9483
G01 X17.1241 Y2.9387
G01 X17.1504 Y2.9290
G01 X17.1762 Y2.9226
G01 X17.1998 Y2.9192
G01 X17.2250 Y2.9180
G01 X17.7750 Y2.9180
G01 X17.8002 Y2.9192
G01 X17.8251 Y2.9229
G01 X17.8469 Y2.9283
G01 X17.8734 Y2.9375
G01 X17.8986 Y2.9497
G01 X17.9178 Y2.9613
G01 X17.9381 Y2.9763
G01 X17.9587 Y2.9953
G01 X17.9737 Y3.0119
G01 X17.9887 Y3.0322
G01 X18.0030 Y3.0563
G01 X18.0125 Y3.0766
G01 X18.0206 Y3.0990
G01 X18.0265 Y3.1221
G01 X18.0276 Y3.1276
G01 X18.0308 Y3.1498
G01 X18.0320 Y3.1736
G01 X18.0320 Y3.5750
G01 X18.0308 Y3.6002
G01 X18.0271 Y3.6251
G01 X18.0210 Y3.6496
G01 X18.0125 Y3.6734
G01 X18.0030 Y3.6937
G01 X17.9887 Y3.7178
G01 X17.9754 Y3.7359
G01 X17.9719 Y3.7402
G01 X17.9547 Y3.7587
G01 X17.9381 Y3.7737
G01 X17.9178 Y3.7887
G01 X17.8962 Y3.8017
G01 X17.8734 Y3.8125
G01 X17.8496 Y3.8210
G01 X17.8251 Y3.8271
G01 X17.8002 Y3.8308
G01 X17.7764 Y3.8320
G01 X17.2250 Y3.8320
G01 X17.1998 Y3.8308
G01 X17.1749 Y3.8271
G01 X17.1504 Y3.8210
G01 X17.1241 Y3.8113
G01 X17.1038 Y3.8017
G01 X17.0846 Y3.7902
G01 X17.0630 Y3.7746
G01 X17.0432 Y3.7568
G01 X17.0254 Y3.7370
G01 X17.0105 Y3.7166
G01 X16.9983 Y3.6962
G01 X16.9916 Y3.6822
G01 X14.9522 Y3.6822
G01 X14.9324 Y3.7020
G01 X14.9766 Y3.7955
G01 X15.0115 Y3.8932
G01 X15.0367 Y3.9938
G01 X15.0518 Y4.0950
G01 X15.0570 Y4.1972
G01 X15.0570 Y4.2028
G01 X15.0520 Y4.3036
G01 X15.0370 Y4.4048
G01 X15.0123 Y4.5041
G01 X15.0107 Y4.5095
G01 X14.9766 Y4.6045
G01 X14.9322 Y4.6983
G01 X14.8804 Y4.7849
G01 X14.8773 Y4.7896
G01 X14.8171 Y4.8706
G01 X14.7474 Y4.9474
G01 X14.6727 Y5.0153
G01 X14.6684 Y5.0188
G01 X14.5873 Y5.0789
G01 X14.4983 Y5.1322
G01 X14.4045 Y5.1766
G01 X14.3095 Y5.2107
G01 X14.3041 Y5.2123
G01 X14.2090 Y5.2361
G01 X14.2035 Y5.2372
G01 X14.1036 Y5.2520
G01 X14.0000 Y5.2570
G01 X13.8964 Y5.2520
G01 X13.7965 Y5.2372
G01 X13.7910 Y5.2361
G01 X13.6959 Y5.2123
G01 X13.6905 Y5.2107
G01 X13.5955 Y5.1766
G01 X13.5017 Y5.1322
G01 X13.4127 Y5.0789
G01 X13.3294 Y5.0171
G01 X13.2526 Y4.9474
G01 X13.1829 Y4.8706
G01 X13.1211 Y4.7873
G01 X13.0678 Y4.6983
G01 X13.0234 Y4.6045
G01 X12.9885 Y4.5068
G01 X12.9633 Y4.4062
G01 X12.9480 Y4.3036
G01 X12.9430 Y4.2000
G01 X12.9480 Y4.0964
G01 X12.9633 Y3.9938
G01 X12.9885 Y3.8932
G01 X13.0234 Y3.7955
G01 X13.0678 Y3.7017
G01 X13.1211 Y3.6127
G01 X13.1829 Y3.5294
G01 X13.2526 Y3.4526
G01 X13.3294 Y3.3829
G01 X13.4127 Y3.3211
G01 X13.5017 Y3.2678
G01 X13.5955 Y3.2234
G01 X13.6932 Y3.1885
G01 X13.7938 Y3.1633
G01 X13.8964 Y3.1480
G01 X14.0000 Y3.1430
G01 X14.1036 Y3.1480
G01 X14.2062 Y3.1633
G01 X14.3068 Y3.1885
G01 X14.4045 Y3.2234
G01 X14.4980 Y3.2676
G00 Z2.0000
G00 X13.5857 Y5.4640
G01 F30.00
G01 Z-0.0400
G01 F80.00
G01 X13.6059 Y5.4711
G01 X13.6293 Y5.4779
G01 X13.7245 Y5.5018
G01 X13.7483 Y5.5068
G01 X13.8534 Y5.5225
G01 X13.8695 Y5.5245
G01 X13.8857 Y5.5257
G01 X13.9838 Y5.5305
G01 X14.0000 Y5.5309
G01 X14.0162 Y5.5305
G01 X14.1143 Y5.5257
G01 X14.1305 Y5.5245
G01 X14.1466 Y5.5225
G01 X14.2436 Y5.5081
G01 X14.2596 Y5.5053
G01 X14.2755 Y5.5018
G01 X14.3707 Y5.4779
G01 X14.3863 Y5.4736
G01 X14.3995 Y5.4693
G01 X14.3855 Y5.5258
G01 X14.3805 Y5.5499
G01 X14.3773 Y5.5743
G01 X14.3762 Y5.5907
G01 X14.3758 Y5.6072
G01 X14.3763 Y5.6236
G01 X14.3777 Y5.6400
G01 X14.3798 Y5.6563
G01 X14.3827 Y5.6724
G01 X14.3886 Y5.6964
G01 X14.3999 Y5.7309
G01 X14.3863 Y5.7264
G01 X14.3707 Y5.7221
G01 X14.2755 Y5.6982
G01 X14.2596 Y5.6947
G01 X14.2436 Y5.6919
G01 X14.1466 Y5.6775
G01 X14.1224 Y5.6748
G01 X14.0162 Y5.6695
G01 X13.9919 Y5.6692
G01 X13.8776 Y5.6748
G01 X13.8615 Y5.6764
G01 X13.8062 Y5.6845
G01 X13.5857 Y5.4640
G00 Z2.0000
G00 X12.8115 Y7.5970
G01 F30.00
G01 Z-0.0400
G01 F80.00
G01 X12.7537 Y7.5921
G01 X12.7373 Y7.5911
G01 X12.7126 Y7.5911
G01 X12.6906 Y7.5927
G01 X12.7230 Y7.5242
G01 X12.7296 Y7.5093
G01 X12.7354 Y7.4942
G01 X12.7500 Y7.4534
G01 X12.7646 Y7.4942
G01 X12.7704 Y7.5093
G01 X12.7770 Y7.5242
G01 X12.8115 Y7.5970
G00 Z2.0000
G00 X13.4076 Y8.2181
G01 F30.00
G01 Z-0.0400
G01 F80.00
G01 X13.4055 Y8.1898
G01 X13.4190 Y8.1961
G01 X13.4190 Y8.2066
G01 X13.4076 Y8.2181
G00 Z2.0000
G00 X12.9094 Y10.3596
G01 F30.00
G01 Z-0.0400
G01 F80.00
G01 X12.9125 Y10.4011
G01 X12.9145 Y10.4174
G01 X12.9173 Y10.4336
G01 X12.9209 Y10.4497
G01 X12.9253 Y10.4655
G01 X12.9304 Y10.4811
G01 X12.9364 Y10.4964
G01 X12.9467 Y10.5188
G01 X12.9544 Y10.5333
G01 X12.9629 Y10.5474
G01 X12.9770 Y10.5676
G01 X13.0199 Y10.6249
G01 X12.9947 Y10.6288
G01 X12.9787 Y10.6320
G01 X12.9470 Y10.6398
G01 X12.9314 Y10.6441
G01 X12.9160 Y10.6492
G01 X12.8777 Y10.6633
G01 X12.8629 Y10.6699
G01 X12.8334 Y10.6840
G01 X12.8191 Y10.6916
G01 X12.7841 Y10.7126
G01 X12.7706 Y10.7216
G01 X12.7443 Y10.7410
G01 X12.7315 Y10.7510
G01 X12.7192 Y10.7616
G01 X12.6951 Y10.7836
G01 X12.6836 Y10.7951
G01 X12.6616 Y10.8192
G01 X12.6510 Y10.8315
G01 X12.6264 Y10.8640
G01 X12.6170 Y10.8773
G01 X12.5957 Y10.9120
G01 X12.5877 Y10.9262
G01 X12.5699 Y10.9629
G01 X12.5633 Y10.9777
G01 X12.5575 Y10.9929
G01 X12.5466 Y11.0236
G01 X12.5419 Y11.0392
G01 X12.5338 Y11.0708
G01 X12.5303 Y11.0867
G01 X12.5275 Y11.1027
G01 X12.5228 Y11.1350
G01 X12.5207 Y11.1593
G01 X12.5191 Y11.2000
G01 X12.5191 Y13.7000
G01 X12.5207 Y13.7407
G01 X12.5222 Y13.7596
G01 X12.5054 Y13.7551
G01 X12.4893 Y13.7516
G01 X12.4123 Y13.7390
G01 X12.3878 Y13.7359
G01 X12.3714 Y13.7349
G01 X12.3468 Y13.7349
G01 X12.3222 Y13.7368
G01 X12.2978 Y13.7404
G01 X12.2738 Y13.7459
G01 X12.2580 Y13.7505
G01 X12.2425 Y13.7559
G01 X12.2273 Y13.7621
G01 X12.1557 Y13.7933
G01 X12.1410 Y13.8006
G01 X12.1196 Y13.8129
G01 X12.0992 Y13.8267
G01 X12.0809 Y13.8412
G01 X12.0809 Y12.2000
G01 X12.0805 Y12.1838
G01 X12.0781 Y12.1431
G01 X12.0725 Y12.1027
G01 X12.0697 Y12.0867
G01 X12.0602 Y12.0470
G01 X12.0534 Y12.0236
G01 X12.0397 Y11.9852
G01 X12.0335 Y11.9702
G01 X12.0160 Y11.9334
G01 X12.0043 Y11.9120
G01 X11.9874 Y11.8841
G01 X11.9736 Y11.8640
G01 X11.9490 Y11.8315
G01 X11.9219 Y11.8010
G01 X11.9049 Y11.7836
G01 X11.8747 Y11.7562
G01 X11.8622 Y11.7459
G01 X11.8310 Y11.7228
G01 X11.8310 Y11.4380
G01 X12.9094 Y10.3596
G00 Z2.0000
G00 X14.5983 Y12.0515
G01 F30.00
G01 Z-0.0400
G01 F80.00
G01 X14.5983 Y11.1964
G01 X14.5964 Y11.1610
G01 X14.5907 Y11.1223
G01 X14.5812 Y11.0844
G01 X14.5694 Y11.0509
G01 X14.5651 Y11.0409
G01 X14.5513 Y11.0122
G01 X14.5332 Y10.9818
G01 X14.5270 Y10.9727
G01 X14.5102 Y10.9501
G01 X14.5032 Y10.9418
G01 X14.4867 Y10.9236
G01 X14.4791 Y10.9158
G01 X14.4555 Y10.8944
G01 X14.4470 Y10.8876
G01 X14.4273 Y10.8730
G01 X14.4151 Y10.8649
G01 X14.3910 Y10.8505
G01 X14.3813 Y10.8454
G01 X14.3524 Y10.8320
G01 X14.3156 Y10.8188
G01 X14.2777 Y10.8093
G01 X14.2427 Y10.8040
G01 X14.2318 Y10.8031
G01 X14.2000 Y10.8017
G01 X14.0483 Y10.8017
G01 X14.0483 Y10.5983
G01 X14.2424 Y10.5983
G01 X14.3215 Y10.6064
G01 X14.4560 Y10.6510
G01 X14.5757 Y10.7248
G01 X14.6752 Y10.8243
G01 X14.7490 Y10.9440
G01 X14.7936 Y11.0785
G01 X14.8017 Y11.1576
G01 X14.8017 Y12.0515
G01 X14.5983 Y12.0515
G00 Z2.0000
G00 X14.6896 Y11.9603
G01 F30.00
G01 Z-0.0400
G01 F80.00
G01 X14.6896 Y11.2000
G01 X14.6893 Y11.1882
G01 X14.6878 Y11.1579
G01 X14.6866 Y11.1462
G01 X14.6822 Y11.1161
G01 X14.6790 Y11.0987
G01 X14.6685 Y11.0579
G01 X14.6566 Y11.0236
G01 X14.6500 Y11.0072
G01 X14.6318 Y10.9692
G01 X14.6134 Y10.9379
G01 X14.6038 Y10.9231
G01 X14.5785 Y10.8894
G01 X14.5543 Y10.8623
G01 X14.5462 Y10.8538
G01 X14.5195 Y10.8292
G01 X14.5106 Y10.8215
G01 X14.5013 Y10.8143
G01 X14.4769 Y10.7962
G01 X14.4671 Y10.7897
G01 X14.4308 Y10.7682
G01 X14.4203 Y10.7629
G01 X14.3874 Y10.7477
G01 X14.3764 Y10.7434
G01 X14.3421 Y10.7315
G01 X14.3070 Y10.7224
G01 X14.2955 Y10.7198
G01 X14.2839 Y10.7178
G01 X14.2538 Y10.7134
G01 X14.2421 Y10.7122
G01 X14.2059 Y10.7105
G01 X14.1396 Y10.7104
G01 X14.1396 Y10.6896
G01 X14.2378 Y10.6896
G01 X14.3022 Y10.6962
G01 X14.4172 Y10.7343
G01 X14.5187 Y10.7969
G01 X14.6031 Y10.8813
G01 X14.6657 Y10.9828
G01 X14.7038 Y11.0978
G01 X14.7104 Y11.1622
G01 X14.7104 Y11.9603
G01 X14.6896 Y11.9603
G00 Z2.0000
G00 X14.5070 Y12.1428
G01 F30.00
G01 Z-0.0400
G01 F80.00
G01 X14.5070 Y11.1986
G01 X14.5056 Y11.1699
G01 X14.5016 Y11.1429
G01 X14.5005 Y11.1374
G01 X14.4934 Y11.1095
G01 X14.4837 Y11.0825
G01 X14.4694 Y11.0528
G01 X14.4537 Y11.0271
G01 X14.4374 Y11.0052
G01 X14.4190 Y10.9849
G01 X14.3948 Y10.9626
G01 X14.3706 Y10.9447
G01 X14.3447 Y10.9292
G01 X14.3175 Y10.9163
G01 X14.2891 Y10.9062
G01 X14.2626 Y10.8995
G01 X14.2571 Y10.8984
G01 X14.2287 Y10.8943
G01 X14.2000 Y10.8930
G01 X13.9570 Y10.8930
G01 X13.9570 Y10.5071
G01 X14.2471 Y10.5071
G01 X14.3407 Y10.5166
G01 X14.4948 Y10.5677
G01 X14.6327 Y10.6527
G01 X14.7473 Y10.7673
G01 X14.8323 Y10.9052
G01 X14.8834 Y11.0593
G01 X14.8929 Y11.1529
G01 X14.8930 Y12.1428
G01 X14.5070 Y12.1428
G00 Z2.0000
G00 X14.8929 Y12.7572
G01 F30.00
G01 Z-0.0400
G01 F80.00
G01 X14.8929 Y13.7471
G01 X14.8834 Y13.8407
G01 X14.8323 Y13.9948
G01 X14.7473 Y14.1327
G01 X14.6327 Y14.2473
G01 X14.4948 Y14.3323
G01 X14.3407 Y14.3834
G01 X14.2471 Y14.3930
G01 X13.9572 Y14.3930
G01 X13.9572 Y14.0070
G01 X14.2000 Y14.0070
G01 X14.2287 Y14.0057
G01 X14.2571 Y14.0016
G01 X14.2626 Y14.0005
G01 X14.2891 Y13.9938
G01 X14.3175 Y13.9837
G01 X14.3447 Y13.9708
G01 X14.3706 Y13.9553
G01 X14.3948 Y13.9374
G01 X14.4190 Y13.9151
G01 X14.4374 Y13.8948
G01 X14.4537 Y13.8729
G01 X14.4694 Y13.8472
G01 X14.4837 Y13.8175
G01 X14.4934 Y13.7905
G01 X14.5005 Y13.7626
G01 X14.5016 Y13.7571
G01 X14.5056 Y13.7301
G01 X14.5070 Y13.7014
G01 X14.5070 Y12.7572
G01 X14.8929 Y12.7572
G00 Z2.0000
G00 X14.8017 Y12.8485
G01 F30.00
G01 Z-0.0400
G01 F80.00
G01 X14.8017 Y13.7424
G01 X14.7936 Y13.8215
G01 X14.7490 Y13.9560
G01 X14.6752 Y14.0757
G01 X14.5757 Y14.1752
G01 X14.4560 Y14.2490
G01 X14.3215 Y14.2936
G01 X14.2424 Y14.3017
G01 X14.0485 Y14.3017
G01 X14.0485 Y14.0983
G01 X14.2000 Y14.0983
G01 X14.2390 Y14.0964
G01 X14.2777 Y14.0907
G01 X14.3086 Y14.0831
G01 X14.3225 Y14.0789
G01 X14.3524 Y14.0680
G01 X14.3878 Y14.0513
G01 X14.4213 Y14.0312
G01 X14.4527 Y14.0079
G01 X14.4764 Y13.9867
G01 X14.4867 Y13.9764
G01 X14.5056 Y13.9555
G01 X14.5124 Y13.9470
G01 X14.5270 Y13.9273
G01 X14.5332 Y13.9182
G01 X14.5477 Y13.8941
G01 X14.5530 Y13.8845
G01 X14.5651 Y13.8591
G01 X14.5694 Y13.8491
G01 X14.5801 Y13.8191
G01 X14.5831 Y13.8086
G01 X14.5907 Y13.7777
G01 X14.5955 Y13.7463
G01 X14.5967 Y13.7354
G01 X14.5982 Y13.7073
G01 X14.5983 Y12.8485
G01 X14.8017 Y12.8485
G00 Z2.0000
G00 X14.7104 Y12.9397
G01 F30.00
G01 Z-0.0400
G01 F80.00
G01 X14.7104 Y13.7378
G01 X14.7038 Y13.8022
G01 X14.6657 Y13.9172
G01 X14.6031 Y14.0187
G01 X14.5187 Y14.1031
G01 X14.4172 Y14.1657
G01 X14.3022 Y14.2038
G01 X14.2378 Y14.2104
G01 X14.1397 Y14.2104
G01 X14.1397 Y14.1896
G01 X14.2059 Y14.1895
G01 X14.2421 Y14.1878
G01 X14.2538 Y14.1866
G01 X14.2839 Y14.1822
G01 X14.2955 Y14.1802
G01 X14.3070 Y14.1776
G01 X14.3421 Y14.1685
G01 X14.3764 Y14.1566
G01 X14.3874 Y14.1523
G01 X14.4203 Y14.1371
G01 X14.4308 Y14.1318
G01 X14.4671 Y14.1103
G01 X14.4769 Y14.1038
G01 X14.5013 Y14.0857
G01 X14.5106 Y14.0785
G01 X14.5195 Y14.0708
G01 X14.5462 Y14.0462
G01 X14.5543 Y14.0377
G01 X14.5785 Y14.0106
G01 X14.6038 Y13.9769
G01 X14.6134 Y13.9621
G01 X14.6318 Y13.9308
G01 X14.6500 Y13.8928
G01 X14.6545 Y13.8819
G01 X14.6648 Y13.8533
G01 X14.6685 Y13.8421
G01 X14.6717 Y13.8308
G01 X14.6790 Y13.8013
G01 X14.6813 Y13.7897
G01 X14.6858 Y13.7597
G01 X14.6878 Y13.7421
G01 X14.6896 Y13.7000
G01 X14.6896 Y12.9397
G01 X14.7104 Y12.9397
G00 Z2.0000
G00 X10.4201 Y17.2280
G01 F30.00
G01 Z-0.0400
G01 F80.00
G01 X10.4043 Y17.2225
G01 X10.3886 Y17.2178
G01 X10.3726 Y17.2140
G01 X10.3564 Y17.2110
G01 X10.2875 Y17.1997
G01 X10.2712 Y17.1975
G01 X10.2466 Y17.1957
G01 X10.2302 Y17.1955
G01 X10.2138 Y17.1961
G01 X10.1892 Y17.1985
G01 X10.1730 Y17.2012
G01 X10.1570 Y17.2046
G01 X10.1332 Y17.2113
G01 X10.1177 Y17.2167
G01 X10.0797 Y17.2328
G01 X10.0809 Y17.2000
G01 X10.0809 Y12.2000
G01 X10.0799 Y12.1723
G01 X10.1029 Y12.1799
G01 X10.1188 Y12.1842
G01 X10.1349 Y12.1876
G01 X10.1623 Y12.1922
G01 X10.1976 Y12.2000
G01 X10.2138 Y12.2025
G01 X10.2301 Y12.2043
G01 X10.2465 Y12.2052
G01 X10.2630 Y12.2053
G01 X10.2794 Y12.2045
G01 X10.3021 Y12.2025
G01 X10.3183 Y12.2002
G01 X10.3425 Y12.1954
G01 X10.3583 Y12.1911
G01 X10.3740 Y12.1861
G01 X10.3894 Y12.1803
G01 X10.4149 Y12.1693
G01 X10.4203 Y12.1674
G01 X10.4191 Y12.2000
G01 X10.4191 Y17.2000
G01 X10.4201 Y17.2280
G00 Z2.0000
G00 X6.4191 Y13.8478
G01 F30.00
G01 Z-0.0400
G01 F80.00
G01 X6.3874 Y13.8205
G01 X6.3745 Y13.8103
G01 X6.3542 Y13.7964
G01 X6.3329 Y13.7839
G01 X6.3107 Y13.7732
G01 X6.2878 Y13.7640
G01 X6.2643 Y13.7567
G01 X6.2403 Y13.7510
G01 X6.2241 Y13.7483
G01 X6.1468 Y13.7373
G01 X6.1222 Y13.7353
G01 X6.0976 Y13.7352
G01 X6.0812 Y13.7361
G01 X6.0648 Y13.7378
G01 X6.0486 Y13.7403
G01 X6.0325 Y13.7437
G01 X6.0166 Y13.7478
G01 X6.0009 Y13.7527
G01 X5.9776 Y13.7617
G01 X5.9793 Y13.7407
G01 X5.9809 Y13.7000
G01 X5.9809 Y12.0563
G01 X5.9887 Y12.0635
G01 X6.0011 Y12.0742
G01 X6.0142 Y12.0842
G01 X6.0276 Y12.0936
G01 X6.0487 Y12.1064
G01 X6.0739 Y12.1197
G01 X6.0888 Y12.1267
G01 X6.1117 Y12.1358
G01 X6.1352 Y12.1432
G01 X6.1592 Y12.1488
G01 X6.1839 Y12.1528
G01 X6.2002 Y12.1570
G01 X6.2163 Y12.1604
G01 X6.2325 Y12.1631
G01 X6.2488 Y12.1649
G01 X6.2735 Y12.1661
G01 X6.2981 Y12.1654
G01 X6.3265 Y12.1630
G01 X6.3509 Y12.1595
G01 X6.3750 Y12.1542
G01 X6.3986 Y12.1471
G01 X6.4225 Y12.1379
G01 X6.4207 Y12.1593
G01 X6.4191 Y12.2000
G01 X6.4191 Y13.8478
G00 Z2.0000
G00 X8.0799 Y12.1722
G01 F30.00
G01 Z-0.0400
G01 F80.00
G01 X8.1017 Y12.1805
G01 X8.1173 Y12.1855
G01 X8.1332 Y12.1896
G01 X8.1493 Y12.1930
G01 X8.1737 Y12.1965
G01 X8.2014 Y12.1984
G01 X8.2206 Y12.2015
G01 X8.2370 Y12.2033
G01 X8.2534 Y12.2043
G01 X8.2698 Y12.2045
G01 X8.2944 Y12.2033
G01 X8.3108 Y12.2015
G01 X8.3270 Y12.1988
G01 X8.3497 Y12.1945
G01 X8.3735 Y12.1883
G01 X8.3892 Y12.1832
G01 X8.4045 Y12.1773
G01 X8.4202 Y12.1704
G01 X8.4191 Y12.2000
G01 X8.4191 Y17.2000
G01 X8.4201 Y17.2277
G01 X8.4049 Y17.2225
G01 X8.3892 Y17.2178
G01 X8.3732 Y17.2140
G01 X8.3570 Y17.2110
G01 X8.2881 Y17.1997
G01 X8.2718 Y17.1975
G01 X8.2554 Y17.1961
G01 X8.2308 Y17.1955
G01 X8.2143 Y17.1961
G01 X8.1898 Y17.1985
G01 X8.1736 Y17.2012
G01 X8.1575 Y17.2046
G01 X8.1338 Y17.2113
G01 X8.1183 Y17.2167
G01 X8.0797 Y17.2330
G01 X8.0809 Y17.2000
G01 X8.0809 Y12.2000
G01 X8.0799 Y12.1722
G00 Z2.0000
G00 X6.7603 Y9.7383
G01 F30.00
G01 Z-0.0400
G01 F80.00
G01 X6.6762 Y9.6985
G01 X6.6657 Y9.6932
G01 X6.6554 Y9.6874
G01 X6.5712 Y9.6370
G01 X6.5613 Y9.6307
G01 X6.5517 Y9.6239
G01 X6.4729 Y9.5655
G01 X6.4636 Y9.5582
G01 X6.4547 Y9.5505
G01 X6.3820 Y9.4846
G01 X6.3735 Y9.4765
G01 X6.3654 Y9.4680
G01 X6.2995 Y9.3953
G01 X6.2918 Y9.3864
G01 X6.2845 Y9.3771
G01 X6.2261 Y9.2983
G01 X6.2193 Y9.2887
G01 X6.2130 Y9.2788
G01 X6.1626 Y9.1946
G01 X6.1568 Y9.1843
G01 X6.1515 Y9.1738
G01 X6.1095 Y9.0851
G01 X6.1047 Y9.0744
G01 X6.1005 Y9.0634
G01 X6.0675 Y8.9710
G01 X6.0638 Y8.9598
G01 X6.0606 Y8.9485
G01 X6.0368 Y8.8533
G01 X6.0342 Y8.8418
G01 X6.0322 Y8.8302
G01 X6.0178 Y8.7332
G01 X6.0164 Y8.7215
G01 X6.0155 Y8.7098
G01 X6.0107 Y8.6118
G01 X6.0104 Y8.6000
G01 X6.0107 Y8.5882
G01 X6.0155 Y8.4902
G01 X6.0164 Y8.4785
G01 X6.0178 Y8.4668
G01 X6.0322 Y8.3698
G01 X6.0342 Y8.3582
G01 X6.0368 Y8.3467
G01 X6.0606 Y8.2515
G01 X6.0638 Y8.2402
G01 X6.0675 Y8.2290
G01 X6.1005 Y8.1366
G01 X6.1047 Y8.1256
G01 X6.1095 Y8.1149
G01 X6.1515 Y8.0262
G01 X6.1568 Y8.0157
G01 X6.1626 Y8.0054
G01 X6.2130 Y7.9212
G01 X6.2193 Y7.9113
G01 X6.2261 Y7.9017
G01 X6.2845 Y7.8229
G01 X6.2918 Y7.8136
G01 X6.2995 Y7.8047
G01 X6.3654 Y7.7320
G01 X6.3735 Y7.7235
G01 X6.3820 Y7.7154
G01 X6.4547 Y7.6495
G01 X6.4636 Y7.6418
G01 X6.4729 Y7.6345
G01 X6.5517 Y7.5761
G01 X6.5613 Y7.5693
G01 X6.5712 Y7.5630
G01 X6.6605 Y7.5096
G01 X6.6762 Y7.5015
G01 X6.7649 Y7.4595
G01 X6.7756 Y7.4547
G01 X6.7866 Y7.4505
G01 X6.8790 Y7.4175
G01 X6.8902 Y7.4138
G01 X6.9015 Y7.4106
G01 X6.9967 Y7.3868
G01 X7.0082 Y7.3842
G01 X7.0198 Y7.3822
G01 X7.1168 Y7.3678
G01 X7.1285 Y7.3664
G01 X7.1402 Y7.3655
G01 X7.2382 Y7.3607
G01 X7.2500 Y7.3604
G01 X7.2618 Y7.3607
G01 X7.3598 Y7.3655
G01 X7.3715 Y7.3664
G01 X7.3832 Y7.3678
G01 X7.4802 Y7.3822
G01 X7.4918 Y7.3842
G01 X7.5033 Y7.3868
G01 X7.5985 Y7.4106
G01 X7.6098 Y7.4138
G01 X7.6210 Y7.4175
G01 X7.7134 Y7.4505
G01 X7.7244 Y7.4547
G01 X7.7351 Y7.4595
G01 X7.8238 Y7.5015
G01 X7.8343 Y7.5068
G01 X7.8446 Y7.5126
G01 X7.9288 Y7.5630
G01 X7.9387 Y7.5693
G01 X7.9483 Y7.5761
G01 X8.0271 Y7.6345
G01 X8.0364 Y7.6418
G01 X8.0453 Y7.6495
G01 X8.1180 Y7.7154
G01 X8.1265 Y7.7235
G01 X8.1346 Y7.7320
G01 X8.2005 Y7.8047
G01 X8.2082 Y7.8136
G01 X8.2155 Y7.8229
G01 X8.2739 Y7.9017
G01 X8.2807 Y7.9113
G01 X8.2870 Y7.9212
G01 X8.3374 Y8.0054
G01 X8.3432 Y8.0157
G01 X8.3485 Y8.0262
G01 X8.3883 Y8.1103
G01 X9.6971 Y8.1103
G01 X10.3488 Y7.4586
G01 X10.3175 Y7.3710
G01 X10.3138 Y7.3598
G01 X10.3106 Y7.3485
G01 X10.2868 Y7.2533
G01 X10.2842 Y7.2418
G01 X10.2822 Y7.2302
G01 X10.2678 Y7.1332
G01 X10.2664 Y7.1215
G01 X10.2655 Y7.1098
G01 X10.2607 Y7.0118
G01 X10.2604 Y7.0000
G01 X10.2607 Y6.9882
G01 X10.2655 Y6.8902
G01 X10.2664 Y6.8785
G01 X10.2678 Y6.8668
G01 X10.2822 Y6.7698
G01 X10.2842 Y6.7582
G01 X10.2868 Y6.7467
G01 X10.3106 Y6.6515
G01 X10.3138 Y6.6402
G01 X10.3175 Y6.6290
G01 X10.3505 Y6.5366
G01 X10.3547 Y6.5256
G01 X10.3595 Y6.5149
G01 X10.4015 Y6.4262
G01 X10.4068 Y6.4157
G01 X10.4126 Y6.4054
G01 X10.4630 Y6.3212
G01 X10.4693 Y6.3113
G01 X10.4761 Y6.3017
G01 X10.5345 Y6.2229
G01 X10.5418 Y6.2136
G01 X10.5495 Y6.2047
G01 X10.6154 Y6.1320
G01 X10.6235 Y6.1235
G01 X10.6320 Y6.1154
G01 X10.7047 Y6.0495
G01 X10.7136 Y6.0418
G01 X10.7229 Y6.0345
G01 X10.8017 Y5.9761
G01 X10.8113 Y5.9693
G01 X10.8212 Y5.9630
G01 X10.9054 Y5.9126
G01 X10.9157 Y5.9068
G01 X10.9262 Y5.9015
G01 X11.0149 Y5.8595
G01 X11.0256 Y5.8547
G01 X11.0366 Y5.8505
G01 X11.1290 Y5.8175
G01 X11.1402 Y5.8138
G01 X11.1515 Y5.8106
G01 X11.2467 Y5.7868
G01 X11.2582 Y5.7842
G01 X11.2698 Y5.7822
G01 X11.3668 Y5.7678
G01 X11.3785 Y5.7664
G01 X11.3902 Y5.7655
G01 X11.4882 Y5.7607
G01 X11.5000 Y5.7604
G01 X11.5118 Y5.7607
G01 X11.6098 Y5.7655
G01 X11.6215 Y5.7664
G01 X11.6332 Y5.7678
G01 X11.7302 Y5.7822
G01 X11.7418 Y5.7842
G01 X11.7533 Y5.7868
G01 X11.8485 Y5.8106
G01 X11.8598 Y5.8138
G01 X11.8710 Y5.8175
G01 X11.9634 Y5.8505
G01 X11.9744 Y5.8547
G01 X11.9851 Y5.8595
G01 X12.0738 Y5.9015
G01 X12.0843 Y5.9068
G01 X12.0946 Y5.9126
G01 X12.1788 Y5.9630
G01 X12.1887 Y5.9693
G01 X12.1983 Y5.9761
G01 X12.2771 Y6.0345
G01 X12.2864 Y6.0418
G01 X12.2953 Y6.0495
G01 X12.3680 Y6.1154
G01 X12.3765 Y6.1235
G01 X12.3846 Y6.1320
G01 X12.4505 Y6.2047
G01 X12.4582 Y6.2136
G01 X12.4655 Y6.2229
G01 X12.5239 Y6.3017
G01 X12.5307 Y6.3113
G01 X12.5370 Y6.3212
G01 X12.5904 Y6.4105
G01 X12.5985 Y6.4262
G01 X12.6405 Y6.5149
G01 X12.6453 Y6.5256
G01 X12.6495 Y6.5366
G01 X12.6825 Y6.6290
G01 X12.6862 Y6.6402
G01 X12.6894 Y6.6515
G01 X12.7132 Y6.7467
G01 X12.7158 Y6.7582
G01 X12.7178 Y6.7698
G01 X12.7322 Y6.8668
G01 X12.7336 Y6.8785
G01 X12.7345 Y6.8902
G01 X12.7393 Y6.9882
G01 X12.7396 Y7.0000
G01 X12.7393 Y7.0118
G01 X12.7345 Y7.1098
G01 X12.7336 Y7.1215
G01 X12.7322 Y7.1332
G01 X12.7178 Y7.2302
G01 X12.7158 Y7.2418
G01 X12.7132 Y7.2533
G01 X12.6894 Y7.3485
G01 X12.6862 Y7.3598
G01 X12.6825 Y7.3710
G01 X12.6495 Y7.4634
G01 X12.6453 Y7.4744
G01 X12.6405 Y7.4851
G01 X12.5985 Y7.5738
G01 X12.5932 Y7.5843
G01 X12.5874 Y7.5946
G01 X12.5370 Y7.6788
G01 X12.5307 Y7.6887
G01 X12.5239 Y7.6983
G01 X12.4655 Y7.7771
G01 X12.4582 Y7.7864
G01 X12.4505 Y7.7953
G01 X12.3846 Y7.8680
G01 X12.3765 Y7.8765
G01 X12.3680 Y7.8846
G01 X12.2953 Y7.9505
G01 X12.2864 Y7.9582
G01 X12.2771 Y7.9655
G01 X12.1983 Y8.0239
G01 X12.1887 Y8.0307
G01 X12.1788 Y8.0370
G01 X12.0946 Y8.0874
G01 X12.0843 Y8.0932
G01 X12.0738 Y8.0985
G01 X11.9851 Y8.1405
G01 X11.9744 Y8.1453
G01 X11.9634 Y8.1495
G01 X11.8710 Y8.1825
G01 X11.8598 Y8.1862
G01 X11.8485 Y8.1894
G01 X11.7533 Y8.2132
G01 X11.7418 Y8.2158
G01 X11.7302 Y8.2178
G01 X11.6332 Y8.2322
G01 X11.6215 Y8.2336
G01 X11.6098 Y8.2345
G01 X11.5118 Y8.2393
G01 X11.5000 Y8.2396
G01 X11.4882 Y8.2393
G01 X11.3902 Y8.2345
G01 X11.3785 Y8.2336
G01 X11.3668 Y8.2322
G01 X11.2698 Y8.2178
G01 X11.2582 Y8.2158
G01 X11.2467 Y8.2132
G01 X11.1515 Y8.1894
G01 X11.1402 Y8.1862
G01 X11.1290 Y8.1825
G01 X11.0414 Y8.1512
G01 X10.2463 Y8.9463
G01 X10.2378 Y8.9544
G01 X10.2107 Y8.9786
G01 X10.1817 Y9.0004
G01 X10.1672 Y9.0104
G01 X10.1360 Y9.0291
G01 X10.1204 Y9.0372
G01 X10.0874 Y9.0525
G01 X10.0533 Y9.0650
G01 X10.0365 Y9.0703
G01 X9.9955 Y9.0803
G01 X9.9597 Y9.0859
G01 X9.9421 Y9.0879
G01 X9.9000 Y9.0897
G01 X8.3883 Y9.0897
G01 X8.3485 Y9.1738
G01 X8.3432 Y9.1843
G01 X8.3374 Y9.1946
G01 X8.2870 Y9.2788
G01 X8.2807 Y9.2887
G01 X8.2739 Y9.2983
G01 X8.2155 Y9.3771
G01 X8.2082 Y9.3864
G01 X8.2005 Y9.3953
G01 X8.1346 Y9.4680
G01 X8.1265 Y9.4765
G01 X8.1180 Y9.4846
G01 X8.0453 Y9.5505
G01 X8.0364 Y9.5582
G01 X8.0271 Y9.5655
G01 X7.9483 Y9.6239
G01 X7.9387 Y9.6307
G01 X7.9288 Y9.6370
G01 X7.8446 Y9.6874
G01 X7.8343 Y9.6932
G01 X7.8238 Y9.6985
G01 X7.7397 Y9.7383
G01 X7.7397 Y11.7732
G01 X7.7720 Y11.7929
G01 X7.8013 Y11.8143
G01 X7.8151 Y11.8253
G01 X7.8462 Y11.8538
G01 X7.8747 Y11.8849
G01 X7.8857 Y11.8987
G01 X7.9071 Y11.9280
G01 X7.9260 Y11.9590
G01 X7.9345 Y11.9744
G01 X7.9523 Y12.0126
G01 X7.9648 Y12.0467
G01 X7.9702 Y12.0635
G01 X7.9802 Y12.1045
G01 X7.9858 Y12.1403
G01 X7.9878 Y12.1579
G01 X7.9895 Y12.1941
G01 X7.9895 Y17.2059
G01 X7.9873 Y17.2480
G01 X7.9822 Y17.2839
G01 X7.9802 Y17.2955
G01 X7.9776 Y17.3070
G01 X7.9685 Y17.3421
G01 X7.9648 Y17.3533
G01 X7.9523 Y17.3874
G01 X7.9371 Y17.4203
G01 X7.9318 Y17.4308
G01 X7.9260 Y17.4410
G01 X7.9071 Y17.4720
G01 X7.8857 Y17.5013
G01 X7.8785 Y17.5106
G01 X7.8543 Y17.5377
G01 X7.8420 Y17.5503
G01 X7.8195 Y17.5708
G01 X7.8106 Y17.5785
G01 X7.8013 Y17.5857
G01 X7.7769 Y17.6038
G01 X7.7671 Y17.6103
G01 X7.7410 Y17.6260
G01 X7.7256 Y17.6345
G01 X7.6874 Y17.6523
G01 X7.6533 Y17.6648
G01 X7.6421 Y17.6685
G01 X7.6308 Y17.6717
G01 X7.5955 Y17.6802
G01 X7.5839 Y17.6822
G01 X7.5480 Y17.6873
G01 X7.5118 Y17.6893
G01 X7.5000 Y17.6896
G01 X7.0000 Y17.6896
G01 X6.9882 Y17.6893
G01 X6.9520 Y17.6873
G01 X6.9161 Y17.6822
G01 X6.9045 Y17.6802
G01 X6.8692 Y17.6717
G01 X6.8579 Y17.6685
G01 X6.8236 Y17.6566
G01 X6.8126 Y17.6523
G01 X6.7744 Y17.6345
G01 X6.7590 Y17.6260
G01 X6.7280 Y17.6071
G01 X6.6940 Y17.5821
G01 X6.6805 Y17.5708
G01 X6.6538 Y17.5462
G01 X6.6253 Y17.5151
G01 X6.6143 Y17.5013
G01 X6.5929 Y17.4720
G01 X6.5740 Y17.4410
G01 X6.5655 Y17.4256
G01 X6.5477 Y17.3874
G01 X6.5332 Y17.3477
G01 X6.5283 Y17.3308
G01 X6.5198 Y17.2955
G01 X6.5178 Y17.2839
G01 X6.5127 Y17.2480
G01 X6.5107 Y17.2118
G01 X6.5104 Y17.2000
G01 X6.5105 Y12.1941
G01 X6.5122 Y12.1579
G01 X6.5142 Y12.1403
G01 X6.5198 Y12.1045
G01 X6.5298 Y12.0635
G01 X6.5352 Y12.0467
G01 X6.5477 Y12.0126
G01 X6.5655 Y11.9744
G01 X6.5740 Y11.9590
G01 X6.5929 Y11.9280
G01 X6.6143 Y11.8987
G01 X6.6253 Y11.8849
G01 X6.6538 Y11.8538
G01 X6.6849 Y11.8253
G01 X6.6987 Y11.8143
G01 X6.7280 Y11.7929
G01 X6.7603 Y11.7732
G01 X6.7603 Y9.7383
G00 Z2.0000
G00 X6.8515 Y9.6758
G01 F30.00
G01 Z-0.0400
G01 F80.00
G01 X6.8173 Y9.6635
G01 X6.8072 Y9.6595
G01 X6.7119 Y9.6144
G01 X6.7023 Y9.6091
G01 X6.6182 Y9.5587
G01 X6.6090 Y9.5527
G01 X6.5215 Y9.4877
G01 X6.4433 Y9.4170
G01 X6.4330 Y9.4067
G01 X6.3671 Y9.3340
G01 X6.3601 Y9.3257
G01 X6.2952 Y9.2380
G01 X6.2409 Y9.1477
G01 X6.2340 Y9.1348
G01 X6.1891 Y9.0394
G01 X6.1511 Y8.9333
G01 X6.1253 Y8.8311
G01 X6.1225 Y8.8169
G01 X6.1081 Y8.7198
G01 X6.1069 Y8.7089
G01 X6.1017 Y8.6000
G01 X6.1067 Y8.4947
G01 X6.1081 Y8.4802
G01 X6.1237 Y8.3760
G01 X6.1511 Y8.2667
G01 X6.1865 Y8.1673
G01 X6.1920 Y8.1539
G01 X6.2373 Y8.0587
G01 X6.2952 Y7.9620
G01 X6.3578 Y7.8772
G01 X6.3671 Y7.8660
G01 X6.4380 Y7.7880
G01 X6.5160 Y7.7171
G01 X6.5272 Y7.7078
G01 X6.6120 Y7.6452
G01 X6.7055 Y7.5890
G01 X6.7152 Y7.5840
G01 X6.8106 Y7.5391
G01 X6.9167 Y7.5011
G01 X7.0260 Y7.4737
G01 X7.1302 Y7.4581
G01 X7.1447 Y7.4567
G01 X7.2427 Y7.4518
G01 X7.2573 Y7.4518
G01 X7.3626 Y7.4572
G01 X7.4669 Y7.4725
G01 X7.4811 Y7.4753
G01 X7.5833 Y7.5011
G01 X7.6861 Y7.5377
G01 X7.6961 Y7.5420
G01 X7.7913 Y7.5873
G01 X7.8880 Y7.6452
G01 X7.9785 Y7.7123
G01 X8.0567 Y7.7830
G01 X8.0645 Y7.7906
G01 X8.1377 Y7.8715
G01 X8.2006 Y7.9561
G01 X8.2068 Y7.9651
G01 X8.2591 Y8.0523
G01 X8.2644 Y8.0619
G01 X8.3095 Y8.1572
G01 X8.3135 Y8.1673
G01 X8.3258 Y8.2015
G01 X9.7350 Y8.2015
G01 X10.4576 Y7.4789
G01 X10.4420 Y7.4461
G01 X10.4377 Y7.4361
G01 X10.4034 Y7.3403
G01 X10.4001 Y7.3298
G01 X10.3737 Y7.2240
G01 X10.3581 Y7.1198
G01 X10.3569 Y7.1089
G01 X10.3517 Y7.0000
G01 X10.3572 Y6.8874
G01 X10.3737 Y6.7760
G01 X10.4001 Y6.6702
G01 X10.4034 Y6.6597
G01 X10.4391 Y6.5606
G01 X10.4840 Y6.4652
G01 X10.4909 Y6.4523
G01 X10.5413 Y6.3682
G01 X10.5494 Y6.3561
G01 X10.6123 Y6.2715
G01 X10.6880 Y6.1880
G01 X10.7715 Y6.1123
G01 X10.8561 Y6.0494
G01 X10.8651 Y6.0432
G01 X10.9587 Y5.9873
G01 X11.0606 Y5.9391
G01 X11.1667 Y5.9011
G01 X11.2689 Y5.8753
G01 X11.2831 Y5.8725
G01 X11.3874 Y5.8572
G01 X11.4927 Y5.8518
G01 X11.5073 Y5.8518
G01 X11.6126 Y5.8572
G01 X11.7169 Y5.8725
G01 X11.7311 Y5.8753
G01 X11.8263 Y5.8992
G01 X11.8403 Y5.9034
G01 X11.9394 Y5.9391
G01 X12.0413 Y5.9873
G01 X12.1380 Y6.0452
G01 X12.2285 Y6.1123
G01 X12.3120 Y6.1880
G01 X12.3877 Y6.2715
G01 X12.4548 Y6.3620
G01 X12.5110 Y6.4555
G01 X12.5160 Y6.4652
G01 X12.5609 Y6.5606
G01 X12.5989 Y6.6667
G01 X12.6263 Y6.7760
G01 X12.6419 Y6.8802
G01 X12.6433 Y6.8947
G01 X12.6483 Y7.0000
G01 X12.6433 Y7.1053
G01 X12.6419 Y7.1198
G01 X12.6275 Y7.2169
G01 X12.6247 Y7.2311
G01 X12.5989 Y7.3333
G01 X12.5609 Y7.4394
G01 X12.5127 Y7.5413
G01 X12.4548 Y7.6380
G01 X12.3877 Y7.7285
G01 X12.3120 Y7.8120
G01 X12.2285 Y7.8877
G01 X12.1380 Y7.9548
G01 X12.0477 Y8.0091
G01 X12.0348 Y8.0160
G01 X11.9394 Y8.0609
G01 X11.8403 Y8.0966
G01 X11.8263 Y8.1008
G01 X11.7240 Y8.1263
G01 X11.6198 Y8.1419
G01 X11.6089 Y8.1431
G01 X11.5000 Y8.1483
G01 X11.3947 Y8.1433
G01 X11.3802 Y8.1419
G01 X11.2796 Y8.1269
G01 X11.2689 Y8.1247
G01 X11.1737 Y8.1008
G01 X11.1632 Y8.0978
G01 X11.0639 Y8.0623
G01 X11.0539 Y8.0580
G01 X11.0211 Y8.0424
G01 X10.1791 Y8.8843
G01 X10.1556 Y8.9057
G01 X10.1470 Y8.9125
G01 X10.1214 Y8.9313
G01 X10.0942 Y8.9478
G01 X10.0813 Y8.9547
G01 X10.0525 Y8.9681
G01 X10.0226 Y8.9790
G01 X10.0122 Y8.9823
G01 X9.9777 Y8.9908
G01 X9.9463 Y8.9956
G01 X9.9318 Y8.9971
G01 X9.9000 Y8.9985
G01 X8.3258 Y8.9985
G01 X8.3135 Y9.0327
G01 X8.3095 Y9.0428
G01 X8.2644 Y9.1381
G01 X8.2591 Y9.1477
G01 X8.2068 Y9.2349
G01 X8.2006 Y9.2439
G01 X8.1377 Y9.3285
G01 X8.0620 Y9.4120
G01 X7.9785 Y9.4877
G01 X7.8939 Y9.5506
G01 X7.8849 Y9.5568
G01 X7.7977 Y9.6091
G01 X7.7881 Y9.6144
G01 X7.6928 Y9.6595
G01 X7.6827 Y9.6635
G01 X7.6485 Y9.6758
G01 X7.6485 Y11.8304
G01 X7.6558 Y11.8334
G01 X7.6813 Y11.8454
G01 X7.6941 Y11.8523
G01 X7.7213 Y11.8688
G01 X7.7527 Y11.8921
G01 X7.7817 Y11.9183
G01 X7.8032 Y11.9418
G01 X7.8124 Y11.9530
G01 X7.8312 Y11.9787
G01 X7.8513 Y12.0122
G01 X7.8651 Y12.0409
G01 X7.8706 Y12.0544
G01 X7.8812 Y12.0844
G01 X7.8891 Y12.1152
G01 X7.8919 Y12.1295
G01 X7.8964 Y12.1610
G01 X7.8983 Y12.1964
G01 X7.8983 Y17.2036
G01 X7.8964 Y17.2390
G01 X7.8907 Y17.2777
G01 X7.8812 Y17.3156
G01 X7.8680 Y17.3524
G01 X7.8513 Y17.3878
G01 X7.8312 Y17.4213
G01 X7.8079 Y17.4527
G01 X7.7867 Y17.4764
G01 X7.7791 Y17.4842
G01 X7.7582 Y17.5032
G01 X7.7470 Y17.5124
G01 X7.7273 Y17.5270
G01 X7.7182 Y17.5332
G01 X7.6910 Y17.5495
G01 X7.6813 Y17.5546
G01 X7.6524 Y17.5680
G01 X7.6156 Y17.5812
G01 X7.5777 Y17.5907
G01 X7.5390 Y17.5964
G01 X7.5000 Y17.5983
G01 X6.9927 Y17.5982
G01 X6.9610 Y17.5964
G01 X6.9223 Y17.5907
G01 X6.8844 Y17.5812
G01 X6.8509 Y17.5694
G01 X6.8409 Y17.5651
G01 X6.8187 Y17.5546
G01 X6.8090 Y17.5495
G01 X6.7787 Y17.5312
G01 X6.7530 Y17.5124
G01 X6.7418 Y17.5032
G01 X6.7183 Y17.4817
G01 X6.6968 Y17.4582
G01 X6.6876 Y17.4470
G01 X6.6688 Y17.4213
G01 X6.6523 Y17.3941
G01 X6.6454 Y17.3813
G01 X6.6320 Y17.3524
G01 X6.6211 Y17.3225
G01 X6.6169 Y17.3086
G01 X6.6093 Y17.2777
G01 X6.6036 Y17.2390
G01 X6.6017 Y17.2000
G01 X6.6017 Y12.1964
G01 X6.6036 Y12.1610
G01 X6.6081 Y12.1295
G01 X6.6109 Y12.1152
G01 X6.6188 Y12.0844
G01 X6.6294 Y12.0544
G01 X6.6349 Y12.0409
G01 X6.6487 Y12.0122
G01 X6.6688 Y11.9787
G01 X6.6921 Y11.9473
G01 X6.7133 Y11.9236
G01 X6.7236 Y11.9133
G01 X6.7473 Y11.8921
G01 X6.7787 Y11.8688
G01 X6.8059 Y11.8523
G01 X6.8187 Y11.8454
G01 X6.8442 Y11.8334
G01 X6.8515 Y11.8304
G01 X6.8515 Y9.6758
G00 Z2.0000
G00 X6.9428 Y9.6114
G01 F30.00
G01 Z-0.0400
G01 F80.00
G01 X6.8455 Y9.5766
G01 X6.7542 Y9.5335
G01 X6.7493 Y9.5309
G01 X6.6627 Y9.4789
G01 X6.5794 Y9.4171
G01 X6.5046 Y9.3494
G01 X6.5006 Y9.3454
G01 X6.4329 Y9.2706
G01 X6.3727 Y9.1896
G01 X6.3696 Y9.1849
G01 X6.3178 Y9.0983
G01 X6.2734 Y9.0045
G01 X6.2393 Y8.9095
G01 X6.2377 Y8.9041
G01 X6.2133 Y8.8062
G01 X6.1980 Y8.7036
G01 X6.1930 Y8.6028
G01 X6.1930 Y8.5972
G01 X6.1980 Y8.4964
G01 X6.2133 Y8.3938
G01 X6.2385 Y8.2932
G01 X6.2724 Y8.1981
G01 X6.2745 Y8.1929
G01 X6.3178 Y8.1017
G01 X6.3711 Y8.0127
G01 X6.4312 Y7.9316
G01 X6.4347 Y7.9273
G01 X6.5026 Y7.8526
G01 X6.5773 Y7.7847
G01 X6.5816 Y7.7812
G01 X6.6627 Y7.7211
G01 X6.7505 Y7.6684
G01 X6.8455 Y7.6234
G01 X6.9432 Y7.5885
G01 X7.0438 Y7.5633
G01 X7.1436 Y7.5484
G01 X7.1492 Y7.5478
G01 X7.2472 Y7.5430
G01 X7.2528 Y7.5430
G01 X7.3536 Y7.5480
G01 X7.4535 Y7.5628
G01 X7.4590 Y7.5639
G01 X7.5568 Y7.5885
G01 X7.6545 Y7.6234
G01 X7.7483 Y7.6678
G01 X7.8373 Y7.7211
G01 X7.9206 Y7.7829
G01 X7.9954 Y7.8506
G01 X7.9994 Y7.8546
G01 X8.0653 Y7.9273
G01 X8.0688 Y7.9316
G01 X8.1289 Y8.0127
G01 X8.1809 Y8.0993
G01 X8.1835 Y8.1042
G01 X8.2266 Y8.1955
G01 X8.2614 Y8.2928
G01 X9.7728 Y8.2928
G01 X10.5676 Y7.4980
G01 X10.5234 Y7.4045
G01 X10.4885 Y7.3068
G01 X10.4633 Y7.2062
G01 X10.4480 Y7.1036
G01 X10.4430 Y7.0000
G01 X10.4480 Y6.8964
G01 X10.4633 Y6.7938
G01 X10.4877 Y6.6959
G01 X10.4893 Y6.6905
G01 X10.5224 Y6.5981
G01 X10.5245 Y6.5929
G01 X10.5678 Y6.5017
G01 X10.6196 Y6.4151
G01 X10.6227 Y6.4104
G01 X10.6829 Y6.3294
G01 X10.7526 Y6.2526
G01 X10.8294 Y6.1829
G01 X10.9127 Y6.1211
G01 X11.0017 Y6.0678
G01 X11.0955 Y6.0234
G01 X11.1932 Y5.9885
G01 X11.2938 Y5.9633
G01 X11.3964 Y5.9480
G01 X11.5000 Y5.9430
G01 X11.6036 Y5.9480
G01 X11.7035 Y5.9628
G01 X11.7090 Y5.9639
G01 X11.8068 Y5.9885
G01 X11.9019 Y6.0224
G01 X11.9071 Y6.0245
G01 X11.9958 Y6.0665
G01 X12.0007 Y6.0691
G01 X12.0873 Y6.1211
G01 X12.1684 Y6.1812
G01 X12.1727 Y6.1847
G01 X12.2474 Y6.2526
G01 X12.3171 Y6.3294
G01 X12.3789 Y6.4127
G01 X12.4316 Y6.5005
G01 X12.4766 Y6.5955
G01 X12.5115 Y6.6932
G01 X12.5367 Y6.7938
G01 X12.5516 Y6.8936
G01 X12.5522 Y6.8992
G01 X12.5570 Y6.9972
G01 X12.5570 Y7.0028
G01 X12.5520 Y7.1036
G01 X12.5372 Y7.2035
G01 X12.5361 Y7.2090
G01 X12.5115 Y7.3068
G01 X12.4766 Y7.4045
G01 X12.4322 Y7.4983
G01 X12.3789 Y7.5873
G01 X12.3171 Y7.6706
G01 X12.2474 Y7.7474
G01 X12.1706 Y7.8171
G01 X12.0861 Y7.8797
G01 X11.9983 Y7.9322
G01 X11.9071 Y7.9755
G01 X11.9019 Y7.9776
G01 X11.8068 Y8.0115
G01 X11.7090 Y8.0361
G01 X11.7035 Y8.0372
G01 X11.6036 Y8.0520
G01 X11.5028 Y8.0570
G01 X11.4972 Y8.0570
G01 X11.3964 Y8.0520
G01 X11.2965 Y8.0372
G01 X11.2910 Y8.0361
G01 X11.1932 Y8.0115
G01 X11.0981 Y7.9776
G01 X11.0929 Y7.9755
G01 X11.0020 Y7.9324
G01 X10.1162 Y8.8182
G01 X10.0927 Y8.8392
G01 X10.0707 Y8.8554
G01 X10.0472 Y8.8695
G01 X10.0176 Y8.8838
G01 X9.9878 Y8.8943
G01 X9.9599 Y8.9013
G01 X9.9329 Y8.9054
G01 X9.9000 Y8.9072
G01 X8.2614 Y8.9072
G01 X8.2276 Y9.0019
G01 X8.2255 Y9.0071
G01 X8.1822 Y9.0983
G01 X8.1304 Y9.1849
G01 X8.1273 Y9.1896
G01 X8.0671 Y9.2706
G01 X7.9974 Y9.3474
G01 X7.9206 Y9.4171
G01 X7.8396 Y9.4773
G01 X7.8349 Y9.4804
G01 X7.7483 Y9.5322
G01 X7.6571 Y9.5755
G01 X7.6519 Y9.5776
G01 X7.5572 Y9.6114
G01 X7.5572 Y11.8984
G01 X7.5891 Y11.9062
G01 X7.6149 Y11.9153
G01 X7.6422 Y11.9279
G01 X7.6472 Y11.9306
G01 X7.6706 Y11.9447
G01 X7.6948 Y11.9626
G01 X7.7171 Y11.9829
G01 X7.7374 Y12.0052
G01 X7.7553 Y12.0294
G01 X7.7694 Y12.0528
G01 X7.7825 Y12.0799
G01 X7.7847 Y12.0851
G01 X7.7938 Y12.1109
G01 X7.8012 Y12.1401
G01 X7.8056 Y12.1699
G01 X7.8070 Y12.1986
G01 X7.8070 Y17.2000
G01 X7.8056 Y17.2301
G01 X7.8012 Y17.2599
G01 X7.7938 Y17.2891
G01 X7.7837 Y17.3175
G01 X7.7708 Y17.3447
G01 X7.7553 Y17.3706
G01 X7.7374 Y17.3948
G01 X7.7190 Y17.4151
G01 X7.6969 Y17.4355
G01 X7.6926 Y17.4391
G01 X7.6706 Y17.4553
G01 X7.6422 Y17.4721
G01 X7.6175 Y17.4837
G01 X7.5891 Y17.4938
G01 X7.5599 Y17.5012
G01 X7.5287 Y17.5057
G01 X7.5000 Y17.5070
G01 X6.9986 Y17.5070
G01 X6.9699 Y17.5056
G01 X6.9429 Y17.5016
G01 X6.9374 Y17.5005
G01 X6.9095 Y17.4934
G01 X6.8825 Y17.4837
G01 X6.8578 Y17.4721
G01 X6.8294 Y17.4553
G01 X6.8031 Y17.4355
G01 X6.7829 Y17.4171
G01 X6.7626 Y17.3948
G01 X6.7447 Y17.3706
G01 X6.7306 Y17.3472
G01 X6.7163 Y17.3175
G01 X6.7062 Y17.2891
G01 X6.6995 Y17.2626
G01 X6.6984 Y17.2571
G01 X6.6943 Y17.2287
G01 X6.6930 Y17.2000
G01 X6.6930 Y12.1986
G01 X6.6944 Y12.1699
G01 X6.6988 Y12.1401
G01 X6.7062 Y12.1109
G01 X6.7153 Y12.0851
G01 X6.7175 Y12.0799
G01 X6.7306 Y12.0528
G01 X6.7447 Y12.0294
G01 X6.7626 Y12.0052
G01 X6.7829 Y11.9829
G01 X6.8052 Y11.9626
G01 X6.8294 Y11.9447
G01 X6.8528 Y11.9306
G01 X6.8799 Y11.9175
G01 X6.8851 Y11.9153
G01 X6.9109 Y11.9062
G01 X6.9428 Y11.8984
G01 X6.9428 Y9.6114
G00 Z2.0000
G00 X5.3396 Y10.7104
G01 F30.00
G01 Z-0.0400
G01 F80.00
G01 X5.3396 Y10.6896
G01 X5.4378 Y10.6896
G01 X5.5022 Y10.6962
G01 X5.6172 Y10.7343
G01 X5.7187 Y10.7969
G01 X5.8031 Y10.8813
G01 X5.8657 Y10.9828
G01 X5.9038 Y11.0978
G01 X5.9104 Y11.1622
G01 X5.9104 Y11.7112
G01 X5.9110 Y11.7283
G01 X5.9128 Y11.7453
G01 X5.9147 Y11.7566
G01 X5.9171 Y11.7677
G01 X5.9240 Y11.7921
G01 X5.9274 Y11.8118
G01 X5.9300 Y11.8234
G01 X5.9350 Y11.8405
G01 X5.9412 Y11.8572
G01 X5.9460 Y11.8681
G01 X5.9513 Y11.8788
G01 X5.9665 Y11.9053
G01 X5.9731 Y11.9152
G01 X5.9801 Y11.9248
G01 X5.9876 Y11.9341
G01 X5.9956 Y11.9429
G01 X6.0083 Y11.9554
G01 X6.0233 Y11.9685
G01 X6.0368 Y11.9832
G01 X6.0453 Y11.9915
G01 X6.0587 Y12.0033
G01 X6.0729 Y12.0140
G01 X6.0829 Y12.0206
G01 X6.0931 Y12.0266
G01 X6.1149 Y12.0381
G01 X6.1311 Y12.0455
G01 X6.1423 Y12.0498
G01 X6.1536 Y12.0535
G01 X6.1650 Y12.0567
G01 X6.1825 Y12.0603
G01 X6.2022 Y12.0632
G01 X6.2215 Y12.0682
G01 X6.2331 Y12.0707
G01 X6.2448 Y12.0726
G01 X6.2626 Y12.0744
G01 X6.2745 Y12.0748
G01 X6.2864 Y12.0746
G01 X6.3110 Y12.0728
G01 X6.3228 Y12.0715
G01 X6.3346 Y12.0697
G01 X6.3462 Y12.0673
G01 X6.3634 Y12.0626
G01 X6.3747 Y12.0587
G01 X6.3857 Y12.0543
G01 X6.4039 Y12.0461
G01 X6.4228 Y12.0400
G01 X6.4339 Y12.0358
G01 X6.4502 Y12.0284
G01 X6.4607 Y12.0229
G01 X6.4709 Y12.0168
G01 X6.4857 Y12.0068
G01 X6.5049 Y11.9920
G01 X6.5184 Y11.9804
G01 X6.5414 Y11.9572
G01 X6.5549 Y11.9421
G01 X6.5636 Y11.9314
G01 X6.5732 Y11.9183
G01 X6.5965 Y11.8810
G01 X6.6369 Y11.8406
G01 X6.6488 Y11.8278
G01 X6.6634 Y11.8097
G01 X6.6700 Y11.8004
G01 X6.6762 Y11.7908
G01 X6.6845 Y11.7759
G01 X6.6895 Y11.7656
G01 X6.6986 Y11.7443
G01 X6.7123 Y11.7185
G01 X6.7172 Y11.7078
G01 X6.7215 Y11.6969
G01 X6.7253 Y11.6857
G01 X6.7300 Y11.6687
G01 X6.7334 Y11.6514
G01 X6.7370 Y11.6272
G01 X6.7388 Y11.6006
G01 X6.7391 Y11.5878
G01 X6.7391 Y9.9726
G01 X6.7385 Y9.9555
G01 X6.7367 Y9.9385
G01 X6.7336 Y9.9217
G01 X6.7294 Y9.9051
G01 X6.7080 Y9.8324
G01 X6.7019 Y9.8156
G01 X6.6946 Y9.7994
G01 X6.6861 Y9.7837
G01 X6.6765 Y9.7687
G01 X6.6695 Y9.7591
G01 X6.6620 Y9.7499
G01 X6.6540 Y9.7411
G01 X6.6187 Y9.7038
G01 X6.6107 Y9.6961
G01 X6.5981 Y9.6852
G01 X6.4286 Y9.5618
G01 X6.2883 Y9.4214
G01 X6.1716 Y9.2609
G01 X6.0815 Y9.0840
G01 X6.0202 Y8.8953
G01 X5.9891 Y8.6992
G01 X5.9891 Y8.5008
G01 X6.0202 Y8.3047
G01 X6.0815 Y8.1160
G01 X6.1716 Y7.9392
G01 X6.2882 Y7.7786
G01 X6.4286 Y7.6382
G01 X6.5892 Y7.5216
G01 X6.7660 Y7.4315
G01 X6.9547 Y7.3702
G01 X7.1508 Y7.3391
G01 X7.3492 Y7.3391
G01 X7.5453 Y7.3702
G01 X7.7340 Y7.4315
G01 X7.9108 Y7.5216
G01 X8.0714 Y7.6382
G01 X8.2118 Y7.7786
G01 X8.3319 Y7.9438
G01 X8.3427 Y7.9570
G01 X8.3505 Y7.9654
G01 X8.3586 Y7.9734
G01 X8.3715 Y7.9846
G01 X8.4313 Y8.0308
G01 X8.4409 Y8.0378
G01 X8.4508 Y8.0444
G01 X8.4611 Y8.0504
G01 X8.4716 Y8.0559
G01 X8.4824 Y8.0609
G01 X8.4934 Y8.0654
G01 X8.5046 Y8.0693
G01 X8.5160 Y8.0726
G01 X8.5276 Y8.0754
G01 X8.5839 Y8.0860
G01 X8.6004 Y8.0881
G01 X8.6171 Y8.0890
G01 X9.5435 Y8.0890
G01 X9.5549 Y8.0885
G01 X9.5662 Y8.0874
G01 X9.5831 Y8.0848
G01 X9.5943 Y8.0824
G01 X9.6779 Y8.0580
G01 X9.6890 Y8.0541
G01 X9.7053 Y8.0473
G01 X9.7210 Y8.0393
G01 X9.7312 Y8.0334
G01 X9.7410 Y8.0269
G01 X9.7505 Y8.0200
G01 X9.7807 Y7.9957
G01 X9.7903 Y7.9871
G01 X10.1681 Y7.6093
G01 X10.1760 Y7.6011
G01 X10.1835 Y7.5925
G01 X10.1905 Y7.5835
G01 X10.2003 Y7.5695
G01 X10.2090 Y7.5547
G01 X10.2425 Y7.4934
G01 X10.2479 Y7.4829
G01 X10.2528 Y7.4720
G01 X10.2592 Y7.4554
G01 X10.2643 Y7.4383
G01 X10.2669 Y7.4267
G01 X10.2690 Y7.4150
G01 X10.2711 Y7.3973
G01 X10.2717 Y7.3854
G01 X10.2731 Y7.3341
G01 X10.2726 Y7.3174
G01 X10.2717 Y7.3064
G01 X10.2391 Y7.0992
G01 X10.2391 Y6.9008
G01 X10.2702 Y6.7047
G01 X10.3315 Y6.5160
G01 X10.4216 Y6.3392
G01 X10.5382 Y6.1786
G01 X10.6457 Y6.0710
G01 X10.6571 Y6.0582
G01 X10.6641 Y6.0492
G01 X10.6708 Y6.0399
G01 X10.6769 Y6.0304
G01 X10.6826 Y6.0205
G01 X10.7161 Y5.9592
G01 X10.7216 Y5.9486
G01 X10.7287 Y5.9322
G01 X10.7346 Y5.9154
G01 X10.7379 Y5.9039
G01 X10.7406 Y5.8923
G01 X10.7435 Y5.8747
G01 X10.7447 Y5.8629
G01 X10.7453 Y5.8510
G01 X10.7454 Y5.8391
G01 X10.7448 Y5.8272
G01 X10.7398 Y5.7575
G01 X10.7387 Y5.7457
G01 X10.7370 Y5.7339
G01 X10.7346 Y5.7222
G01 X10.7318 Y5.7107
G01 X10.7264 Y5.6937
G01 X10.7221 Y5.6826
G01 X10.7146 Y5.6664
G01 X10.7090 Y5.6559
G01 X10.7028 Y5.6457
G01 X10.6926 Y5.6310
G01 X10.6436 Y5.5660
G01 X10.6361 Y5.5573
G01 X10.6281 Y5.5490
G01 X10.6198 Y5.5411
G01 X10.6110 Y5.5335
G01 X10.6020 Y5.5264
G01 X10.5925 Y5.5198
G01 X10.5828 Y5.5136
G01 X10.5728 Y5.5079
G01 X10.5625 Y5.5026
G01 X10.5520 Y5.4979
G01 X10.4856 Y5.4717
G01 X10.4691 Y5.4659
G01 X10.4575 Y5.4626
G01 X10.3737 Y5.4313
G01 X10.3136 Y5.3864
G01 X10.2687 Y5.3263
G01 X10.2409 Y5.2519
G01 X10.2391 Y5.2350
G01 X10.2391 Y3.1650
G01 X10.2409 Y3.1481
G01 X10.2687 Y3.0737
G01 X10.3136 Y3.0136
G01 X10.3737 Y2.9687
G01 X10.4481 Y2.9409
G01 X10.4650 Y2.9391
G01 X12.5350 Y2.9391
G01 X12.5519 Y2.9409
G01 X12.6263 Y2.9687
G01 X12.6864 Y3.0136
G01 X12.7574 Y3.1084
G01 X12.7684 Y3.1214
G01 X12.7763 Y3.1297
G01 X12.7888 Y3.1413
G01 X12.8021 Y3.1520
G01 X12.8628 Y3.1974
G01 X12.8727 Y3.2040
G01 X12.8829 Y3.2102
G01 X12.8934 Y3.2158
G01 X12.9041 Y3.2209
G01 X12.9207 Y3.2276
G01 X12.9377 Y3.2330
G01 X12.9551 Y3.2371
G01 X12.9727 Y3.2399
G01 X12.9845 Y3.2411
G01 X13.0542 Y3.2461
G01 X13.0719 Y3.2467
G01 X13.0837 Y3.2463
G01 X13.0955 Y3.2454
G01 X13.1072 Y3.2440
G01 X13.1188 Y3.2419
G01 X13.1360 Y3.2378
G01 X13.1473 Y3.2343
G01 X13.1584 Y3.2303
G01 X13.1693 Y3.2257
G01 X13.2214 Y3.2023
G01 X13.2325 Y3.1966
G01 X13.2432 Y3.1904
G01 X13.2587 Y3.1801
G01 X13.3392 Y3.1216
G01 X13.5160 Y3.0315
G01 X13.7047 Y2.9702
G01 X13.9008 Y2.9391
G01 X14.0992 Y2.9391
G01 X14.3292 Y2.9757
G01 X14.3409 Y2.9767
G01 X14.3585 Y2.9772
G01 X14.3703 Y2.9768
G01 X14.3823 Y2.9758
G01 X14.4148 Y2.9767
G01 X14.4269 Y2.9765
G01 X14.4389 Y2.9756
G01 X14.4569 Y2.9733
G01 X14.4687 Y2.9709
G01 X14.4862 Y2.9663
G01 X14.5033 Y2.9604
G01 X14.5144 Y2.9557
G01 X14.5574 Y2.9364
G01 X14.5726 Y2.9284
G01 X14.5827 Y2.9224
G01 X14.6760 Y2.8837
G01 X14.7747 Y2.8641
G01 X16.7470 Y2.8641
G01 X16.7589 Y2.8638
G01 X16.7707 Y2.8629
G01 X16.7824 Y2.8615
G01 X16.7941 Y2.8594
G01 X16.8056 Y2.8568
G01 X16.8755 Y2.8374
G01 X16.8868 Y2.8340
G01 X16.8980 Y2.8299
G01 X16.9143 Y2.8229
G01 X16.9300 Y2.8147
G01 X17.0345 Y2.7516
G01 X17.1448 Y2.7172
G01 X17.1792 Y2.7141
G01 X17.8208 Y2.7141
G01 X17.8552 Y2.7172
G01 X17.9655 Y2.7516
G01 X18.0613 Y2.8095
G01 X18.1405 Y2.8887
G01 X18.1984 Y2.9845
G01 X18.2328 Y3.0948
G01 X18.2359 Y3.1292
G01 X18.2359 Y3.6208
G01 X18.2328 Y3.6552
G01 X18.1984 Y3.7655
G01 X18.1405 Y3.8613
G01 X18.0586 Y3.9432
G01 X18.0507 Y3.9515
G01 X18.0396 Y3.9646
G01 X18.0296 Y3.9784
G01 X18.0205 Y3.9929
G01 X17.9842 Y4.0592
G01 X17.9762 Y4.0751
G01 X17.9716 Y4.0861
G01 X17.9657 Y4.1029
G01 X17.9624 Y4.1144
G01 X17.9586 Y4.1318
G01 X17.9568 Y4.1436
G01 X17.9556 Y4.1554
G01 X17.9549 Y4.1733
G01 X17.9555 Y4.1911
G01 X17.9605 Y4.2608
G01 X17.9616 Y4.2727
G01 X17.9634 Y4.2845
G01 X17.9671 Y4.3021
G01 X17.9721 Y4.3194
G01 X17.9784 Y4.3362
G01 X17.9860 Y4.3525
G01 X17.9947 Y4.3682
G01 X18.0264 Y4.4176
G01 X18.0328 Y4.4270
G01 X18.0432 Y4.4406
G01 X18.0507 Y4.4492
G01 X18.0586 Y4.4575
G01 X18.1365 Y4.5354
G01 X18.1055 Y4.5354
G01 X18.0859 Y4.5141
G01 X18.0628 Y4.4929
G01 X18.0493 Y4.4815
G01 X18.0241 Y4.4628
G01 X18.0093 Y4.4532
G01 X17.9822 Y4.4373
G01 X17.9717 Y4.4320
G01 X17.9432 Y4.4189
G01 X17.9323 Y4.4146
G01 X17.9026 Y4.4043
G01 X17.8722 Y4.3964
G01 X17.8608 Y4.3938
G01 X17.8492 Y4.3918
G01 X17.8181 Y4.3875
G01 X17.7868 Y4.3857
G01 X17.7750 Y4.3854
G01 X17.2250 Y4.3854
G01 X17.2132 Y4.3857
G01 X17.1819 Y4.3875
G01 X17.1450 Y4.3928
G01 X17.1278 Y4.3964
G01 X17.1030 Y4.4027
G01 X17.0918 Y4.4061
G01 X17.0568 Y4.4189
G01 X17.0230 Y4.4346
G01 X17.0126 Y4.4401
G01 X16.9857 Y4.4563
G01 X16.9759 Y4.4628
G01 X16.9507 Y4.4815
G01 X16.9416 Y4.4890
G01 X16.9184 Y4.5100
G01 X16.9100 Y4.5184
G01 X16.8945 Y4.5354
G01 X16.8635 Y4.5354
G01 X16.9002 Y4.4984
G01 X16.9112 Y4.4853
G01 X16.9213 Y4.4715
G01 X16.9275 Y4.4619
G01 X16.9332 Y4.4520
G01 X16.9667 Y4.3907
G01 X16.9746 Y4.3747
G01 X16.9814 Y4.3582
G01 X16.9869 Y4.3412
G01 X16.9911 Y4.3239
G01 X16.9940 Y4.3063
G01 X16.9956 Y4.2885
G01 X16.9960 Y4.2766
G01 X16.9957 Y4.2647
G01 X16.9904 Y4.1891
G01 X16.9892 Y4.1772
G01 X16.9864 Y4.1596
G01 X16.9823 Y4.1422
G01 X16.9788 Y4.1308
G01 X16.9726 Y4.1141
G01 X16.9651 Y4.0979
G01 X16.9565 Y4.0823
G01 X16.9501 Y4.0723
G01 X16.9432 Y4.0626
G01 X16.8977 Y4.0019
G01 X16.8901 Y3.9928
G01 X16.8821 Y3.9840
G01 X16.8692 Y3.9716
G01 X16.8601 Y3.9639
G01 X16.8507 Y3.9566
G01 X16.8359 Y3.9467
G01 X16.8256 Y3.9406
G01 X16.8151 Y3.9351
G01 X16.8043 Y3.9302
G01 X16.7932 Y3.9257
G01 X16.7278 Y3.9013
G01 X16.7109 Y3.8957
G01 X16.6937 Y3.8914
G01 X16.6762 Y3.8884
G01 X16.6585 Y3.8866
G01 X16.6437 Y3.8860
G01 X15.6245 Y3.8859
G01 X15.6131 Y3.8862
G01 X15.5961 Y3.8876
G01 X15.5792 Y3.8902
G01 X15.5680 Y3.8926
G01 X15.4900 Y3.9153
G01 X15.4730 Y3.9209
G01 X15.4566 Y3.9279
G01 X15.4407 Y3.9360
G01 X15.4254 Y3.9452
G01 X15.4157 Y3.9520
G01 X15.4017 Y3.9631
G01 X15.3928 Y3.9711
G01 X15.3844 Y3.9795
G01 X15.3764 Y3.9883
G01 X15.3306 Y4.0411
G01 X15.3230 Y4.0503
G01 X15.3125 Y4.0649
G01 X15.3031 Y4.0802
G01 X15.2974 Y4.0907
G01 X15.2924 Y4.1016
G01 X15.2878 Y4.1127
G01 X15.2838 Y4.1239
G01 X15.2804 Y4.1354
G01 X15.2776 Y4.1471
G01 X15.2642 Y4.2098
G01 X15.2620 Y4.2267
G01 X15.2612 Y4.2381
G01 X15.2609 Y4.2992
G01 X15.2298 Y4.4953
G01 X15.1685 Y4.6840
G01 X15.0784 Y4.8609
G01 X14.9618 Y5.0214
G01 X14.8214 Y5.1618
G01 X14.6605 Y5.2787
G01 X14.6506 Y5.2843
G01 X14.6363 Y5.2937
G01 X14.6271 Y5.3005
G01 X14.6140 Y5.3114
G01 X14.5590 Y5.3633
G01 X14.5506 Y5.3717
G01 X14.5425 Y5.3805
G01 X14.5314 Y5.3944
G01 X14.5212 Y5.4091
G01 X14.5122 Y5.4245
G01 X14.5044 Y5.4405
G01 X14.4978 Y5.4571
G01 X14.4924 Y5.4741
G01 X14.4741 Y5.5477
G01 X14.4716 Y5.5593
G01 X14.4688 Y5.5770
G01 X14.4677 Y5.5888
G01 X14.4671 Y5.6066
G01 X14.4675 Y5.6185
G01 X14.4684 Y5.6304
G01 X14.4710 Y5.6481
G01 X14.4734 Y5.6597
G01 X14.4781 Y5.6769
G01 X14.5064 Y5.7595
G01 X14.5134 Y5.7753
G01 X14.5186 Y5.7856
G01 X14.5243 Y5.7956
G01 X14.5338 Y5.8100
G01 X14.5407 Y5.8192
G01 X14.5480 Y5.8281
G01 X14.5597 Y5.8408
G01 X14.5724 Y5.8525
G01 X14.6218 Y5.8953
G01 X14.6310 Y5.9025
G01 X14.6405 Y5.9092
G01 X14.6503 Y5.9155
G01 X14.6605 Y5.9213
G01 X14.8214 Y6.0382
G01 X14.9618 Y6.1786
G01 X15.0784 Y6.3392
G01 X15.1685 Y6.5160
G01 X15.2298 Y6.7047
G01 X15.2609 Y6.9008
G01 X15.2609 Y7.0992
G01 X15.2298 Y7.2953
G01 X15.1685 Y7.4840
G01 X15.0784 Y7.6609
G01 X14.9618 Y7.8214
G01 X14.8214 Y7.9618
G01 X14.6608 Y8.0785
G01 X14.6517 Y8.0854
G01 X14.6388 Y8.0966
G01 X14.6266 Y8.1086
G01 X14.6190 Y8.1171
G01 X14.6119 Y8.1260
G01 X14.5656 Y8.1861
G01 X14.5588 Y8.1958
G01 X14.5496 Y8.2111
G01 X14.5441 Y8.2216
G01 X14.5391 Y8.2324
G01 X14.5326 Y8.2490
G01 X14.5290 Y8.2603
G01 X14.5259 Y8.2718
G01 X14.5235 Y8.2834
G01 X14.5132 Y8.3394
G01 X14.5115 Y8.3560
G01 X14.5110 Y8.3671
G01 X14.5109 Y8.4976
G01 X14.4913 Y8.5963
G01 X14.4527 Y8.6893
G01 X14.3968 Y8.7730
G01 X13.1009 Y10.0689
G01 X13.0931 Y10.0771
G01 X13.0820 Y10.0902
G01 X13.0752 Y10.0993
G01 X13.0658 Y10.1136
G01 X13.0266 Y10.1848
G01 X13.0186 Y10.2008
G01 X13.0140 Y10.2117
G01 X13.0099 Y10.2229
G01 X13.0048 Y10.2400
G01 X13.0021 Y10.2516
G01 X13.0000 Y10.2633
G01 X12.9980 Y10.2811
G01 X12.9974 Y10.2929
G01 X12.9973 Y10.3048
G01 X12.9979 Y10.3167
G01 X13.0029 Y10.3864
G01 X13.0048 Y10.4042
G01 X13.0068 Y10.4159
G01 X13.0109 Y10.4333
G01 X13.0144 Y10.4447
G01 X13.0184 Y10.4559
G01 X13.0255 Y10.4722
G01 X13.0309 Y10.4829
G01 X13.0367 Y10.4932
G01 X13.0432 Y10.5032
G01 X13.0500 Y10.5129
G01 X13.0919 Y10.5689
G01 X13.0993 Y10.5782
G01 X13.1071 Y10.5872
G01 X13.1196 Y10.5999
G01 X13.1331 Y10.6116
G01 X13.1474 Y10.6223
G01 X13.1604 Y10.6307
G01 X13.1604 Y10.7104
G01 X13.0941 Y10.7105
G01 X13.0579 Y10.7122
G01 X13.0462 Y10.7134
G01 X13.0161 Y10.7178
G01 X13.0045 Y10.7198
G01 X12.9930 Y10.7224
G01 X12.9579 Y10.7315
G01 X12.9236 Y10.7434
G01 X12.9126 Y10.7477
G01 X12.9019 Y10.7524
G01 X12.8692 Y10.7682
G01 X12.8329 Y10.7897
G01 X12.8184 Y10.7997
G01 X12.7940 Y10.8179
G01 X12.7849 Y10.8253
G01 X12.7623 Y10.8457
G01 X12.7538 Y10.8538
G01 X12.7457 Y10.8623
G01 X12.7253 Y10.8849
G01 X12.7143 Y10.8987
G01 X12.6929 Y10.9280
G01 X12.6866 Y10.9379
G01 X12.6682 Y10.9692
G01 X12.6524 Y11.0019
G01 X12.6477 Y11.0126
G01 X12.6332 Y11.0523
G01 X12.6298 Y11.0635
G01 X12.6224 Y11.0930
G01 X12.6198 Y11.1045
G01 X12.6178 Y11.1161
G01 X12.6127 Y11.1520
G01 X12.6107 Y11.1882
G01 X12.6104 Y11.2000
G01 X12.6104 Y13.7000
G01 X12.6107 Y13.7118
G01 X12.6127 Y13.7480
G01 X12.6187 Y13.7897
G01 X12.6224 Y13.8070
G01 X12.6315 Y13.8421
G01 X12.6455 Y13.8819
G01 X12.6524 Y13.8981
G01 X12.6655 Y13.9256
G01 X12.6710 Y13.9360
G01 X12.6866 Y13.9621
G01 X12.6929 Y13.9720
G01 X12.6997 Y13.9816
G01 X12.7179 Y14.0060
G01 X12.7292 Y14.0195
G01 X12.7497 Y14.0420
G01 X12.7580 Y14.0503
G01 X12.7805 Y14.0708
G01 X12.7940 Y14.0821
G01 X12.8280 Y14.1071
G01 X12.8590 Y14.1260
G01 X12.8692 Y14.1318
G01 X12.8797 Y14.1371
G01 X12.9126 Y14.1523
G01 X12.9467 Y14.1648
G01 X12.9635 Y14.1702
G01 X12.9987 Y14.1790
G01 X13.0161 Y14.1822
G01 X13.0462 Y14.1866
G01 X13.0637 Y14.1881
G01 X13.0941 Y14.1895
G01 X13.1603 Y14.1896
G01 X13.1603 Y14.2104
G01 X13.0622 Y14.2104
G01 X12.9978 Y14.2038
G01 X12.8828 Y14.1657
G01 X12.7813 Y14.1031
G01 X12.6969 Y14.0187
G01 X12.6809 Y13.9929
G01 X12.6745 Y13.9835
G01 X12.6640 Y13.9700
G01 X12.6526 Y13.9573
G01 X12.6403 Y13.9454
G01 X12.5883 Y13.8986
G01 X12.5746 Y13.8872
G01 X12.5650 Y13.8802
G01 X12.5551 Y13.8736
G01 X12.5448 Y13.8676
G01 X12.5289 Y13.8595
G01 X12.5125 Y13.8525
G01 X12.4956 Y13.8469
G01 X12.4841 Y13.8438
G01 X12.4724 Y13.8413
G01 X12.3917 Y13.8282
G01 X12.3799 Y13.8269
G01 X12.3680 Y13.8261
G01 X12.3561 Y13.8260
G01 X12.3442 Y13.8264
G01 X12.3265 Y13.8282
G01 X12.3147 Y13.8301
G01 X12.3031 Y13.8326
G01 X12.2916 Y13.8357
G01 X12.2803 Y13.8393
G01 X12.2691 Y13.8435
G01 X12.1941 Y13.8761
G01 X12.1782 Y13.8842
G01 X12.1630 Y13.8935
G01 X12.1532 Y13.9003
G01 X12.1438 Y13.9076
G01 X12.1304 Y13.9193
G01 X12.1179 Y13.9321
G01 X12.1064 Y13.9457
G01 X12.0959 Y13.9602
G01 X12.0539 Y14.0231
G01 X12.0479 Y14.0331
G01 X12.0424 Y14.0434
G01 X12.0350 Y14.0592
G01 X12.0308 Y14.0701
G01 X12.0271 Y14.0812
G01 X12.0240 Y14.0924
G01 X12.0203 Y14.1094
G01 X12.0128 Y14.1583
G01 X12.0116 Y14.1704
G01 X12.0109 Y14.1886
G01 X12.0109 Y17.2378
G01 X12.0043 Y17.3023
G01 X11.9662 Y17.4174
G01 X11.9035 Y17.5190
G01 X11.8190 Y17.6035
G01 X11.7174 Y17.6662
G01 X11.6023 Y17.7043
G01 X11.5378 Y17.7109
G01 X10.9622 Y17.7109
G01 X10.8977 Y17.7043
G01 X10.7826 Y17.6662
G01 X10.6810 Y17.6035
G01 X10.5965 Y17.5190
G01 X10.5530 Y17.4489
G01 X10.5428 Y17.4352
G01 X10.5317 Y17.4222
G01 X10.5238 Y17.4140
G01 X10.5155 Y17.4061
G01 X10.4591 Y17.3555
G01 X10.4451 Y17.3444
G01 X10.4303 Y17.3344
G01 X10.4148 Y17.3255
G01 X10.3987 Y17.3178
G01 X10.3877 Y17.3133
G01 X10.3765 Y17.3094
G01 X10.3593 Y17.3046
G01 X10.3418 Y17.3011
G01 X10.2669 Y17.2890
G01 X10.2492 Y17.2872
G01 X10.2373 Y17.2867
G01 X10.2194 Y17.2872
G01 X10.2076 Y17.2882
G01 X10.1958 Y17.2898
G01 X10.1841 Y17.2920
G01 X10.1725 Y17.2948
G01 X10.1555 Y17.3001
G01 X10.1388 Y17.3066
G01 X10.0748 Y17.3344
G01 X10.0640 Y17.3394
G01 X10.0483 Y17.3479
G01 X10.0382 Y17.3542
G01 X10.0284 Y17.3610
G01 X10.0145 Y17.3721
G01 X10.0056 Y17.3801
G01 X9.9972 Y17.3885
G01 X9.9892 Y17.3973
G01 X9.9560 Y17.4359
G01 X9.9494 Y17.4447
G01 X9.9432 Y17.4538
G01 X9.9031 Y17.5187
G01 X9.8187 Y17.6031
G01 X9.7397 Y17.6518
G01 X9.7397 Y17.6268
G01 X9.7720 Y17.6071
G01 X9.8013 Y17.5857
G01 X9.8151 Y17.5747
G01 X9.8462 Y17.5462
G01 X9.8747 Y17.5151
G01 X9.8857 Y17.5013
G01 X9.9071 Y17.4720
G01 X9.9290 Y17.4360
G01 X9.9371 Y17.4203
G01 X9.9523 Y17.3874
G01 X9.9648 Y17.3533
G01 X9.9702 Y17.3365
G01 X9.9790 Y17.3013
G01 X9.9822 Y17.2839
G01 X9.9873 Y17.2480
G01 X9.9893 Y17.2118
G01 X9.9896 Y17.2000
G01 X9.9896 Y12.2000
G01 X9.9878 Y12.1579
G01 X9.9858 Y12.1403
G01 X9.9802 Y12.1045
G01 X9.9717 Y12.0692
G01 X9.9668 Y12.0523
G01 X9.9523 Y12.0126
G01 X9.9371 Y11.9797
G01 X9.9290 Y11.9640
G01 X9.9071 Y11.9280
G01 X9.8857 Y11.8987
G01 X9.8747 Y11.8849
G01 X9.8462 Y11.8538
G01 X9.8151 Y11.8253
G01 X9.8013 Y11.8143
G01 X9.7720 Y11.7929
G01 X9.7396 Y11.7732
G01 X9.7396 Y11.7481
G01 X9.8187 Y11.7969
G01 X9.9031 Y11.8813
G01 X9.9433 Y11.9463
G01 X9.9497 Y11.9557
G01 X9.9566 Y11.9648
G01 X9.9677 Y11.9778
G01 X9.9756 Y11.9860
G01 X10.0008 Y12.0091
G01 X10.0209 Y12.0296
G01 X10.0296 Y12.0377
G01 X10.0387 Y12.0454
G01 X10.0481 Y12.0526
G01 X10.0629 Y12.0625
G01 X10.0732 Y12.0685
G01 X10.0899 Y12.0772
G01 X10.1007 Y12.0822
G01 X10.1117 Y12.0867
G01 X10.1286 Y12.0924
G01 X10.1459 Y12.0967
G01 X10.1801 Y12.1026
G01 X10.2139 Y12.1102
G01 X10.2256 Y12.1120
G01 X10.2434 Y12.1137
G01 X10.2553 Y12.1140
G01 X10.2672 Y12.1138
G01 X10.2919 Y12.1118
G01 X10.3095 Y12.1091
G01 X10.3269 Y12.1052
G01 X10.3383 Y12.1018
G01 X10.3495 Y12.0979
G01 X10.3814 Y12.0844
G01 X10.4136 Y12.0726
G01 X10.4293 Y12.0655
G01 X10.4445 Y12.0572
G01 X10.4543 Y12.0511
G01 X10.4638 Y12.0446
G01 X10.4846 Y12.0282
G01 X10.4976 Y12.0162
G01 X10.5249 Y11.9879
G01 X10.5375 Y11.9729
G01 X10.5452 Y11.9627
G01 X10.5524 Y11.9524
G01 X10.5965 Y11.8810
G01 X10.6382 Y11.8393
G01 X10.6466 Y11.8304
G01 X10.6584 Y11.8163
G01 X10.6667 Y11.8055
G01 X10.6732 Y11.7961
G01 X10.6822 Y11.7816
G01 X10.6876 Y11.7715
G01 X10.6947 Y11.7560
G01 X10.7012 Y11.7395
G01 X10.7097 Y11.7238
G01 X10.7148 Y11.7132
G01 X10.7215 Y11.6969
G01 X10.7270 Y11.6801
G01 X10.7300 Y11.6687
G01 X10.7324 Y11.6572
G01 X10.7361 Y11.6330
G01 X10.7381 Y11.6149
G01 X10.7391 Y11.5930
G01 X10.7391 Y11.1470
G01 X10.7587 Y11.0483
G01 X10.7973 Y10.9553
G01 X10.8532 Y10.8716
G01 X13.2161 Y8.5087
G01 X13.2239 Y8.5005
G01 X13.2314 Y8.4919
G01 X13.2418 Y8.4783
G01 X13.2482 Y8.4689
G01 X13.2541 Y8.4591
G01 X13.2932 Y8.3876
G01 X13.2984 Y8.3768
G01 X13.3030 Y8.3659
G01 X13.3071 Y8.3547
G01 X13.3106 Y8.3433
G01 X13.3136 Y8.3318
G01 X13.3160 Y8.3202
G01 X13.3178 Y8.3084
G01 X13.3190 Y8.2966
G01 X13.3196 Y8.2847
G01 X13.3195 Y8.2668
G01 X13.3141 Y8.1912
G01 X13.3122 Y8.1735
G01 X13.3102 Y8.1617
G01 X13.3061 Y8.1444
G01 X13.3026 Y8.1330
G01 X13.2986 Y8.1218
G01 X13.2915 Y8.1054
G01 X13.2861 Y8.0948
G01 X13.2802 Y8.0844
G01 X13.2738 Y8.0744
G01 X13.2670 Y8.0647
G01 X13.2251 Y8.0088
G01 X13.2179 Y7.9996
G01 X13.2102 Y7.9908
G01 X13.2021 Y7.9824
G01 X13.1936 Y7.9743
G01 X13.1791 Y7.9622
G01 X13.0369 Y7.8200
G01 X13.0299 Y7.8118
G01 X13.0221 Y7.8034
G01 X13.0098 Y7.7916
G01 X12.9966 Y7.7806
G01 X12.9365 Y7.7344
G01 X12.9218 Y7.7244
G01 X12.9063 Y7.7155
G01 X12.8956 Y7.7103
G01 X12.8791 Y7.7034
G01 X12.8622 Y7.6977
G01 X12.8449 Y7.6934
G01 X12.8332 Y7.6912
G01 X12.8214 Y7.6896
G01 X12.7459 Y7.6830
G01 X12.7340 Y7.6823
G01 X12.7221 Y7.6822
G01 X12.7102 Y7.6826
G01 X12.6924 Y7.6844
G01 X12.6807 Y7.6863
G01 X12.6691 Y7.6889
G01 X12.6576 Y7.6919
G01 X12.6462 Y7.6956
G01 X12.6351 Y7.6998
G01 X12.6188 Y7.7071
G01 X12.5518 Y7.7425
G01 X12.5414 Y7.7482
G01 X12.5314 Y7.7545
G01 X12.5169 Y7.7649
G01 X12.5077 Y7.7724
G01 X12.4946 Y7.7845
G01 X12.4825 Y7.7975
G01 X12.4632 Y7.8200
G01 X12.3214 Y7.9618
G01 X12.1608 Y8.0784
G01 X11.9840 Y8.1685
G01 X11.7953 Y8.2298
G01 X11.5992 Y8.2609
G01 X11.4008 Y8.2609
G01 X11.1990 Y8.2290
G01 X11.1820 Y8.2273
G01 X11.1649 Y8.2269
G01 X11.1535 Y8.2273
G01 X11.1365 Y8.2289
G01 X11.0672 Y8.2378
G01 X11.0496 Y8.2408
G01 X11.0323 Y8.2450
G01 X11.0153 Y8.2505
G01 X10.9988 Y8.2573
G01 X10.9829 Y8.2652
G01 X10.9676 Y8.2744
G01 X10.9203 Y8.3067
G01 X10.9071 Y8.3169
G01 X10.8946 Y8.3280
G01 X10.2257 Y8.9968
G01 X10.1420 Y9.0527
G01 X10.0490 Y9.0913
G01 X9.9503 Y9.1109
G01 X8.6226 Y9.1109
G01 X8.6112 Y9.1112
G01 X8.5942 Y9.1126
G01 X8.5829 Y9.1142
G01 X8.5717 Y9.1164
G01 X8.5606 Y9.1191
G01 X8.4824 Y9.1420
G01 X8.4712 Y9.1459
G01 X8.4602 Y9.1504
G01 X8.4494 Y9.1554
G01 X8.4337 Y9.1639
G01 X8.4236 Y9.1702
G01 X8.4091 Y9.1805
G01 X8.3999 Y9.1880
G01 X8.3911 Y9.1960
G01 X8.3499 Y9.2352
G01 X8.3387 Y9.2476
G01 X8.3285 Y9.2608
G01 X8.2118 Y9.4214
G01 X8.0714 Y9.5618
G01 X7.9062 Y9.6819
G01 X7.8930 Y9.6927
G01 X7.8806 Y9.7045
G01 X7.8728 Y9.7128
G01 X7.8654 Y9.7215
G01 X7.8156 Y9.7861
G01 X7.8088 Y9.7958
G01 X7.8026 Y9.8059
G01 X7.7968 Y9.8163
G01 X7.7915 Y9.8270
G01 X7.7868 Y9.8379
G01 X7.7807 Y9.8546
G01 X7.7774 Y9.8660
G01 X7.7746 Y9.8776
G01 X7.7640 Y9.9339
G01 X7.7619 Y9.9504
G01 X7.7610 Y9.9671
G01 X7.7609 Y11.5878
G01 X7.7615 Y11.6049
G01 X7.7633 Y11.6219
G01 X7.7664 Y11.6387
G01 X7.7704 Y11.6544
G01 X7.7724 Y11.6711
G01 X7.7746 Y11.6827
G01 X7.7774 Y11.6942
G01 X7.7825 Y11.7111
G01 X7.7889 Y11.7276
G01 X7.7938 Y11.7383
G01 X7.8115 Y11.7725
G01 X7.8210 Y11.7880
G01 X7.8306 Y11.8017
G01 X7.8454 Y11.8211
G01 X7.8534 Y11.8304
G01 X7.8618 Y11.8393
G01 X7.9035 Y11.8810
G01 X7.9476 Y11.9524
G01 X7.9548 Y11.9627
G01 X7.9661 Y11.9774
G01 X7.9735 Y11.9861
G01 X7.9813 Y11.9944
G01 X7.9937 Y12.0061
G01 X8.0069 Y12.0170
G01 X8.0245 Y12.0298
G01 X8.0455 Y12.0483
G01 X8.0549 Y12.0556
G01 X8.0697 Y12.0656
G01 X8.0799 Y12.0717
G01 X8.0905 Y12.0772
G01 X8.1013 Y12.0822
G01 X8.1200 Y12.0900
G01 X8.1312 Y12.0942
G01 X8.1425 Y12.0977
G01 X8.1599 Y12.1020
G01 X8.1775 Y12.1050
G01 X8.1893 Y12.1063
G01 X8.2113 Y12.1076
G01 X8.2331 Y12.1110
G01 X8.2449 Y12.1124
G01 X8.2627 Y12.1133
G01 X8.2746 Y12.1131
G01 X8.2865 Y12.1124
G01 X8.3042 Y12.1102
G01 X8.3242 Y12.1066
G01 X8.3358 Y12.1040
G01 X8.3473 Y12.1009
G01 X8.3586 Y12.0972
G01 X8.3697 Y12.0929
G01 X8.3806 Y12.0881
G01 X8.3913 Y12.0828
G01 X8.4105 Y12.0720
G01 X8.4307 Y12.0631
G01 X8.4413 Y12.0579
G01 X8.4568 Y12.0490
G01 X8.4716 Y12.0390
G01 X8.4855 Y12.0279
G01 X8.5049 Y12.0101
G01 X8.5133 Y12.0017
G01 X8.5251 Y11.9883
G01 X8.5363 Y11.9734
G01 X8.5473 Y11.9597
G01 X8.5538 Y11.9508
G01 X8.5969 Y11.8813
G01 X8.6813 Y11.7969
G01 X8.7604 Y11.7481
G01 X8.7604 Y11.7732
G01 X8.7280 Y11.7929
G01 X8.6987 Y11.8143
G01 X8.6849 Y11.8253
G01 X8.6538 Y11.8538
G01 X8.6253 Y11.8849
G01 X8.6143 Y11.8987
G01 X8.5929 Y11.9280
G01 X8.5710 Y11.9640
G01 X8.5629 Y11.9797
G01 X8.5477 Y12.0126
G01 X8.5332 Y12.0523
G01 X8.5283 Y12.0692
G01 X8.5198 Y12.1045
G01 X8.5142 Y12.1403
G01 X8.5122 Y12.1579
G01 X8.5104 Y12.2000
G01 X8.5104 Y17.2000
G01 X8.5107 Y17.2118
G01 X8.5127 Y17.2480
G01 X8.5178 Y17.2839
G01 X8.5210 Y17.3013
G01 X8.5298 Y17.3365
G01 X8.5352 Y17.3533
G01 X8.5477 Y17.3874
G01 X8.5629 Y17.4203
G01 X8.5710 Y17.4360
G01 X8.5929 Y17.4720
G01 X8.6143 Y17.5013
G01 X8.6253 Y17.5151
G01 X8.6538 Y17.5462
G01 X8.6849 Y17.5747
G01 X8.6987 Y17.5857
G01 X8.7280 Y17.6071
G01 X8.7603 Y17.6268
G01 X8.7603 Y17.6518
G01 X8.6813 Y17.6031
G01 X8.5969 Y17.5187
G01 X8.5536 Y17.4489
G01 X8.5434 Y17.4352
G01 X8.5323 Y17.4222
G01 X8.5244 Y17.4140
G01 X8.5161 Y17.4061
G01 X8.4641 Y17.3594
G01 X8.4551 Y17.3517
G01 X8.4457 Y17.3444
G01 X8.4309 Y17.3344
G01 X8.4206 Y17.3283
G01 X8.4101 Y17.3228
G01 X8.3993 Y17.3178
G01 X8.3883 Y17.3133
G01 X8.3714 Y17.3076
G01 X8.3599 Y17.3046
G01 X8.3482 Y17.3021
G01 X8.2734 Y17.2898
G01 X8.2616 Y17.2882
G01 X8.2498 Y17.2872
G01 X8.2379 Y17.2867
G01 X8.2260 Y17.2869
G01 X8.2141 Y17.2876
G01 X8.2023 Y17.2890
G01 X8.1905 Y17.2909
G01 X8.1789 Y17.2934
G01 X8.1674 Y17.2964
G01 X8.1561 Y17.3001
G01 X8.1394 Y17.3066
G01 X8.0699 Y17.3369
G01 X8.0593 Y17.3421
G01 X8.0489 Y17.3479
G01 X8.0339 Y17.3576
G01 X8.0196 Y17.3683
G01 X8.0062 Y17.3801
G01 X7.9937 Y17.3928
G01 X7.9601 Y17.4316
G01 X7.9500 Y17.4447
G01 X7.9408 Y17.4585
G01 X7.9035 Y17.5190
G01 X7.8190 Y17.6035
G01 X7.7174 Y17.6662
G01 X7.6023 Y17.7043
G01 X7.5378 Y17.7109
G01 X6.9622 Y17.7109
G01 X6.8977 Y17.7043
G01 X6.7826 Y17.6662
G01 X6.6810 Y17.6035
G01 X6.5965 Y17.5190
G01 X6.5338 Y17.4174
G01 X6.4957 Y17.3023
G01 X6.4891 Y17.2378
G01 X6.4891 Y14.1886
G01 X6.4885 Y14.1715
G01 X6.4874 Y14.1602
G01 X6.4858 Y14.1489
G01 X6.4824 Y14.1321
G01 X6.4597 Y14.0541
G01 X6.4541 Y14.0371
G01 X6.4496 Y14.0261
G01 X6.4446 Y14.0153
G01 X6.4390 Y14.0048
G01 X6.4330 Y13.9946
G01 X6.4264 Y13.9846
G01 X6.4194 Y13.9750
G01 X6.4119 Y13.9658
G01 X6.4039 Y13.9570
G01 X6.3955 Y13.9485
G01 X6.3867 Y13.9405
G01 X6.3294 Y13.8909
G01 X6.3200 Y13.8836
G01 X6.3103 Y13.8767
G01 X6.3002 Y13.8703
G01 X6.2899 Y13.8645
G01 X6.2738 Y13.8567
G01 X6.2573 Y13.8501
G01 X6.2402 Y13.8447
G01 X6.2287 Y13.8419
G01 X6.2170 Y13.8396
G01 X6.1420 Y13.8287
G01 X6.1242 Y13.8268
G01 X6.1123 Y13.8263
G01 X6.0945 Y13.8266
G01 X6.0826 Y13.8276
G01 X6.0708 Y13.8292
G01 X6.0591 Y13.8313
G01 X6.0418 Y13.8356
G01 X6.0304 Y13.8391
G01 X6.0138 Y13.8455
G01 X5.9448 Y13.8770
G01 X5.9343 Y13.8820
G01 X5.9241 Y13.8876
G01 X5.9141 Y13.8937
G01 X5.8998 Y13.9038
G01 X5.8863 Y13.9148
G01 X5.8736 Y13.9268
G01 X5.8618 Y13.9397
G01 X5.8374 Y13.9683
G01 X5.8298 Y13.9777
G01 X5.8227 Y13.9876
G01 X5.8031 Y14.0187
G01 X5.7187 Y14.1031
G01 X5.6172 Y14.1657
G01 X5.5022 Y14.2038
G01 X5.4378 Y14.2104
G01 X5.3397 Y14.2104
G01 X5.3397 Y14.1896
G01 X5.4059 Y14.1895
G01 X5.4363 Y14.1881
G01 X5.4538 Y14.1866
G01 X5.4839 Y14.1822
G01 X5.5013 Y14.1790
G01 X5.5365 Y14.1702
G01 X5.5533 Y14.1648
G01 X5.5874 Y14.1523
G01 X5.6203 Y14.1371
G01 X5.6308 Y14.1318
G01 X5.6410 Y14.1260
G01 X5.6720 Y14.1071
G01 X5.7060 Y14.0821
G01 X5.7195 Y14.0708
G01 X5.7420 Y14.0503
G01 X5.7503 Y14.0420
G01 X5.7708 Y14.0195
G01 X5.7821 Y14.0060
G01 X5.8003 Y13.9816
G01 X5.8071 Y13.9720
G01 X5.8134 Y13.9621
G01 X5.8290 Y13.9360
G01 X5.8345 Y13.9256
G01 X5.8476 Y13.8981
G01 X5.8545 Y13.8819
G01 X5.8685 Y13.8421
G01 X5.8776 Y13.8070
G01 X5.8813 Y13.7897
G01 X5.8873 Y13.7480
G01 X5.8893 Y13.7118
G01 X5.8896 Y13.7000
G01 X5.8896 Y11.2000
G01 X5.8893 Y11.1882
G01 X5.8873 Y11.1520
G01 X5.8822 Y11.1161
G01 X5.8790 Y11.0987
G01 X5.8717 Y11.0692
G01 X5.8668 Y11.0523
G01 X5.8545 Y11.0181
G01 X5.8476 Y11.0019
G01 X5.8318 Y10.9692
G01 X5.8134 Y10.9379
G01 X5.8038 Y10.9231
G01 X5.7857 Y10.8987
G01 X5.7747 Y10.8849
G01 X5.7503 Y10.8580
G01 X5.7420 Y10.8497
G01 X5.7195 Y10.8292
G01 X5.7060 Y10.8179
G01 X5.6769 Y10.7962
G01 X5.6621 Y10.7866
G01 X5.6360 Y10.7710
G01 X5.6203 Y10.7629
G01 X5.5874 Y10.7477
G01 X5.5533 Y10.7352
G01 X5.5421 Y10.7315
G01 X5.5308 Y10.7283
G01 X5.4955 Y10.7198
G01 X5.4597 Y10.7142
G01 X5.4480 Y10.7127
G01 X5.4059 Y10.7105
G01 X5.3396 Y10.7104
G00 Z2.0000
G00 X5.2483 Y10.8017
G01 F30.00
G01 Z-0.0400
G01 F80.00
G01 X5.2483 Y10.5983
G01 X5.4424 Y10.5983
G01 X5.5215 Y10.6064
G01 X5.6560 Y10.6510
G01 X5.7757 Y10.7248
G01 X5.8752 Y10.8243
G01 X5.9490 Y10.9440
G01 X5.9936 Y11.0785
G01 X6.0017 Y11.1576
G01 X6.0017 Y11.7112
G01 X6.0023 Y11.7253
G01 X6.0032 Y11.7323
G01 X6.0051 Y11.7428
G01 X6.0131 Y11.7715
G01 X6.0178 Y11.7978
G01 X6.0217 Y11.8120
G01 X6.0255 Y11.8224
G01 X6.0301 Y11.8324
G01 X6.0439 Y11.8569
G01 X6.0480 Y11.8631
G01 X6.0546 Y11.8719
G01 X6.0645 Y11.8828
G01 X6.0698 Y11.8879
G01 X6.0871 Y11.9030
G01 X6.1027 Y11.9200
G01 X6.1079 Y11.9251
G01 X6.1162 Y11.9324
G01 X6.1250 Y11.9391
G01 X6.1375 Y11.9469
G01 X6.1559 Y11.9566
G01 X6.1694 Y11.9625
G01 X6.1798 Y11.9661
G01 X6.1941 Y11.9696
G01 X6.2205 Y11.9736
G01 X6.2427 Y11.9795
G01 X6.2499 Y11.9810
G01 X6.2608 Y11.9826
G01 X6.2718 Y11.9834
G01 X6.2866 Y11.9832
G01 X6.3073 Y11.9815
G01 X6.3182 Y11.9799
G01 X6.3290 Y11.9775
G01 X6.3361 Y11.9755
G01 X6.3465 Y11.9718
G01 X6.3708 Y11.9609
G01 X6.3927 Y11.9538
G01 X6.3996 Y11.9512
G01 X6.4096 Y11.9467
G01 X6.4161 Y11.9432
G01 X6.4256 Y11.9375
G01 X6.4345 Y11.9311
G01 X6.4535 Y11.9160
G01 X6.4589 Y11.9111
G01 X6.4760 Y11.8935
G01 X6.4817 Y11.8874
G01 X6.4897 Y11.8777
G01 X6.4977 Y11.8670
G01 X6.5244 Y11.8240
G01 X6.5749 Y11.7735
G01 X6.5820 Y11.7654
G01 X6.5923 Y11.7523
G01 X6.5999 Y11.7404
G01 X6.6048 Y11.7310
G01 X6.6164 Y11.7044
G01 X6.6269 Y11.6852
G01 X6.6317 Y11.6754
G01 X6.6371 Y11.6619
G01 X6.6393 Y11.6550
G01 X6.6419 Y11.6444
G01 X6.6452 Y11.6250
G01 X6.6465 Y11.6140
G01 X6.6478 Y11.5917
G01 X6.6478 Y9.9726
G01 X6.6472 Y9.9585
G01 X6.6463 Y9.9515
G01 X6.6444 Y9.9411
G01 X6.6418 Y9.9308
G01 X6.6221 Y9.8638
G01 X6.6173 Y9.8499
G01 X6.6128 Y9.8398
G01 X6.6075 Y9.8301
G01 X6.5994 Y9.8179
G01 X6.5926 Y9.8092
G01 X6.5538 Y9.7680
G01 X6.5410 Y9.7565
G01 X6.3691 Y9.6314
G01 X6.2186 Y9.4809
G01 X6.0935 Y9.3087
G01 X5.9969 Y9.1191
G01 X5.9311 Y8.9166
G01 X5.8978 Y8.7064
G01 X5.8978 Y8.4936
G01 X5.9311 Y8.2834
