(G-CODE GENERATED BY FLATCAM v8.994 - www.flatcam.org - Version Date: 2020/11/7)

(Name: Zoetrope Carusel V4 - External Power Switch_V2-F_Cu.gbr_iso_combined_cnc)
(Type: G-code from Geometry)
(Units: MM)

(Created on Saturday, 07 March 2026 at 20:17)

(This preprocessor is the default preprocessor used by FlatCAM.)
(It is made to work with MACH3 compatible motion controllers.)

(TOOL DIAMETER: 0.1176 mm)
(Feedrate_XY: 75.0 mm/min)
(Feedrate_Z: 30.0 mm/min)
(Feedrate rapids 1500.0 mm/min)

(Z_Cut: -0.0499 mm)
(Z_Move: 2.0 mm)
(Z Start: None mm)
(Z End: 20.0 mm)
(X,Y End: None mm)
(Steps per circle: 64)
(Preprocessor Geometry: default)

(X range:   -0.1757 ...   19.4686  mm)
(Y range:   -0.1757 ...   18.6757  mm)

(Spindle Speed: 10000.0 RPM)
G21
G90
G94

G01 F75.00

M5
G00 Z15.0000
G00 X0.0000 Y0.0000
T2
M6    
(MSG, Change to Tool Dia = 0.1176)
M0
G00 Z15.0000

M03 S10000.0
G01 F75.00
G00 X3.2983 Y3.7461
G01 F30.00
G01 Z-0.0499
G01 F75.00
G01 X3.3022 Y3.7288
G01 X3.9671 Y1.7343
G01 X3.9743 Y1.7180
G01 X3.9793 Y1.7119
G01 X3.9833 Y1.7052
G01 X3.9918 Y1.6976
G01 X3.9993 Y1.6892
G01 X4.0048 Y1.6860
G01 X4.0099 Y1.6821
G01 X4.0206 Y1.6784
G01 X4.0308 Y1.6735
G01 X4.0371 Y1.6726
G01 X4.0432 Y1.6710
G01 X4.0545 Y1.6717
G01 X4.0658 Y1.6710
G01 X4.0720 Y1.6726
G01 X4.0783 Y1.6735
G01 X4.0884 Y1.6784
G01 X4.0991 Y1.6821
G01 X4.1042 Y1.6860
G01 X4.1097 Y1.6892
G01 X4.1172 Y1.6976
G01 X4.1257 Y1.7052
G01 X4.1297 Y1.7119
G01 X4.1347 Y1.7180
G01 X4.1419 Y1.7343
G01 X4.8068 Y3.7288
G01 X4.8107 Y3.7461
G01 X4.8080 Y3.7841
G01 X4.7923 Y3.8156
G01 X4.7658 Y3.8386
G01 X4.7324 Y3.8497
G01 X4.6974 Y3.8472
G01 X4.6660 Y3.8315
G01 X4.6410 Y3.8027
G01 X4.6337 Y3.7865
G01 X4.1098 Y2.2147
G01 X4.1063 Y2.2069
G01 X4.1017 Y2.1996
G01 X4.0960 Y2.1931
G01 X4.0895 Y2.1874
G01 X4.0809 Y2.1822
G01 X4.0729 Y2.1789
G01 X4.0645 Y2.1768
G01 X4.0559 Y2.1759
G01 X4.0473 Y2.1763
G01 X4.0389 Y2.1780
G01 X4.0307 Y2.1809
G01 X4.0219 Y2.1858
G01 X4.0151 Y2.1911
G01 X4.0082 Y2.1984
G01 X4.0034 Y2.2056
G01 X3.9992 Y2.2147
G01 X3.4753 Y3.7865
G01 X3.4680 Y3.8027
G01 X3.4431 Y3.8315
G01 X3.4116 Y3.8472
G01 X3.3766 Y3.8497
G01 X3.3432 Y3.8386
G01 X3.3167 Y3.8156
G01 X3.3010 Y3.7841
G01 X3.2983 Y3.7461
G00 Z2.0000
G00 X3.3872 Y3.7529
G01 F30.00
G01 Z-0.0499
G01 F75.00
G01 X4.0494 Y1.7663
G01 X4.0512 Y1.7629
G01 X4.0546 Y1.7599
G01 X4.0578 Y1.7629
G01 X4.0596 Y1.7663
G01 X4.7217 Y3.7526
G01 X4.7213 Y3.7604
G01 X4.7160 Y3.7545
G01 X4.1915 Y2.1814
G01 X4.1872 Y2.1715
G01 X4.1822 Y2.1620
G01 X4.1766 Y2.1528
G01 X4.1702 Y2.1440
G01 X4.1633 Y2.1358
G01 X4.1557 Y2.1281
G01 X4.1476 Y2.1209
G01 X4.1390 Y2.1144
G01 X4.1299 Y2.1085
G01 X4.1205 Y2.1033
G01 X4.1107 Y2.0988
G01 X4.0971 Y2.0940
G01 X4.0866 Y2.0913
G01 X4.0760 Y2.0893
G01 X4.0653 Y2.0881
G01 X4.0545 Y2.0877
G01 X4.0437 Y2.0881
G01 X4.0330 Y2.0893
G01 X4.0224 Y2.0913
G01 X4.0119 Y2.0940
G01 X4.0017 Y2.0975
G01 X3.9918 Y2.1018
G01 X3.9822 Y2.1067
G01 X3.9730 Y2.1124
G01 X3.9642 Y2.1187
G01 X3.9560 Y2.1256
G01 X3.9482 Y2.1332
G01 X3.9411 Y2.1412
G01 X3.9325 Y2.1528
G01 X3.9268 Y2.1620
G01 X3.9218 Y2.1715
G01 X3.9175 Y2.1814
G01 X3.3930 Y3.7545
G01 X3.3879 Y3.7605
G01 X3.3872 Y3.7529
G00 Z2.0000
G00 X5.1090 Y1.7779
G01 F30.00
G01 Z-0.0499
G01 F75.00
G01 X5.1090 Y1.7428
G01 X5.1225 Y1.7103
G01 X5.1473 Y1.6855
G01 X5.1825 Y1.6709
G01 X5.2003 Y1.6692
G01 X6.4326 Y1.6692
G01 X6.4503 Y1.6709
G01 X6.4855 Y1.6855
G01 X6.5103 Y1.7103
G01 X6.5238 Y1.7428
G01 X6.5238 Y1.7779
G01 X6.5103 Y1.8104
G01 X6.4855 Y1.8352
G01 X6.4503 Y1.8498
G01 X6.4326 Y1.8516
G01 X5.5566 Y1.8516
G01 X5.5509 Y1.8522
G01 X5.5452 Y1.8533
G01 X5.5357 Y1.8566
G01 X5.5268 Y1.8615
G01 X5.5190 Y1.8678
G01 X5.5123 Y1.8753
G01 X5.5070 Y1.8839
G01 X5.5032 Y1.8933
G01 X5.5011 Y1.9032
G01 X5.5007 Y1.9089
G01 X5.5010 Y1.9161
G01 X5.5021 Y1.9232
G01 X5.5037 Y1.9288
G01 X5.5063 Y1.9355
G01 X5.5091 Y1.9406
G01 X5.5123 Y1.9454
G01 X5.5169 Y1.9509
G01 X6.4027 Y2.8367
G01 X6.4142 Y2.8508
G01 X6.4166 Y2.8552
G01 X6.4202 Y2.8605
G01 X6.4277 Y2.8771
G01 X6.5211 Y3.1574
G01 X6.5249 Y3.1735
G01 X6.5267 Y3.1918
G01 X6.5267 Y3.3765
G01 X6.5249 Y3.3947
G01 X6.5235 Y3.3994
G01 X6.5223 Y3.4058
G01 X6.5157 Y3.4228
G01 X6.4231 Y3.6081
G01 X6.4144 Y3.6222
G01 X6.4027 Y3.6364
G01 X6.3115 Y3.7276
G01 X6.2988 Y3.7382
G01 X6.2832 Y3.7480
G01 X6.0979 Y3.8406
G01 X6.0809 Y3.8472
G01 X6.0759 Y3.8480
G01 X6.0698 Y3.8498
G01 X6.0516 Y3.8516
G01 X5.5812 Y3.8516
G01 X5.5631 Y3.8498
G01 X5.5583 Y3.8484
G01 X5.5520 Y3.8472
G01 X5.5350 Y3.8406
G01 X5.3496 Y3.7480
G01 X5.3355 Y3.7393
G01 X5.3213 Y3.7276
G01 X5.2302 Y3.6364
G01 X5.2189 Y3.6227
G01 X5.2043 Y3.5875
G01 X5.2043 Y3.5523
G01 X5.2177 Y3.5199
G01 X5.2426 Y3.4950
G01 X5.2750 Y3.4816
G01 X5.3102 Y3.4816
G01 X5.3454 Y3.4962
G01 X5.3591 Y3.5074
G01 X5.4351 Y3.5834
G01 X5.4406 Y3.5882
G01 X5.4453 Y3.5916
G01 X5.4504 Y3.5944
G01 X5.5874 Y3.6630
G01 X5.5940 Y3.6658
G01 X5.5995 Y3.6674
G01 X5.6066 Y3.6687
G01 X5.6137 Y3.6692
G01 X6.0191 Y3.6692
G01 X6.0291 Y3.6683
G01 X6.0388 Y3.6658
G01 X6.0454 Y3.6630
G01 X6.1824 Y3.5944
G01 X6.1887 Y3.5908
G01 X6.1934 Y3.5873
G01 X6.1977 Y3.5834
G01 X6.2585 Y3.5226
G01 X6.2624 Y3.5183
G01 X6.2659 Y3.5136
G01 X6.2695 Y3.5073
G01 X6.3381 Y3.3703
G01 X6.3404 Y3.3650
G01 X6.3425 Y3.3582
G01 X6.3438 Y3.3512
G01 X6.3443 Y3.3440
G01 X6.3442 Y3.2104
G01 X6.3434 Y3.2031
G01 X6.3412 Y3.1947
G01 X6.2649 Y2.9657
G01 X6.2628 Y2.9603
G01 X6.2602 Y2.9552
G01 X6.2572 Y2.9503
G01 X6.2536 Y2.9458
G01 X5.1349 Y1.8269
G01 X5.1236 Y1.8131
G01 X5.1090 Y1.7779
G00 Z2.0000
G00 X5.1972 Y1.7603
G01 F30.00
G01 Z-0.0499
G01 F75.00
G01 X5.2046 Y1.7574
G01 X6.4282 Y1.7574
G01 X6.4356 Y1.7603
G01 X6.4282 Y1.7634
G01 X5.5595 Y1.7634
G01 X5.5523 Y1.7635
G01 X5.5415 Y1.7645
G01 X5.5308 Y1.7662
G01 X5.5203 Y1.7687
G01 X5.5100 Y1.7720
G01 X5.4966 Y1.7775
G01 X5.4870 Y1.7825
G01 X5.4749 Y1.7902
G01 X5.4662 Y1.7967
G01 X5.4581 Y1.8039
G01 X5.4482 Y1.8143
G01 X5.4414 Y1.8228
G01 X5.4353 Y1.8317
G01 X5.4299 Y1.8411
G01 X5.4251 Y1.8508
G01 X5.4211 Y1.8608
G01 X5.4178 Y1.8712
G01 X5.4153 Y1.8817
G01 X5.4141 Y1.8888
G01 X5.4129 Y1.8995
G01 X5.4125 Y1.9068
G01 X5.4127 Y1.9176
G01 X5.4132 Y1.9248
G01 X5.4147 Y1.9355
G01 X5.4178 Y1.9496
G01 X5.4199 Y1.9565
G01 X5.4237 Y1.9666
G01 X5.4282 Y1.9765
G01 X5.4316 Y1.9828
G01 X5.4393 Y1.9950
G01 X5.4459 Y2.0036
G01 X5.4506 Y2.0091
G01 X6.3372 Y2.8960
G01 X6.3410 Y2.9006
G01 X6.3429 Y2.9037
G01 X6.3454 Y2.9091
G01 X6.4360 Y3.1811
G01 X6.4377 Y3.1886
G01 X6.4385 Y3.1962
G01 X6.4385 Y3.3722
G01 X6.4379 Y3.3781
G01 X6.4370 Y3.3817
G01 X6.4349 Y3.3872
G01 X6.3461 Y3.5648
G01 X6.3421 Y3.5712
G01 X6.3372 Y3.5771
G01 X6.2522 Y3.6621
G01 X6.2463 Y3.6670
G01 X6.2399 Y3.6710
G01 X6.0623 Y3.7598
G01 X6.0567 Y3.7619
G01 X6.0532 Y3.7628
G01 X6.0473 Y3.7634
G01 X5.5855 Y3.7634
G01 X5.5796 Y3.7628
G01 X5.5761 Y3.7619
G01 X5.5705 Y3.7598
G01 X5.3930 Y3.6710
G01 X5.3865 Y3.6670
G01 X5.3806 Y3.6621
G01 X5.2954 Y3.5768
G01 X5.2926 Y3.5698
G01 X5.2998 Y3.5729
G01 X5.3754 Y3.6483
G01 X5.3864 Y3.6578
G01 X5.3983 Y3.6662
G01 X5.4110 Y3.6733
G01 X5.5512 Y3.7434
G01 X5.5578 Y3.7463
G01 X5.5679 Y3.7500
G01 X5.5817 Y3.7538
G01 X5.5887 Y3.7552
G01 X5.5994 Y3.7567
G01 X5.6137 Y3.7574
G01 X6.0191 Y3.7574
G01 X6.0299 Y3.7570
G01 X6.0405 Y3.7558
G01 X6.0511 Y3.7538
G01 X6.0650 Y3.7500
G01 X6.0750 Y3.7463
G01 X6.0848 Y3.7418
G01 X6.2219 Y3.6733
G01 X6.2283 Y3.6699
G01 X6.2376 Y3.6642
G01 X6.2465 Y3.6578
G01 X6.2575 Y3.6483
G01 X6.3209 Y3.5850
G01 X6.3307 Y3.5742
G01 X6.3393 Y3.5625
G01 X6.3450 Y3.5532
G01 X6.3484 Y3.5468
G01 X6.4169 Y3.4097
G01 X6.4214 Y3.3999
G01 X6.4240 Y3.3932
G01 X6.4281 Y3.3795
G01 X6.4303 Y3.3690
G01 X6.4314 Y3.3619
G01 X6.4324 Y3.3476
G01 X6.4323 Y3.2060
G01 X6.4317 Y3.1987
G01 X6.4303 Y3.1879
G01 X6.4288 Y3.1808
G01 X6.4260 Y3.1703
G01 X6.3474 Y2.9344
G01 X6.3419 Y2.9211
G01 X6.3351 Y2.9085
G01 X6.3292 Y2.8995
G01 X6.3204 Y2.8882
G01 X6.3131 Y2.8803
G01 X5.2004 Y1.7676
G01 X5.1972 Y1.7603
G00 Z2.0000
G00 X5.2352 Y6.0648
G01 F30.00
G01 Z-0.0499
G01 F75.00
G01 X5.2352 Y6.0352
G01 X6.0380 Y6.0352
G01 X6.1032 Y6.0419
G01 X6.2190 Y6.0803
G01 X6.3215 Y6.1434
G01 X6.4066 Y6.2285
G01 X6.4697 Y6.3310
G01 X6.5081 Y6.4468
G01 X6.5148 Y6.5120
G01 X6.5148 Y6.6148
G01 X6.4852 Y6.6148
G01 X6.4851 Y6.5442
G01 X6.4834 Y6.5082
G01 X6.4822 Y6.4967
G01 X6.4779 Y6.4667
G01 X6.4759 Y6.4553
G01 X6.4733 Y6.4441
G01 X6.4643 Y6.4092
G01 X6.4607 Y6.3982
G01 X6.4483 Y6.3643
G01 X6.4331 Y6.3316
G01 X6.4279 Y6.3213
G01 X6.4066 Y6.2853
G01 X6.4002 Y6.2757
G01 X6.3822 Y6.2513
G01 X6.3751 Y6.2422
G01 X6.3675 Y6.2335
G01 X6.3431 Y6.2069
G01 X6.3165 Y6.1825
G01 X6.3078 Y6.1749
G01 X6.2743 Y6.1498
G01 X6.2598 Y6.1404
G01 X6.2287 Y6.1221
G01 X6.1910 Y6.1040
G01 X6.1749 Y6.0976
G01 X6.1408 Y6.0857
G01 X6.1003 Y6.0753
G01 X6.0833 Y6.0721
G01 X6.0533 Y6.0678
G01 X6.0418 Y6.0666
G01 X6.0115 Y6.0651
G01 X6.0000 Y6.0648
G01 X5.2352 Y6.0648
G00 Z2.0000
G00 X5.1470 Y6.1530
G01 F30.00
G01 Z-0.0499
G01 F75.00
G01 X5.1470 Y5.9470
G01 X6.0425 Y5.9470
G01 X6.1217 Y5.9551
G01 X6.2566 Y5.9998
G01 X6.3766 Y6.0738
G01 X6.4762 Y6.1735
G01 X6.5502 Y6.2934
G01 X6.5949 Y6.4283
G01 X6.6030 Y6.5075
G01 X6.6030 Y6.7030
G01 X6.3970 Y6.7030
G01 X6.3970 Y6.5500
G01 X6.3956 Y6.5183
G01 X6.3947 Y6.5075
G01 X6.3894 Y6.4725
G01 X6.3799 Y6.4348
G01 X6.3668 Y6.3981
G01 X6.3534 Y6.3693
G01 X6.3484 Y6.3597
G01 X6.3340 Y6.3355
G01 X6.3259 Y6.3235
G01 X6.3113 Y6.3038
G01 X6.3046 Y6.2954
G01 X6.2832 Y6.2719
G01 X6.2755 Y6.2643
G01 X6.2573 Y6.2478
G01 X6.2490 Y6.2409
G01 X6.2265 Y6.2241
G01 X6.2175 Y6.2179
G01 X6.1871 Y6.1999
G01 X6.1585 Y6.1861
G01 X6.1486 Y6.1819
G01 X6.1152 Y6.1701
G01 X6.0775 Y6.1606
G01 X6.0389 Y6.1549
G01 X6.0036 Y6.1530
G01 X5.1470 Y6.1530
G00 Z2.0000
G00 X5.0588 Y6.2412
G01 F30.00
G01 Z-0.0499
G01 F75.00
G01 X5.0588 Y5.8588
G01 X6.0470 Y5.8588
G01 X6.1403 Y5.8683
G01 X6.2941 Y5.9193
G01 X6.4316 Y6.0041
G01 X6.5459 Y6.1184
G01 X6.6307 Y6.2559
G01 X6.6817 Y6.4097
G01 X6.6912 Y6.5030
G01 X6.6912 Y6.7912
G01 X6.3088 Y6.7912
G01 X6.3088 Y6.5500
G01 X6.3074 Y6.5212
G01 X6.3034 Y6.4926
G01 X6.3022 Y6.4869
G01 X6.2955 Y6.4604
G01 X6.2853 Y6.4318
G01 X6.2723 Y6.4044
G01 X6.2568 Y6.3784
G01 X6.2387 Y6.3541
G01 X6.2163 Y6.3297
G01 X6.1936 Y6.3095
G01 X6.1716 Y6.2932
G01 X6.1481 Y6.2791
G01 X6.1182 Y6.2647
G01 X6.0910 Y6.2549
G01 X6.0631 Y6.2478
G01 X6.0574 Y6.2466
G01 X6.0303 Y6.2427
G01 X6.0014 Y6.2412
G01 X5.0588 Y6.2412
G00 Z2.0000
G00 X3.1912 Y6.7912
G01 F30.00
G01 Z-0.0499
G01 F75.00
G01 X2.8088 Y6.7912
G01 X2.8088 Y6.5030
G01 X2.8183 Y6.4097
G01 X2.8693 Y6.2559
G01 X2.9541 Y6.1184
G01 X3.0684 Y6.0041
G01 X3.2059 Y5.9193
G01 X3.3597 Y5.8683
G01 X3.4530 Y5.8588
G01 X4.4412 Y5.8588
G01 X4.4412 Y6.2412
G01 X3.5000 Y6.2412
G01 X3.4726 Y6.2425
G01 X3.4426 Y6.2466
G01 X3.4369 Y6.2478
G01 X3.4104 Y6.2545
G01 X3.3818 Y6.2647
G01 X3.3519 Y6.2791
G01 X3.3284 Y6.2932
G01 X3.3064 Y6.3095
G01 X3.2816 Y6.3316
G01 X3.2632 Y6.3519
G01 X3.2449 Y6.3761
G01 X3.2417 Y6.3809
G01 X3.2277 Y6.4044
G01 X3.2147 Y6.4318
G01 X3.2045 Y6.4604
G01 X3.1978 Y6.4869
G01 X3.1927 Y6.5197
G01 X3.1912 Y6.5486
G01 X3.1912 Y6.7912
G00 Z2.0000
G00 X3.1030 Y6.7030
G01 F30.00
G01 Z-0.0499
G01 F75.00
G01 X2.8970 Y6.7030
G01 X2.8970 Y6.5075
G01 X2.9051 Y6.4283
G01 X2.9498 Y6.2934
G01 X3.0238 Y6.1734
G01 X3.1234 Y6.0738
G01 X3.2434 Y5.9998
G01 X3.3783 Y5.9551
G01 X3.4575 Y5.9470
G01 X4.3530 Y5.9470
G01 X4.3530 Y6.1530
G01 X3.5000 Y6.1530
G01 X3.4683 Y6.1544
G01 X3.4539 Y6.1558
G01 X3.4225 Y6.1606
G01 X3.3917 Y6.1682
G01 X3.3813 Y6.1712
G01 X3.3514 Y6.1819
G01 X3.3415 Y6.1861
G01 X3.3129 Y6.1999
G01 X3.2855 Y6.2160
G01 X3.2765 Y6.2219
G01 X3.2538 Y6.2387
G01 X3.2427 Y6.2478
G01 X3.2193 Y6.2693
G01 X3.1931 Y6.2981
G01 X3.1699 Y6.3294
G01 X3.1534 Y6.3566
G01 X3.1466 Y6.3693
G01 X3.1361 Y6.3915
G01 X3.1319 Y6.4014
G01 X3.1201 Y6.4348
G01 X3.1122 Y6.4655
G01 X3.1094 Y6.4797
G01 X3.1049 Y6.5111
G01 X3.1030 Y6.5500
G01 X3.1030 Y6.7030
G00 Z2.0000
G00 X3.0148 Y6.6148
G01 F30.00
G01 Z-0.0499
G01 F75.00
G01 X2.9852 Y6.6148
G01 X2.9852 Y6.5120
G01 X2.9919 Y6.4468
G01 X3.0303 Y6.3310
G01 X3.0934 Y6.2285
G01 X3.1785 Y6.1434
G01 X3.2810 Y6.0803
G01 X3.3968 Y6.0419
G01 X3.4620 Y6.0352
G01 X4.2648 Y6.0352
G01 X4.2648 Y6.0648
G01 X3.5000 Y6.0648
G01 X3.4885 Y6.0651
G01 X3.4582 Y6.0666
G01 X3.4467 Y6.0678
G01 X3.4167 Y6.0721
G01 X3.3997 Y6.0753
G01 X3.3703 Y6.0826
G01 X3.3537 Y6.0874
G01 X3.3197 Y6.0996
G01 X3.3038 Y6.1064
G01 X3.2713 Y6.1221
G01 X3.2402 Y6.1404
G01 X3.2304 Y6.1466
G01 X3.2210 Y6.1532
G01 X3.1922 Y6.1749
G01 X3.1653 Y6.1990
G01 X3.1569 Y6.2069
G01 X3.1490 Y6.2153
G01 X3.1287 Y6.2378
G01 X3.1213 Y6.2467
G01 X3.0966 Y6.2804
G01 X3.0749 Y6.3162
G01 X3.0694 Y6.3264
G01 X3.0564 Y6.3538
G01 X3.0517 Y6.3643
G01 X3.0476 Y6.3751
G01 X3.0357 Y6.4092
G01 X3.0326 Y6.4203
G01 X3.0241 Y6.4553
G01 X3.0178 Y6.4967
G01 X3.0163 Y6.5140
G01 X3.0149 Y6.5442
G01 X3.0148 Y6.6148
G00 Z2.0000
G00 X2.9852 Y7.6880
G01 F30.00
G01 Z-0.0499
G01 F75.00
G01 X2.9852 Y7.5852
G01 X3.0148 Y7.5852
G01 X3.0149 Y7.6558
G01 X3.0171 Y7.6976
G01 X3.0221 Y7.7333
G01 X3.0241 Y7.7447
G01 X3.0341 Y7.7853
G01 X3.0393 Y7.8018
G01 X3.0517 Y7.8357
G01 X3.0564 Y7.8462
G01 X3.0721 Y7.8787
G01 X3.0904 Y7.9098
G01 X3.0966 Y7.9196
G01 X3.1213 Y7.9533
G01 X3.1325 Y7.9665
G01 X3.1569 Y7.9931
G01 X3.1835 Y8.0175
G01 X3.1922 Y8.0251
G01 X3.2210 Y8.0468
G01 X3.2304 Y8.0534
G01 X3.2662 Y8.0751
G01 X3.2816 Y8.0831
G01 X3.3143 Y8.0983
G01 X3.3537 Y8.1126
G01 X3.3703 Y8.1174
G01 X3.3997 Y8.1247
G01 X3.4110 Y8.1269
G01 X3.4410 Y8.1315
G01 X3.4582 Y8.1334
G01 X3.5000 Y8.1352
G01 X6.0058 Y8.1351
G01 X6.0476 Y8.1329
G01 X6.0833 Y8.1279
G01 X6.0947 Y8.1259
G01 X6.1059 Y8.1233
G01 X6.1408 Y8.1143
G01 X6.1749 Y8.1024
G01 X6.1910 Y8.0960
G01 X6.2287 Y8.0779
G01 X6.2598 Y8.0596
G01 X6.2743 Y8.0502
G01 X6.2987 Y8.0322
G01 X6.3122 Y8.0213
G01 X6.3390 Y7.9971
G01 X6.3510 Y7.9847
G01 X6.3751 Y7.9578
G01 X6.3822 Y7.9487
G01 X6.4034 Y7.9196
G01 X6.4096 Y7.9098
G01 X6.4279 Y7.8787
G01 X6.4436 Y7.8462
G01 X6.4483 Y7.8357
G01 X6.4626 Y7.7963
G01 X6.4674 Y7.7797
G01 X6.4759 Y7.7447
G01 X6.4815 Y7.7090
G01 X6.4834 Y7.6918
G01 X6.4851 Y7.6558
G01 X6.4852 Y7.5852
G01 X6.5148 Y7.5852
G01 X6.5148 Y7.6880
G01 X6.5081 Y7.7532
G01 X6.4697 Y7.8690
G01 X6.3941 Y7.9917
G01 X6.3862 Y8.0065
G01 X6.3815 Y8.0167
G01 X6.3773 Y8.0270
G01 X6.3736 Y8.0376
G01 X6.3704 Y8.0483
G01 X6.3519 Y8.1157
G01 X6.3479 Y8.1328
G01 X6.3452 Y8.1501
G01 X6.3441 Y8.1617
G01 X6.3436 Y8.1792
G01 X6.3443 Y8.1967
G01 X6.3464 Y8.2141
G01 X6.3485 Y8.2256
G01 X6.3511 Y8.2370
G01 X6.3544 Y8.2482
G01 X6.3791 Y8.3259
G01 X6.3857 Y8.3421
G01 X6.3936 Y8.3578
G01 X6.4026 Y8.3728
G01 X6.4127 Y8.3871
G01 X6.4239 Y8.4007
G01 X6.4318 Y8.4092
G01 X6.4402 Y8.4173
G01 X6.4490 Y8.4250
G01 X6.5117 Y8.4770
G01 X6.5259 Y8.4869
G01 X6.5357 Y8.4929
G01 X6.5458 Y8.4984
G01 X6.5615 Y8.5058
G01 X6.5722 Y8.5100
G01 X6.5831 Y8.5137
G01 X6.5998 Y8.5183
G01 X6.6608 Y8.5309
G01 X6.6727 Y8.5328
G01 X6.6847 Y8.5340
G01 X6.7028 Y8.5347
G01 X9.5447 Y8.5347
G01 X9.6254 Y8.5419
G01 X9.7667 Y8.5823
G01 X9.8418 Y8.6214
G01 X9.8573 Y8.6284
G01 X9.8732 Y8.6342
G01 X9.8896 Y8.6388
G01 X9.9580 Y8.6554
G01 X9.9692 Y8.6573
G01 X9.9804 Y8.6586
G01 X9.9974 Y8.6596
G01 X10.5304 Y8.6597
G01 X10.5417 Y8.6594
G01 X10.5531 Y8.6586
G01 X10.5643 Y8.6572
G01 X10.5811 Y8.6542
G01 X10.6389 Y8.6413
G01 X10.6553 Y8.6367
G01 X10.6660 Y8.6329
G01 X10.6817 Y8.6263
G01 X11.7850 Y8.1139
G01 X11.7955 Y8.1087
G01 X11.8058 Y8.1029
G01 X11.8158 Y8.0966
G01 X11.8370 Y8.0819
G01 X11.8495 Y8.0740
G01 X11.8589 Y8.0672
G01 X12.0684 Y7.9061
G01 X12.2788 Y7.7847
G01 X12.5032 Y7.6918
G01 X12.7378 Y7.6289
G01 X12.9786 Y7.5972
G01 X13.2214 Y7.5972
G01 X13.4622 Y7.6289
G01 X13.6968 Y7.6918
G01 X13.9212 Y7.7847
G01 X14.1316 Y7.9061
G01 X14.3243 Y8.0540
G01 X14.4960 Y8.2257
G01 X14.6439 Y8.4184
G01 X14.7653 Y8.6288
G01 X14.8582 Y8.8532
G01 X14.9211 Y9.0878
G01 X14.9528 Y9.3286
G01 X14.9528 Y9.5714
G01 X14.9211 Y9.8122
G01 X14.8582 Y10.0468
G01 X14.7653 Y10.2712
G01 X14.6439 Y10.4816
G01 X14.4960 Y10.6743
G01 X14.3243 Y10.8460
G01 X14.1316 Y10.9939
G01 X13.9212 Y11.1153
G01 X13.6968 Y11.2082
G01 X13.4622 Y11.2711
G01 X13.2214 Y11.3028
G01 X12.9786 Y11.3028
G01 X12.7378 Y11.2711
G01 X12.5032 Y11.2082
G01 X12.2788 Y11.1153
G01 X12.2063 Y11.0738
G01 X12.1912 Y11.0666
G01 X12.1755 Y11.0606
G01 X12.1648 Y11.0572
G01 X12.1540 Y11.0543
G01 X12.0861 Y11.0378
G01 X12.0690 Y11.0343
G01 X12.0574 Y11.0327
G01 X12.0399 Y11.0314
G01 X12.0224 Y11.0313
G01 X12.0049 Y11.0326
G01 X11.9934 Y11.0342
G01 X11.9819 Y11.0363
G01 X11.9705 Y11.0390
G01 X11.9593 Y11.0423
G01 X11.8822 Y11.0689
G01 X11.8714 Y11.0733
G01 X11.8608 Y11.0782
G01 X11.8504 Y11.0836
G01 X11.8404 Y11.0895
G01 X11.8306 Y11.0960
G01 X11.8212 Y11.1029
G01 X11.8121 Y11.1102
G01 X11.8034 Y11.1180
G01 X11.7951 Y11.1262
G01 X11.7834 Y11.1393
G01 X11.7366 Y11.1988
G01 X11.7263 Y11.2129
G01 X11.7200 Y11.2228
G01 X11.7115 Y11.2381
G01 X11.7065 Y11.2487
G01 X11.7000 Y11.2649
G01 X11.6963 Y11.2760
G01 X11.6932 Y11.2873
G01 X11.6896 Y11.3044
G01 X11.6880 Y11.3160
G01 X11.6802 Y11.3972
G01 X11.6796 Y11.4147
G01 X11.6803 Y11.4322
G01 X11.6824 Y11.4496
G01 X11.6857 Y11.4668
G01 X11.6886 Y11.4781
G01 X11.6921 Y11.4892
G01 X11.6983 Y11.5056
G01 X11.7058 Y11.5215
G01 X11.7405 Y11.5887
G01 X11.7464 Y11.5988
G01 X11.7527 Y11.6086
G01 X11.7631 Y11.6226
G01 X11.7706 Y11.6316
G01 X11.7825 Y11.6442
G01 X11.8837 Y11.7453
G01 X11.8970 Y11.7577
G01 X11.9113 Y11.7690
G01 X11.9212 Y11.7758
G01 X11.9688 Y11.8069
G01 X11.9846 Y11.8158
G01 X11.9955 Y11.8211
G01 X12.0067 Y11.8258
G01 X13.1633 Y12.2789
G01 X13.1740 Y12.2828
G01 X13.1849 Y12.2862
G01 X13.2194 Y12.2952
G01 X13.2306 Y12.2978
G01 X13.2418 Y12.2998
G01 X13.4622 Y12.3289
G01 X13.6968 Y12.3918
G01 X13.9212 Y12.4847
G01 X14.1316 Y12.6061
G01 X14.3243 Y12.7540
G01 X14.4960 Y12.9257
G01 X14.6439 Y13.1184
G01 X14.7653 Y13.3288
G01 X14.8582 Y13.5532
G01 X14.9211 Y13.7878
G01 X14.9528 Y14.0286
G01 X14.9528 Y14.2714
G01 X14.9211 Y14.5122
G01 X14.8582 Y14.7468
G01 X14.7653 Y14.9712
G01 X14.6439 Y15.1816
G01 X14.4960 Y15.3743
G01 X14.3243 Y15.5460
G01 X14.1316 Y15.6939
G01 X13.9212 Y15.8153
G01 X13.6968 Y15.9082
G01 X13.4622 Y15.9711
G01 X13.2214 Y16.0028
G01 X12.9786 Y16.0028
G01 X12.7378 Y15.9711
G01 X12.5032 Y15.9082
G01 X12.2788 Y15.8153
G01 X12.0684 Y15.6939
G01 X11.8757 Y15.5460
G01 X11.7040 Y15.3743
G01 X11.5561 Y15.1816
G01 X11.4347 Y14.9712
G01 X11.3418 Y14.7468
G01 X11.2789 Y14.5122
G01 X11.2498 Y14.2918
G01 X11.2478 Y14.2806
G01 X11.2452 Y14.2695
G01 X11.2362 Y14.2349
G01 X11.2328 Y14.2240
G01 X11.2289 Y14.2133
G01 X10.7758 Y13.0567
G01 X10.7711 Y13.0455
G01 X10.7658 Y13.0346
G01 X10.7569 Y13.0188
G01 X10.7225 Y12.9662
G01 X10.7116 Y12.9517
G01 X10.6996 Y12.9380
G01 X10.2243 Y12.4626
G01 X10.2162 Y12.4549
G01 X10.2077 Y12.4476
G01 X10.1989 Y12.4406
G01 X10.1898 Y12.4342
G01 X10.1804 Y12.4281
G01 X10.1042 Y12.3863
G01 X10.0883 Y12.3789
G01 X10.0719 Y12.3726
G01 X10.0608 Y12.3692
G01 X10.0495 Y12.3663
G01 X10.0323 Y12.3630
G01 X10.0207 Y12.3615
G01 X10.0090 Y12.3606
G01 X9.9974 Y12.3603
G01 X9.9857 Y12.3605
G01 X9.9043 Y12.3663
G01 X9.8927 Y12.3677
G01 X9.8812 Y12.3697
G01 X9.8698 Y12.3723
G01 X9.8586 Y12.3754
G01 X9.8475 Y12.3791
G01 X9.8366 Y12.3833
G01 X9.8083 Y12.3960
G01 X9.7667 Y12.4177
G01 X9.6254 Y12.4581
G01 X9.5447 Y12.4653
G01 X6.7028 Y12.4653
G01 X6.6916 Y12.4656
G01 X6.6804 Y12.4664
G01 X6.6637 Y12.4686
G01 X6.6528 Y12.4707
G01 X6.6365 Y12.4748
G01 X6.5694 Y12.4945
G01 X6.5583 Y12.4981
G01 X6.5474 Y12.5022
G01 X6.5367 Y12.5069
G01 X6.5262 Y12.5120
G01 X6.5160 Y12.5177
G01 X6.5061 Y12.5239
G01 X6.4965 Y12.5306
G01 X6.4828 Y12.5415
G01 X6.4699 Y12.5534
G01 X6.4580 Y12.5662
G01 X6.4084 Y12.6234
G01 X6.4012 Y12.6326
G01 X6.3945 Y12.6422
G01 X6.3853 Y12.6571
G01 X6.3772 Y12.6726
G01 X6.3704 Y12.6887
G01 X6.3665 Y12.6998
G01 X6.3631 Y12.7109
G01 X6.3603 Y12.7223
G01 X6.3572 Y12.7395
G01 X6.3472 Y12.8087
G01 X6.3454 Y12.8259
G01 X6.3448 Y12.8432
G01 X6.3455 Y12.8605
G01 X6.3475 Y12.8776
G01 X6.3507 Y12.8946
G01 X6.3536 Y12.9058
G01 X6.3570 Y12.9168
G01 X6.3782 Y12.9754
G01 X6.3855 Y12.9919
G01 X6.3939 Y13.0079
G01 X6.4697 Y13.1310
G01 X6.5081 Y13.2468
G01 X6.5148 Y13.3120
G01 X6.5148 Y13.4148
G01 X6.4852 Y13.4148
G01 X6.4851 Y13.3442
G01 X6.4829 Y13.3024
G01 X6.4779 Y13.2667
G01 X6.4759 Y13.2553
G01 X6.4659 Y13.2147
G01 X6.4607 Y13.1982
G01 X6.4483 Y13.1643
G01 X6.4331 Y13.1316
G01 X6.4279 Y13.1213
G01 X6.4222 Y13.1112
G01 X6.4034 Y13.0804
G01 X6.3787 Y13.0467
G01 X6.3675 Y13.0335
G01 X6.3431 Y13.0069
G01 X6.3122 Y12.9787
G01 X6.2987 Y12.9678
G01 X6.2743 Y12.9498
G01 X6.2647 Y12.9434
G01 X6.2388 Y12.9278
G01 X6.2236 Y12.9194
G01 X6.1962 Y12.9064
G01 X6.1857 Y12.9017
G01 X6.1749 Y12.8976
G01 X6.1463 Y12.8874
G01 X6.1353 Y12.8841
G01 X6.1059 Y12.8767
G01 X6.0890 Y12.8731
G01 X6.0476 Y12.8671
G01 X6.0115 Y12.8651
G01 X6.0000 Y12.8648
G01 X3.5000 Y12.8648
G01 X3.4885 Y12.8651
G01 X3.4524 Y12.8671
G01 X3.4167 Y12.8721
G01 X3.4053 Y12.8741
G01 X3.3703 Y12.8826
G01 X3.3592 Y12.8857
G01 X3.3251 Y12.8976
G01 X3.3143 Y12.9017
G01 X3.3038 Y12.9064
G01 X3.2713 Y12.9221
G01 X3.2402 Y12.9404
G01 X3.2304 Y12.9466
G01 X3.2210 Y12.9532
G01 X3.1922 Y12.9749
G01 X3.1653 Y12.9990
G01 X3.1529 Y13.0110
G01 X3.1249 Y13.0422
G01 X3.1032 Y13.0710
G01 X3.0966 Y13.0804
G01 X3.0904 Y13.0902
G01 X3.0721 Y13.1213
G01 X3.0564 Y13.1538
G01 X3.0517 Y13.1643
G01 X3.0374 Y13.2037
G01 X3.0326 Y13.2203
G01 X3.0241 Y13.2553
G01 X3.0185 Y13.2910
G01 X3.0166 Y13.3082
G01 X3.0149 Y13.3442
G01 X3.0148 Y13.4148
G01 X2.9852 Y13.4148
G01 X2.9852 Y13.3120
G01 X2.9919 Y13.2468
G01 X3.0303 Y13.1310
G01 X3.0934 Y13.0285
G01 X3.1785 Y12.9434
G01 X3.2810 Y12.8803
G01 X3.3968 Y12.8419
G01 X3.4620 Y12.8352
G01 X3.7056 Y12.8352
G01 X3.7167 Y12.8349
G01 X3.7279 Y12.8341
G01 X3.7390 Y12.8328
G01 X3.7501 Y12.8310
G01 X3.7664 Y12.8272
G01 X3.8389 Y12.8060
G01 X3.8555 Y12.8004
G01 X3.8663 Y12.7960
G01 X3.8769 Y12.7911
G01 X3.8872 Y12.7857
G01 X3.9022 Y12.7766
G01 X3.9164 Y12.7664
G01 X3.9255 Y12.7590
G01 X3.9342 Y12.7512
G01 X3.9425 Y12.7430
G01 X3.9961 Y12.6815
G01 X4.0071 Y12.6679
G01 X4.0170 Y12.6534
G01 X4.0230 Y12.6434
G01 X4.0311 Y12.6279
G01 X4.0379 Y12.6118
G01 X4.0419 Y12.6008
G01 X4.0452 Y12.5896
G01 X4.0492 Y12.5725
G01 X4.0611 Y12.4918
G01 X4.0629 Y12.4749
G01 X4.0634 Y12.4635
G01 X4.0634 Y12.4521
G01 X4.0628 Y12.4408
G01 X4.0617 Y12.4294
G01 X4.0600 Y12.4182
G01 X4.0578 Y12.4070
G01 X4.0551 Y12.3960
G01 X4.0518 Y12.3851
G01 X4.0459 Y12.3691
G01 X4.0170 Y12.3031
G01 X4.0095 Y12.2875
G01 X4.0038 Y12.2774
G01 X3.9944 Y12.2629
G01 X3.9875 Y12.2535
G01 X3.8997 Y12.1457
G01 X3.8323 Y12.0167
G01 X3.7919 Y11.8754
G01 X3.7847 Y11.7947
G01 X3.7847 Y11.2053
G01 X3.7919 Y11.1246
G01 X3.8323 Y10.9833
G01 X3.8997 Y10.8543
G01 X4.0070 Y10.7226
G01 X4.0168 Y10.7090
G01 X4.0228 Y10.6995
G01 X4.0283 Y10.6898
G01 X4.0334 Y10.6798
G01 X4.0380 Y10.6696
G01 X4.0651 Y10.6052
G01 X4.0694 Y10.5943
G01 X4.0731 Y10.5833
G01 X4.0776 Y10.5664
G01 X4.0809 Y10.5491
G01 X4.0829 Y10.5317
G01 X4.0835 Y10.5142
G01 X4.0829 Y10.4967
G01 X4.0810 Y10.4793
G01 X4.0680 Y10.4047
G01 X4.0657 Y10.3932
G01 X4.0612 Y10.3762
G01 X4.0575 Y10.3651
G01 X4.0532 Y10.3542
G01 X4.0458 Y10.3383
G01 X4.0403 Y10.3280
G01 X4.0342 Y10.3180
G01 X4.0162 Y10.2900
G01 X4.0100 Y10.2814
G01 X3.8997 Y10.1457
G01 X3.8323 Y10.0167
G01 X3.7919 Y9.8754
G01 X3.7847 Y9.7947
G01 X3.7847 Y9.2053
G01 X3.7919 Y9.1246
G01 X3.8323 Y8.9833
G01 X3.8997 Y8.8543
G01 X3.9874 Y8.7466
G01 X3.9941 Y8.7376
G01 X4.0032 Y8.7235
G01 X4.0114 Y8.7088
G01 X4.0162 Y8.6988
G01 X4.0455 Y8.6292
G01 X4.0517 Y8.6128
G01 X4.0552 Y8.6017
G01 X4.0581 Y8.5904
G01 X4.0604 Y8.5789
G01 X4.0621 Y8.5674
G01 X4.0633 Y8.5557
G01 X4.0639 Y8.5441
G01 X4.0639 Y8.5324
G01 X4.0633 Y8.5207
G01 X4.0622 Y8.5091
G01 X4.0605 Y8.4975
G01 X4.0474 Y8.4230
G01 X4.0448 Y8.4116
G01 X4.0417 Y8.4003
G01 X4.0359 Y8.3838
G01 X4.0290 Y8.3677
G01 X4.0208 Y8.3522
G01 X4.0148 Y8.3422
G01 X4.0048 Y8.3278
G01 X3.9975 Y8.3186
G01 X3.9898 Y8.3099
G01 X3.9386 Y8.2543
G01 X3.9305 Y8.2463
G01 X3.9220 Y8.2387
G01 X3.9086 Y8.2281
G01 X3.8993 Y8.2216
G01 X3.8848 Y8.2127
G01 X3.8747 Y8.2074
G01 X3.8644 Y8.2026
G01 X3.8539 Y8.1982
G01 X3.8432 Y8.1944
G01 X3.8323 Y8.1911
G01 X3.7628 Y8.1719
G01 X3.7459 Y8.1683
G01 X3.7287 Y8.1659
G01 X3.7171 Y8.1651
G01 X3.7056 Y8.1648
G01 X3.4620 Y8.1648
G01 X3.3968 Y8.1581
G01 X3.2810 Y8.1197
G01 X3.1785 Y8.0566
G01 X3.0934 Y7.9715
G01 X3.0303 Y7.8690
G01 X2.9919 Y7.7532
G01 X2.9852 Y7.6880
G00 Z2.0000
G00 X2.8970 Y7.6925
G01 F30.00
G01 Z-0.0499
G01 F75.00
G01 X2.8970 Y7.4970
G01 X3.1030 Y7.4970
G01 X3.1030 Y7.6536
G01 X3.1049 Y7.6889
G01 X3.1100 Y7.7239
G01 X3.1122 Y7.7345
G01 X3.1201 Y7.7652
G01 X3.1332 Y7.8019
G01 X3.1499 Y7.8371
G01 X3.1679 Y7.8675
G01 X3.1741 Y7.8765
G01 X3.1931 Y7.9019
G01 X3.2193 Y7.9307
G01 X3.2481 Y7.9569
G01 X3.2735 Y7.9759
G01 X3.2855 Y7.9840
G01 X3.3129 Y8.0001
G01 X3.3415 Y8.0139
G01 X3.3514 Y8.0181
G01 X3.3779 Y8.0276
G01 X3.3882 Y8.0309
G01 X3.4190 Y8.0386
G01 X3.4297 Y8.0406
G01 X3.4575 Y8.0447
G01 X3.4683 Y8.0456
G01 X3.5000 Y8.0470
G01 X6.0000 Y8.0470
G01 X6.0317 Y8.0456
G01 X6.0461 Y8.0442
G01 X6.0775 Y8.0394
G01 X6.1152 Y8.0299
G01 X6.1519 Y8.0168
G01 X6.1807 Y8.0034
G01 X6.1934 Y7.9966
G01 X6.2175 Y7.9821
G01 X6.2265 Y7.9759
G01 X6.2519 Y7.9569
G01 X6.2755 Y7.9357
G01 X6.2857 Y7.9255
G01 X6.3069 Y7.9019
G01 X6.3301 Y7.8706
G01 X6.3501 Y7.8371
G01 X6.3668 Y7.8019
G01 X6.3799 Y7.7652
G01 X6.3878 Y7.7345
G01 X6.3900 Y7.7239
G01 X6.3951 Y7.6889
G01 X6.3970 Y7.6536
G01 X6.3970 Y7.4970
G01 X6.6030 Y7.4970
G01 X6.6030 Y7.6925
G01 X6.5949 Y7.7717
G01 X6.5502 Y7.9066
G01 X6.4721 Y8.0332
G01 X6.4669 Y8.0424
G01 X6.4610 Y8.0550
G01 X6.4554 Y8.0716
G01 X6.4361 Y8.1425
G01 X6.4345 Y8.1497
G01 X6.4328 Y8.1605
G01 X6.4321 Y8.1677
G01 X6.4318 Y8.1787
G01 X6.4320 Y8.1860
G01 X6.4330 Y8.1969
G01 X6.4348 Y8.2077
G01 X6.4365 Y8.2148
G01 X6.4594 Y8.2885
G01 X6.4631 Y8.2988
G01 X6.4675 Y8.3088
G01 X6.4727 Y8.3185
G01 X6.4807 Y8.3307
G01 X6.4898 Y8.3421
G01 X6.5000 Y8.3525
G01 X6.5648 Y8.4066
G01 X6.5737 Y8.4128
G01 X6.5861 Y8.4200
G01 X6.5959 Y8.4246
G01 X6.6095 Y8.4295
G01 X6.6234 Y8.4332
G01 X6.6765 Y8.4441
G01 X6.6915 Y8.4461
G01 X6.7028 Y8.4465
G01 X9.5486 Y8.4465
G01 X9.6416 Y8.4548
G01 X9.7996 Y8.5000
G01 X9.8807 Y8.5423
G01 X9.8904 Y8.5466
G01 X9.9004 Y8.5503
G01 X9.9106 Y8.5532
G01 X9.9714 Y8.5681
G01 X9.9854 Y8.5704
G01 X9.9995 Y8.5715
G01 X10.5339 Y8.5715
G01 X10.5481 Y8.5704
G01 X10.5621 Y8.5680
G01 X10.6178 Y8.5557
G01 X10.6246 Y8.5538
G01 X10.6347 Y8.5504
G01 X10.6445 Y8.5463
G01 X11.7544 Y8.0306
G01 X11.7671 Y8.0231
G01 X11.7895 Y8.0075
G01 X11.7969 Y8.0030
G01 X11.8058 Y7.9968
G01 X11.8135 Y7.9906
G01 X12.0193 Y7.8327
G01 X12.2397 Y7.7054
G01 X12.4747 Y7.6081
G01 X12.7205 Y7.5422
G01 X12.9728 Y7.5090
G01 X13.2272 Y7.5090
G01 X13.4795 Y7.5422
G01 X13.7253 Y7.6081
G01 X13.9603 Y7.7054
G01 X14.1807 Y7.8327
G01 X14.3825 Y7.9875
G01 X14.5625 Y8.1675
G01 X14.7173 Y8.3693
G01 X14.8446 Y8.5897
G01 X14.9419 Y8.8247
G01 X15.0078 Y9.0705
G01 X15.0410 Y9.3228
G01 X15.0410 Y9.5772
G01 X15.0078 Y9.8295
G01 X14.9419 Y10.0753
G01 X14.8446 Y10.3103
G01 X14.7173 Y10.5307
G01 X14.5625 Y10.7325
G01 X14.3825 Y10.9124
G01 X14.1807 Y11.0673
G01 X13.9603 Y11.1946
G01 X13.7253 Y11.2919
G01 X13.4795 Y11.3578
G01 X13.2272 Y11.3910
G01 X12.9728 Y11.3910
G01 X12.7205 Y11.3578
G01 X12.4747 Y11.2919
G01 X12.2397 Y11.1946
G01 X12.1690 Y11.1538
G01 X12.1596 Y11.1491
G01 X12.1499 Y11.1451
G01 X12.1332 Y11.1400
G01 X12.0582 Y11.1220
G01 X12.0474 Y11.1203
G01 X12.0401 Y11.1197
G01 X12.0292 Y11.1194
G01 X12.0219 Y11.1196
G01 X12.0074 Y11.1212
G01 X11.9966 Y11.1234
G01 X11.9896 Y11.1252
G01 X11.9166 Y11.1503
G01 X11.9064 Y11.1543
G01 X11.8997 Y11.1573
G01 X11.8901 Y11.1625
G01 X11.8839 Y11.1664
G01 X11.8750 Y11.1727
G01 X11.8639 Y11.1822
G01 X11.8587 Y11.1873
G01 X11.8514 Y11.1955
G01 X11.8059 Y11.2533
G01 X11.7995 Y11.2621
G01 X11.7955 Y11.2683
G01 X11.7902 Y11.2779
G01 X11.7871 Y11.2845
G01 X11.7830 Y11.2946
G01 X11.7808 Y11.3016
G01 X11.7780 Y11.3122
G01 X11.7755 Y11.3265
G01 X11.7682 Y11.4034
G01 X11.7678 Y11.4143
G01 X11.7683 Y11.4252
G01 X11.7701 Y11.4397
G01 X11.7725 Y11.4504
G01 X11.7768 Y11.4644
G01 X11.7810 Y11.4745
G01 X11.8179 Y11.5464
G01 X11.8255 Y11.5588
G01 X11.8343 Y11.5704
G01 X11.8449 Y11.5818
G01 X11.9461 Y11.6830
G01 X11.9544 Y11.6907
G01 X11.9603 Y11.6955
G01 X11.9695 Y11.7020
G01 X12.0120 Y11.7298
G01 X12.0250 Y11.7374
G01 X12.0388 Y11.7437
G01 X13.2022 Y12.1993
G01 X13.2124 Y12.2023
G01 X13.2414 Y12.2098
G01 X13.2554 Y12.2127
G01 X13.4795 Y12.2422
G01 X13.7253 Y12.3081
G01 X13.9603 Y12.4054
G01 X14.1807 Y12.5327
G01 X14.3825 Y12.6875
G01 X14.5625 Y12.8675
G01 X14.7173 Y13.0693
G01 X14.8446 Y13.2897
G01 X14.9419 Y13.5247
G01 X15.0078 Y13.7705
G01 X15.0410 Y14.0228
G01 X15.0410 Y14.2772
G01 X15.0078 Y14.5295
G01 X14.9419 Y14.7753
G01 X14.8446 Y15.0103
G01 X14.7173 Y15.2307
G01 X14.5625 Y15.4325
G01 X14.3825 Y15.6124
G01 X14.1807 Y15.7673
G01 X13.9603 Y15.8946
G01 X13.7253 Y15.9919
G01 X13.4795 Y16.0578
G01 X13.2272 Y16.0910
G01 X12.9728 Y16.0910
G01 X12.7205 Y16.0578
G01 X12.4747 Y15.9919
G01 X12.2397 Y15.8946
G01 X12.0193 Y15.7673
G01 X11.8175 Y15.6125
G01 X11.6376 Y15.4325
G01 X11.4827 Y15.2307
G01 X11.3554 Y15.0103
G01 X11.2581 Y14.7753
G01 X11.1922 Y14.5295
G01 X11.1627 Y14.3054
G01 X11.1598 Y14.2915
G01 X11.1523 Y14.2624
G01 X11.1493 Y14.2522
G01 X10.6937 Y13.0888
G01 X10.6891 Y13.0784
G01 X10.6818 Y13.0652
G01 X10.6499 Y13.0164
G01 X10.6431 Y13.0073
G01 X10.6356 Y12.9988
G01 X10.1568 Y12.5202
G01 X10.1460 Y12.5113
G01 X10.1345 Y12.5034
G01 X10.0638 Y12.4647
G01 X10.0539 Y12.4601
G01 X10.0402 Y12.4551
G01 X10.0297 Y12.4522
G01 X10.0189 Y12.4501
G01 X10.0044 Y12.4487
G01 X9.9898 Y12.4486
G01 X9.9128 Y12.4541
G01 X9.9020 Y12.4556
G01 X9.8948 Y12.4570
G01 X9.8842 Y12.4598
G01 X9.8773 Y12.4621
G01 X9.8530 Y12.4724
G01 X9.7996 Y12.5000
G01 X9.6416 Y12.5452
G01 X9.5486 Y12.5535
G01 X6.7028 Y12.5535
G01 X6.6853 Y12.5545
G01 X6.6681 Y12.5576
G01 X6.5908 Y12.5802
G01 X6.5771 Y12.5854
G01 X6.5705 Y12.5884
G01 X6.5609 Y12.5936
G01 X6.5487 Y12.6017
G01 X6.5401 Y12.6085
G01 X6.5347 Y12.6134
G01 X6.5246 Y12.6239
G01 X6.4765 Y12.6795
G01 X6.4699 Y12.6882
G01 X6.4639 Y12.6974
G01 X6.4570 Y12.7103
G01 X6.4527 Y12.7203
G01 X6.4492 Y12.7307
G01 X6.4464 Y12.7413
G01 X6.4445 Y12.7521
G01 X6.4345 Y12.8212
G01 X6.4334 Y12.8320
G01 X6.4330 Y12.8428
G01 X6.4335 Y12.8536
G01 X6.4347 Y12.8643
G01 X6.4367 Y12.8750
G01 X6.4385 Y12.8819
G01 X6.4418 Y12.8922
G01 X6.4618 Y12.9467
G01 X6.4665 Y12.9569
G01 X6.4721 Y12.9668
G01 X6.5502 Y13.0934
G01 X6.5949 Y13.2283
G01 X6.6030 Y13.3075
G01 X6.6030 Y13.5030
G01 X6.3970 Y13.5030
G01 X6.3970 Y13.3464
G01 X6.3954 Y13.3147
G01 X6.3942 Y13.3039
G01 X6.3906 Y13.2797
G01 X6.3886 Y13.2690
G01 X6.3818 Y13.2417
G01 X6.3788 Y13.2313
G01 X6.3694 Y13.2048
G01 X6.3654 Y13.1948
G01 X6.3518 Y13.1661
G01 X6.3466 Y13.1566
G01 X6.3321 Y13.1325
G01 X6.3259 Y13.1235
G01 X6.3069 Y13.0981
G01 X6.2857 Y13.0745
G01 X6.2781 Y13.0668
G01 X6.2546 Y13.0454
G01 X6.2462 Y13.0387
G01 X6.2235 Y13.0219
G01 X6.2145 Y13.0160
G01 X6.1871 Y12.9999
G01 X6.1519 Y12.9832
G01 X6.1152 Y12.9701
G01 X6.0845 Y12.9622
G01 X6.0739 Y12.9600
G01 X6.0389 Y12.9549
G01 X6.0000 Y12.9530
G01 X3.5000 Y12.9530
G01 X3.4611 Y12.9549
G01 X3.4297 Y12.9594
G01 X3.4155 Y12.9622
G01 X3.3848 Y12.9701
G01 X3.3548 Y12.9806
G01 X3.3415 Y12.9861
G01 X3.3129 Y12.9999
G01 X3.2794 Y13.0199
G01 X3.2538 Y13.0387
G01 X3.2427 Y13.0478
G01 X3.2193 Y13.0693
G01 X3.1978 Y13.0927
G01 X3.1909 Y13.1010
G01 X3.1719 Y13.1265
G01 X3.1660 Y13.1355
G01 X3.1499 Y13.1629
G01 X3.1332 Y13.1981
G01 X3.1201 Y13.2348
G01 X3.1122 Y13.2655
G01 X3.1100 Y13.2761
G01 X3.1049 Y13.3111
G01 X3.1030 Y13.3464
G01 X3.1030 Y13.5030
G01 X2.8970 Y13.5030
G01 X2.8970 Y13.3075
G01 X2.9051 Y13.2283
G01 X2.9498 Y13.0934
G01 X3.0238 Y12.9734
G01 X3.1234 Y12.8738
G01 X3.2434 Y12.7998
G01 X3.3783 Y12.7551
G01 X3.4575 Y12.7470
G01 X3.7056 Y12.7470
G01 X3.7160 Y12.7466
G01 X3.7299 Y12.7450
G01 X3.7436 Y12.7420
G01 X3.8210 Y12.7191
G01 X3.8312 Y12.7151
G01 X3.8378 Y12.7121
G01 X3.8474 Y12.7069
G01 X3.8536 Y12.7030
G01 X3.8596 Y12.6988
G01 X3.8682 Y12.6920
G01 X3.8788 Y12.6820
G01 X3.9294 Y12.6238
G01 X3.9363 Y12.6152
G01 X3.9425 Y12.6062
G01 X3.9480 Y12.5968
G01 X3.9528 Y12.5869
G01 X3.9569 Y12.5767
G01 X3.9611 Y12.5628
G01 X3.9633 Y12.5520
G01 X3.9738 Y12.4793
G01 X3.9749 Y12.4687
G01 X3.9752 Y12.4545
G01 X3.9742 Y12.4403
G01 X3.9717 Y12.4263
G01 X3.9690 Y12.4160
G01 X3.9668 Y12.4092
G01 X3.9629 Y12.3993
G01 X3.9363 Y12.3386
G01 X3.9315 Y12.3288
G01 X3.9280 Y12.3225
G01 X3.9221 Y12.3134
G01 X3.9156 Y12.3047
G01 X3.8256 Y12.1944
G01 X3.7500 Y12.0496
G01 X3.7048 Y11.8916
G01 X3.6965 Y11.7986
G01 X3.6965 Y11.2014
G01 X3.7048 Y11.1084
G01 X3.7500 Y10.9504
G01 X3.8256 Y10.8056
G01 X3.9351 Y10.6713
G01 X3.9435 Y10.6600
G01 X3.9490 Y10.6511
G01 X3.9567 Y10.6354
G01 X3.9838 Y10.5710
G01 X3.9877 Y10.5608
G01 X3.9908 Y10.5503
G01 X3.9931 Y10.5396
G01 X3.9946 Y10.5287
G01 X3.9953 Y10.5141
G01 X3.9949 Y10.5032
G01 X3.9937 Y10.4923
G01 X3.9797 Y10.4127
G01 X3.9769 Y10.4021
G01 X3.9733 Y10.3917
G01 X3.9689 Y10.3816
G01 X3.9656 Y10.3751
G01 X3.9600 Y10.3657
G01 X3.9449 Y10.3422
G01 X3.9372 Y10.3313
G01 X3.8256 Y10.1944
G01 X3.7500 Y10.0496
G01 X3.7048 Y9.8916
G01 X3.6965 Y9.7986
G01 X3.6965 Y9.2014
G01 X3.7048 Y9.1084
G01 X3.7500 Y8.9504
G01 X3.8256 Y8.8056
G01 X3.9156 Y8.6953
G01 X3.9219 Y8.6869
G01 X3.9276 Y8.6781
G01 X3.9357 Y8.6626
G01 X3.9669 Y8.5882
G01 X3.9712 Y8.5743
G01 X3.9741 Y8.5599
G01 X3.9750 Y8.5527
G01 X3.9757 Y8.5418
G01 X3.9754 Y8.5272
G01 X3.9736 Y8.5127
G01 X3.9609 Y8.4403
G01 X3.9573 Y8.4261
G01 X3.9537 Y8.4158
G01 X3.9494 Y8.4057
G01 X3.9443 Y8.3960
G01 X3.9385 Y8.3867
G01 X3.9320 Y8.3779
G01 X3.9249 Y8.3696
G01 X3.8752 Y8.3156
G01 X3.8701 Y8.3106
G01 X3.8621 Y8.3036
G01 X3.8506 Y8.2952
G01 X3.8415 Y8.2896
G01 X3.8352 Y8.2863
G01 X3.8255 Y8.2818
G01 X3.8189 Y8.2793
G01 X3.8087 Y8.2761
G01 X3.7414 Y8.2574
G01 X3.7307 Y8.2552
G01 X3.7164 Y8.2534
G01 X3.7056 Y8.2530
G01 X3.4575 Y8.2530
G01 X3.3783 Y8.2449
G01 X3.2434 Y8.2002
G01 X3.1234 Y8.1262
G01 X3.0238 Y8.0266
G01 X2.9498 Y7.9066
G01 X2.9051 Y7.7717
G01 X2.8970 Y7.6925
G00 Z2.0000
G00 X2.8088 Y7.6970
G01 F30.00
G01 Z-0.0499
G01 F75.00
G01 X2.8088 Y7.4088
G01 X3.1912 Y7.4088
G01 X3.1912 Y7.6500
G01 X3.1926 Y7.6788
G01 X3.1971 Y7.7102
G01 X3.2037 Y7.7369
G01 X3.2054 Y7.7424
G01 X3.2153 Y7.7695
G01 X3.2291 Y7.7981
G01 X3.2432 Y7.8216
G01 X3.2595 Y7.8436
G01 X3.2816 Y7.8684
G01 X3.3041 Y7.8887
G01 X3.3309 Y7.9083
G01 X3.3544 Y7.9223
G01 X3.3792 Y7.9341
G01 X3.4104 Y7.9455
G01 X3.4398 Y7.9529
G01 X3.4697 Y7.9573
G01 X3.5000 Y7.9588
G01 X6.0000 Y7.9588
G01 X6.0288 Y7.9574
G01 X6.0602 Y7.9529
G01 X6.0924 Y7.9446
G01 X6.1182 Y7.9353
G01 X6.1430 Y7.9236
G01 X6.1716 Y7.9068
G01 X6.1981 Y7.8868
G01 X6.2184 Y7.8684
G01 X6.2368 Y7.8481
G01 X6.2568 Y7.8216
G01 X6.2730 Y7.7943
G01 X6.2853 Y7.7682
G01 X6.2955 Y7.7396
G01 X6.3029 Y7.7102
G01 X6.3073 Y7.6803
G01 X6.3088 Y7.6500
G01 X6.3088 Y7.4088
G01 X6.6912 Y7.4088
G01 X6.6912 Y7.6970
G01 X6.6817 Y7.7903
G01 X6.6307 Y7.9441
G01 X6.5472 Y8.0795
G01 X6.5445 Y8.0844
G01 X6.5409 Y8.0935
G01 X6.5221 Y8.1623
G01 X6.5208 Y8.1680
G01 X6.5201 Y8.1738
G01 X6.5203 Y8.1840
G01 X6.5223 Y8.1940
G01 X6.5441 Y8.2635
G01 X6.5468 Y8.2702
G01 X6.5512 Y8.2778
G01 X6.5557 Y8.2835
G01 X6.5609 Y8.2887
G01 X6.6168 Y8.3353
G01 X6.6252 Y8.3409
G01 X6.6304 Y8.3434
G01 X6.6358 Y8.3453
G01 X6.6414 Y8.3468
G01 X6.6923 Y8.3574
G01 X6.7028 Y8.3583
G01 X9.5525 Y8.3583
G01 X9.6578 Y8.3677
G01 X9.8325 Y8.4176
G01 X9.9184 Y8.4625
G01 X9.9249 Y8.4654
G01 X9.9316 Y8.4675
G01 X9.9904 Y8.4819
G01 X9.9960 Y8.4829
G01 X10.0030 Y8.4833
G01 X10.5318 Y8.4833
G01 X10.5375 Y8.4829
G01 X10.5431 Y8.4819
G01 X10.5953 Y8.4704
G01 X10.6035 Y8.4679
G01 X11.7133 Y7.9526
G01 X11.7184 Y7.9496
G01 X11.7432 Y7.9322
G01 X11.7479 Y7.9297
G01 X11.7527 Y7.9264
G01 X11.7577 Y7.9223
G01 X11.9702 Y7.7592
G01 X12.2006 Y7.6262
G01 X12.4463 Y7.5244
G01 X12.7033 Y7.4555
G01 X12.9670 Y7.4208
G01 X13.2330 Y7.4208
G01 X13.4967 Y7.4555
G01 X13.7537 Y7.5244
G01 X13.9994 Y7.6262
G01 X14.2298 Y7.7592
G01 X14.4408 Y7.9211
G01 X14.6289 Y8.1092
G01 X14.7908 Y8.3202
G01 X14.9238 Y8.5506
G01 X15.0256 Y8.7963
G01 X15.0945 Y9.0533
G01 X15.1292 Y9.3170
G01 X15.1292 Y9.5830
G01 X15.0945 Y9.8467
G01 X15.0256 Y10.1037
G01 X14.9238 Y10.3494
G01 X14.7908 Y10.5798
G01 X14.6289 Y10.7908
G01 X14.4408 Y10.9789
G01 X14.2298 Y11.1408
G01 X13.9994 Y11.2738
G01 X13.7537 Y11.3756
G01 X13.4967 Y11.4445
G01 X13.2330 Y11.4792
G01 X12.9670 Y11.4792
G01 X12.7033 Y11.4445
G01 X12.4463 Y11.3756
G01 X12.2006 Y11.2738
G01 X12.1280 Y11.2319
G01 X12.1204 Y11.2283
G01 X12.1124 Y11.2257
G01 X12.0431 Y11.2089
G01 X12.0359 Y11.2078
G01 X12.0301 Y11.2076
G01 X12.0213 Y11.2083
G01 X12.0128 Y11.2103
G01 X11.9427 Y11.2347
G01 X11.9361 Y11.2378
G01 X11.9300 Y11.2418
G01 X11.9243 Y11.2464
G01 X11.9193 Y11.2517
G01 X11.8744 Y11.3090
G01 X11.8696 Y11.3163
G01 X11.8666 Y11.3230
G01 X11.8644 Y11.3299
G01 X11.8631 Y11.3371
G01 X11.8563 Y11.4081
G01 X11.8562 Y11.4183
G01 X11.8569 Y11.4241
G01 X11.8583 Y11.4298
G01 X11.8619 Y11.4393
G01 X11.8953 Y11.5040
G01 X11.8991 Y11.5102
G01 X11.9028 Y11.5147
G01 X12.0118 Y11.6237
G01 X12.0178 Y11.6282
G01 X12.0603 Y11.6560
G01 X12.0696 Y11.6610
G01 X13.2303 Y12.1157
G01 X13.2635 Y12.1244
G01 X13.2690 Y12.1255
G01 X13.4967 Y12.1555
G01 X13.7537 Y12.2244
G01 X13.9994 Y12.3262
G01 X14.2298 Y12.4592
G01 X14.4408 Y12.6211
G01 X14.6289 Y12.8092
G01 X14.7908 Y13.0202
G01 X14.9238 Y13.2506
G01 X15.0256 Y13.4963
G01 X15.0945 Y13.7533
G01 X15.1292 Y14.0170
G01 X15.1292 Y14.2830
G01 X15.0945 Y14.5467
G01 X15.0256 Y14.8037
G01 X14.9238 Y15.0494
G01 X14.7908 Y15.2798
G01 X14.6289 Y15.4908
G01 X14.4408 Y15.6789
G01 X14.2298 Y15.8408
G01 X13.9994 Y15.9738
G01 X13.7537 Y16.0756
G01 X13.4967 Y16.1445
G01 X13.2330 Y16.1792
G01 X12.9670 Y16.1792
G01 X12.7033 Y16.1445
G01 X12.4463 Y16.0756
G01 X12.2006 Y15.9738
G01 X11.9702 Y15.8408
G01 X11.7592 Y15.6789
G01 X11.5711 Y15.4908
G01 X11.4092 Y15.2798
G01 X11.2762 Y15.0494
G01 X11.1744 Y14.8037
G01 X11.1055 Y14.5467
G01 X11.0755 Y14.3191
G01 X11.0744 Y14.3135
G01 X11.0657 Y14.2803
G01 X10.6115 Y13.1210
G01 X10.6091 Y13.1155
G01 X10.6060 Y13.1103
G01 X10.5782 Y13.0678
G01 X10.5717 Y13.0595
G01 X10.0985 Y12.5864
G01 X10.0932 Y12.5819
G01 X10.0873 Y12.5780
G01 X10.0235 Y12.5432
G01 X10.0141 Y12.5393
G01 X10.0055 Y12.5373
G01 X9.9997 Y12.5367
G01 X9.9924 Y12.5368
G01 X9.9227 Y12.5418
G01 X9.9141 Y12.5431
G01 X9.9057 Y12.5456
G01 X9.8878 Y12.5535
G01 X9.8325 Y12.5824
G01 X9.6578 Y12.6323
G01 X9.5525 Y12.6417
G01 X6.7028 Y12.6417
G01 X6.6958 Y12.6421
G01 X6.6875 Y12.6437
G01 X6.6178 Y12.6642
G01 X6.6110 Y12.6669
G01 X6.6058 Y12.6696
G01 X6.5998 Y12.6737
G01 X6.5943 Y12.6785
G01 X6.5446 Y12.7356
G01 X6.5411 Y12.7403
G01 X6.5381 Y12.7453
G01 X6.5346 Y12.7533
G01 X6.5320 Y12.7632
G01 X6.5216 Y12.8352
G01 X6.5212 Y12.8410
G01 X6.5214 Y12.8467
G01 X6.5224 Y12.8539
G01 X6.5243 Y12.8608
G01 X6.5419 Y12.9096
G01 X6.5449 Y12.9165
G01 X6.6307 Y13.0559
G01 X6.6817 Y13.2097
G01 X6.6912 Y13.3030
G01 X6.6912 Y13.5912
G01 X6.3088 Y13.5912
G01 X6.3088 Y13.3500
G01 X6.3074 Y13.3212
G01 X6.3029 Y13.2898
G01 X6.2963 Y13.2631
G01 X6.2946 Y13.2576
G01 X6.2841 Y13.2292
G01 X6.2723 Y13.2044
G01 X6.2583 Y13.1809
G01 X6.2405 Y13.1564
G01 X6.2184 Y13.1316
G01 X6.1959 Y13.1113
G01 X6.1691 Y13.0917
G01 X6.1456 Y13.0777
G01 X6.1208 Y13.0659
G01 X6.0896 Y13.0545
G01 X6.0588 Y13.0469
G01 X6.0303 Y13.0427
G01 X6.0000 Y13.0412
G01 X3.5000 Y13.0412
G01 X3.4669 Y13.0430
G01 X3.4398 Y13.0471
G01 X3.4131 Y13.0537
G01 X3.3818 Y13.0647
G01 X3.3519 Y13.0791
G01 X3.3284 Y13.0932
G01 X3.3064 Y13.1095
G01 X3.2816 Y13.1316
G01 X3.2595 Y13.1564
G01 X3.2432 Y13.1784
G01 X3.2284 Y13.2032
G01 X3.2147 Y13.2318
G01 X3.2045 Y13.2604
G01 X3.1971 Y13.2898
G01 X3.1927 Y13.3197
G01 X3.1912 Y13.3500
G01 X3.1912 Y13.5912
G01 X2.8088 Y13.5912
G01 X2.8088 Y13.3030
G01 X2.8183 Y13.2097
G01 X2.8693 Y13.0559
G01 X2.9541 Y12.9184
G01 X3.0684 Y12.8041
G01 X3.2059 Y12.7193
G01 X3.3597 Y12.6683
G01 X3.4530 Y12.6588
G01 X3.7097 Y12.6587
G01 X3.7153 Y12.6580
G01 X3.7208 Y12.6568
G01 X3.7906 Y12.6363
G01 X3.7987 Y12.6330
G01 X3.8050 Y12.6294
G01 X3.8108 Y12.6250
G01 X3.8161 Y12.6199
G01 X3.8646 Y12.5638
G01 X3.8695 Y12.5565
G01 X3.8737 Y12.5472
G01 X3.8754 Y12.5416
G01 X3.8765 Y12.5359
G01 X3.8869 Y12.4625
G01 X3.8870 Y12.4554
G01 X3.8865 Y12.4497
G01 X3.8850 Y12.4428
G01 X3.8827 Y12.4360
G01 X3.8555 Y12.3740
G01 X3.8507 Y12.3651
G01 X3.8472 Y12.3605
G01 X3.7516 Y12.2432
G01 X3.6676 Y12.0825
G01 X3.6177 Y11.9078
G01 X3.6083 Y11.8025
G01 X3.6083 Y11.1975
G01 X3.6177 Y11.0922
G01 X3.6676 Y10.9175
G01 X3.7516 Y10.7568
G01 X3.8668 Y10.6155
G01 X3.8716 Y10.6087
G01 X3.8754 Y10.6012
G01 X3.9036 Y10.5341
G01 X3.9062 Y10.5242
G01 X3.9071 Y10.5140
G01 X3.9063 Y10.5039
G01 X3.8940 Y10.4336
G01 X3.8916 Y10.4251
G01 X3.8880 Y10.4171
G01 X3.8676 Y10.3855
G01 X3.7516 Y10.2432
G01 X3.6676 Y10.0825
G01 X3.6177 Y9.9078
G01 X3.6083 Y9.8025
G01 X3.6083 Y9.1975
G01 X3.6177 Y9.0922
G01 X3.6676 Y8.9175
G01 X3.7516 Y8.7568
G01 X3.8472 Y8.6395
G01 X3.8505 Y8.6350
G01 X3.8553 Y8.6265
G01 X3.8835 Y8.5594
G01 X3.8857 Y8.5525
G01 X3.8871 Y8.5453
G01 X3.8875 Y8.5395
G01 X3.8873 Y8.5322
G01 X3.8747 Y8.4590
G01 X3.8734 Y8.4533
G01 X3.8715 Y8.4478
G01 X3.8678 Y8.4399
G01 X3.8619 Y8.4315
G01 X3.8117 Y8.3769
G01 X3.8054 Y8.3712
G01 X3.7995 Y8.3672
G01 X3.7932 Y8.3639
G01 X3.7865 Y8.3615
G01 X3.7199 Y8.3430
G01 X3.7099 Y8.3414
G01 X3.4530 Y8.3412
G01 X3.3597 Y8.3317
G01 X3.2059 Y8.2807
G01 X3.0684 Y8.1959
G01 X2.9541 Y8.0816
G01 X2.8693 Y7.9441
G01 X2.8183 Y7.7903
G01 X2.8088 Y7.6970
G00 Z2.0000
G00 X4.0301 Y8.2234
G01 F30.00
G01 Z-0.0499
G01 F75.00
G01 X6.0079 Y8.2233
G01 X6.0483 Y8.2213
G01 X6.0641 Y8.2198
G01 X6.1041 Y8.2138
G01 X6.1274 Y8.2089
G01 X6.1588 Y8.2009
G01 X6.1815 Y8.1937
G01 X6.2194 Y8.1798
G01 X6.2557 Y8.1630
G01 X6.2554 Y8.1798
G01 X6.2564 Y8.2038
G01 X6.2593 Y8.2278
G01 X6.2621 Y8.2436
G01 X6.2679 Y8.2669
G01 X6.2936 Y8.3489
G01 X6.2992 Y8.3640
G01 X6.3055 Y8.3788
G01 X6.3125 Y8.3932
G01 X6.3203 Y8.4073
G01 X6.3287 Y8.4210
G01 X6.3378 Y8.4342
G01 X6.3475 Y8.4470
G01 X6.3579 Y8.4592
G01 X6.3689 Y8.4710
G01 X6.3864 Y8.4875
G01 X6.4523 Y8.5425
G01 X6.4714 Y8.5566
G01 X6.4848 Y8.5652
G01 X6.4985 Y8.5732
G01 X6.5126 Y8.5804
G01 X6.5271 Y8.5870
G01 X6.5493 Y8.5954
G01 X6.5644 Y8.6002
G01 X6.5875 Y8.6059
G01 X6.6369 Y8.6161
G01 X6.6614 Y8.6203
G01 X6.6862 Y8.6225
G01 X6.7028 Y8.6229
G01 X9.5408 Y8.6229
G01 X9.6092 Y8.6290
G01 X9.7338 Y8.6646
G01 X9.8028 Y8.7006
G01 X9.8241 Y8.7101
G01 X9.8387 Y8.7156
G01 X9.8610 Y8.7225
G01 X9.9259 Y8.7386
G01 X9.9488 Y8.7433
G01 X9.9642 Y8.7456
G01 X9.9797 Y8.7471
G01 X10.0030 Y8.7479
G01 X10.5382 Y8.7478
G01 X10.5616 Y8.7464
G01 X10.5848 Y8.7433
G01 X10.6001 Y8.7403
G01 X10.6524 Y8.7288
G01 X10.6675 Y8.7250
G01 X10.6825 Y8.7205
G01 X10.6972 Y8.7154
G01 X10.7117 Y8.7095
G01 X11.8294 Y8.1904
G01 X11.8437 Y8.1828
G01 X11.8577 Y8.1746
G01 X11.9056 Y8.1423
G01 X12.1175 Y7.9796
G01 X12.3179 Y7.8640
G01 X12.5316 Y7.7755
G01 X12.7550 Y7.7156
G01 X12.9843 Y7.6854
G01 X13.2157 Y7.6854
G01 X13.4450 Y7.7156
G01 X13.6684 Y7.7755
G01 X13.8821 Y7.8640
G01 X14.0825 Y7.9796
G01 X14.2660 Y8.1205
G01 X14.4295 Y8.2840
G01 X14.5704 Y8.4675
G01 X14.6860 Y8.6679
G01 X14.7745 Y8.8816
G01 X14.8344 Y9.1050
G01 X14.8646 Y9.3343
G01 X14.8646 Y9.5657
G01 X14.8344 Y9.7950
G01 X14.7745 Y10.0184
G01 X14.6860 Y10.2321
G01 X14.5704 Y10.4325
G01 X14.4295 Y10.6160
G01 X14.2660 Y10.7795
G01 X14.0825 Y10.9204
G01 X13.8821 Y11.0360
G01 X13.6684 Y11.1245
G01 X13.4450 Y11.1844
G01 X13.2157 Y11.2146
G01 X12.9843 Y11.2146
G01 X12.7550 Y11.1844
G01 X12.5316 Y11.1245
G01 X12.3179 Y11.0360
G01 X12.2603 Y11.0028
G01 X12.2399 Y10.9919
G01 X12.2259 Y10.9856
G01 X12.2116 Y10.9798
G01 X12.1897 Y10.9725
G01 X12.1748 Y10.9686
G01 X12.0991 Y10.9503
G01 X12.0833 Y10.9473
G01 X12.0674 Y10.9451
G01 X12.0434 Y10.9432
G01 X12.0193 Y10.9432
G01 X12.0033 Y10.9441
G01 X11.9794 Y10.9471
G01 X11.9636 Y10.9500
G01 X11.9479 Y10.9537
G01 X11.9249 Y10.9608
G01 X11.8513 Y10.9863
G01 X11.8291 Y10.9956
G01 X11.8147 Y11.0027
G01 X11.8006 Y11.0105
G01 X11.7870 Y11.0190
G01 X11.7738 Y11.0281
G01 X11.7611 Y11.0379
G01 X11.7488 Y11.0484
G01 X11.7372 Y11.0594
G01 X11.7260 Y11.0709
G01 X11.7104 Y11.0893
G01 X11.6624 Y11.1506
G01 X11.6487 Y11.1704
G01 X11.6365 Y11.1912
G01 X11.6293 Y11.2056
G01 X11.6227 Y11.2202
G01 X11.6143 Y11.2428
G01 X11.6097 Y11.2582
G01 X11.6058 Y11.2738
G01 X11.6027 Y11.2895
G01 X11.6004 Y11.3054
G01 X11.5922 Y11.3910
G01 X11.5914 Y11.4150
G01 X11.5924 Y11.4391
G01 X11.5952 Y11.4630
G01 X11.5998 Y11.4867
G01 X11.6038 Y11.5022
G01 X11.6086 Y11.5176
G01 X11.6171 Y11.5401
G01 X11.6274 Y11.5619
G01 X11.6631 Y11.6311
G01 X11.6755 Y11.6517
G01 X11.6893 Y11.6714
G01 X11.6993 Y11.6839
G01 X11.7154 Y11.7017
G01 X11.8213 Y11.8077
G01 X11.8334 Y11.8192
G01 X11.8461 Y11.8300
G01 X11.8660 Y11.8450
G01 X11.9154 Y11.8774
G01 X11.9368 Y11.8903
G01 X11.9591 Y11.9014
G01 X11.9745 Y11.9079
G01 X13.1311 Y12.3611
G01 X13.1459 Y12.3664
G01 X13.1608 Y12.3711
G01 X13.1974 Y12.3806
G01 X13.2127 Y12.3842
G01 X13.2282 Y12.3870
G01 X13.4450 Y12.4156
G01 X13.6684 Y12.4755
G01 X13.8821 Y12.5640
G01 X14.0825 Y12.6796
G01 X14.2660 Y12.8205
G01 X14.4295 Y12.9840
G01 X14.5704 Y13.1675
G01 X14.6860 Y13.3679
G01 X14.7745 Y13.5816
G01 X14.8344 Y13.8050
G01 X14.8646 Y14.0343
G01 X14.8646 Y14.2657
G01 X14.8344 Y14.4950
G01 X14.7745 Y14.7184
G01 X14.6860 Y14.9321
G01 X14.5704 Y15.1325
G01 X14.4295 Y15.3160
G01 X14.2660 Y15.4795
G01 X14.0825 Y15.6204
G01 X13.8821 Y15.7360
G01 X13.6684 Y15.8245
G01 X13.4450 Y15.8844
G01 X13.2157 Y15.9146
G01 X12.9843 Y15.9146
G01 X12.7550 Y15.8844
G01 X12.5316 Y15.8245
G01 X12.3179 Y15.7360
G01 X12.1175 Y15.6204
G01 X11.9340 Y15.4795
G01 X11.7705 Y15.3160
G01 X11.6296 Y15.1325
G01 X11.5140 Y14.9321
G01 X11.4255 Y14.7184
G01 X11.3656 Y14.4950
G01 X11.3370 Y14.2782
G01 X11.3342 Y14.2627
G01 X11.3306 Y14.2475
G01 X11.3211 Y14.2108
G01 X11.3164 Y14.1959
G01 X11.3111 Y14.1811
G01 X10.8579 Y13.0245
G01 X10.8479 Y13.0016
G01 X10.8403 Y12.9868
G01 X10.8319 Y12.9724
G01 X10.7996 Y12.9229
G01 X10.7902 Y12.9092
G01 X10.7747 Y12.8897
G01 X10.7635 Y12.8773
G01 X10.2866 Y12.4003
G01 X10.2755 Y12.3896
G01 X10.2639 Y12.3796
G01 X10.2518 Y12.3700
G01 X10.2328 Y12.3569
G01 X10.2129 Y12.3451
G01 X10.1516 Y12.3116
G01 X10.1301 Y12.3009
G01 X10.1078 Y12.2917
G01 X10.0925 Y12.2866
G01 X10.0693 Y12.2803
G01 X10.0536 Y12.2771
G01 X10.0377 Y12.2747
G01 X10.0217 Y12.2730
G01 X9.9976 Y12.2721
G01 X9.9736 Y12.2729
G01 X9.9039 Y12.2779
G01 X9.8879 Y12.2794
G01 X9.8720 Y12.2817
G01 X9.8562 Y12.2849
G01 X9.8406 Y12.2888
G01 X9.8253 Y12.2934
G01 X9.8101 Y12.2989
G01 X9.7953 Y12.3050
G01 X9.7751 Y12.3141
G01 X9.7338 Y12.3354
G01 X9.6092 Y12.3710
G01 X9.5408 Y12.3771
G01 X6.7028 Y12.3771
G01 X6.6797 Y12.3779
G01 X6.6567 Y12.3804
G01 X6.6340 Y12.3845
G01 X6.6190 Y12.3881
G01 X6.5446 Y12.4099
G01 X6.5293 Y12.4148
G01 X6.5143 Y12.4205
G01 X6.4923 Y12.4303
G01 X6.4781 Y12.4378
G01 X6.4643 Y12.4460
G01 X6.4509 Y12.4548
G01 X6.4379 Y12.4643
G01 X6.4255 Y12.4745
G01 X6.4135 Y12.4852
G01 X6.4021 Y12.4965
G01 X6.3913 Y12.5084
G01 X6.3404 Y12.5673
G01 X6.3258 Y12.5865
G01 X6.3168 Y12.5998
G01 X6.3047 Y12.6206
G01 X6.2975 Y12.6350
G01 X6.2910 Y12.6497
G01 X6.2852 Y12.6647
G01 X6.2802 Y12.6800
G01 X6.2760 Y12.6954
G01 X6.2725 Y12.7111
G01 X6.2699 Y12.7270
G01 X6.2589 Y12.8040
G01 X6.2574 Y12.8198
G01 X6.2567 Y12.8374
G01 X6.2267 Y12.8234
G01 X6.2046 Y12.8145
G01 X6.1664 Y12.8013
G01 X6.1274 Y12.7911
G01 X6.1041 Y12.7862
G01 X6.0641 Y12.7802
G01 X6.0483 Y12.7787
G01 X6.0079 Y12.7767
G01 X4.0304 Y12.7766
G01 X4.0679 Y12.7332
G01 X4.0826 Y12.7140
G01 X4.0915 Y12.7007
G01 X4.0997 Y12.6869
G01 X4.1108 Y12.6655
G01 X4.1203 Y12.6433
G01 X4.1257 Y12.6282
G01 X4.1323 Y12.6051
G01 X4.1372 Y12.5815
G01 X4.1484 Y12.5044
G01 X4.1502 Y12.4888
G01 X4.1513 Y12.4732
G01 X4.1516 Y12.4498
G01 X4.1508 Y12.4342
G01 X4.1482 Y12.4109
G01 X4.1439 Y12.3878
G01 X4.1401 Y12.3726
G01 X4.1356 Y12.3576
G01 X4.1304 Y12.3429
G01 X4.1244 Y12.3284
G01 X4.0978 Y12.2677
G01 X4.0911 Y12.2533
G01 X4.0836 Y12.2392
G01 X4.0712 Y12.2189
G01 X4.0572 Y12.1995
G01 X3.9737 Y12.0969
G01 X3.9146 Y11.9838
G01 X3.8790 Y11.8592
G01 X3.8729 Y11.7908
G01 X3.8729 Y11.2092
G01 X3.8790 Y11.1408
G01 X3.9146 Y11.0162
G01 X3.9737 Y10.9031
G01 X4.0719 Y10.7827
G01 X4.0813 Y10.7706
G01 X4.0902 Y10.7580
G01 X4.0984 Y10.7450
G01 X4.1060 Y10.7316
G01 X4.1130 Y10.7179
G01 X4.1193 Y10.7038
G01 X4.1464 Y10.6394
G01 X4.1523 Y10.6245
G01 X4.1574 Y10.6093
G01 X4.1617 Y10.5938
G01 X4.1668 Y10.5703
G01 X4.1692 Y10.5544
G01 X4.1713 Y10.5304
G01 X4.1717 Y10.5143
G01 X4.1713 Y10.4983
G01 X4.1693 Y10.4743
G01 X4.1669 Y10.4584
G01 X4.1549 Y10.3896
G01 X4.1517 Y10.3738
G01 X4.1455 Y10.3504
G01 X4.1376 Y10.3276
G01 X4.1280 Y10.3054
G01 X4.1168 Y10.2841
G01 X4.1084 Y10.2703
G01 X4.0851 Y10.2347
G01 X4.0719 Y10.2173
G01 X3.9737 Y10.0969
G01 X3.9146 Y9.9838
G01 X3.8790 Y9.8592
G01 X3.8729 Y9.7908
G01 X3.8729 Y9.2092
G01 X3.8790 Y9.1408
G01 X3.9146 Y9.0162
G01 X3.9737 Y8.9031
G01 X4.0523 Y8.8067
G01 X4.0617 Y8.7946
G01 X4.0706 Y8.7820
G01 X4.0788 Y8.7690
G01 X4.0864 Y8.7556
G01 X4.0934 Y8.7419
G01 X4.0997 Y8.7278
G01 X4.1268 Y8.6634
G01 X4.1353 Y8.6409
G01 X4.1401 Y8.6256
G01 X4.1440 Y8.6100
G01 X4.1485 Y8.5863
G01 X4.1505 Y8.5704
G01 X4.1517 Y8.5544
G01 X4.1522 Y8.5383
G01 X4.1518 Y8.5223
G01 X4.1497 Y8.4983
G01 X4.1473 Y8.4824
G01 X4.1339 Y8.4057
G01 X4.1303 Y8.3900
G01 X4.1236 Y8.3669
G01 X4.1151 Y8.3443
G01 X4.1085 Y8.3297
G01 X4.1012 Y8.3153
G01 X4.0890 Y8.2946
G01 X4.0800 Y8.2813
G01 X4.0653 Y8.2622
G01 X4.0547 Y8.2501
G01 X4.0301 Y8.2234
G00 Z2.0000
G00 X4.1970 Y8.3116
G01 F30.00
G01 Z-0.0499
G01 F75.00
G01 X6.0101 Y8.3115
G01 X6.0548 Y8.3093
G01 X6.0849 Y8.3059
G01 X6.1092 Y8.3023
G01 X6.1291 Y8.2989
G01 X6.1488 Y8.2945
G01 X6.1817 Y8.2861
G01 X6.1861 Y8.3011
G01 X6.2070 Y8.3677
G01 X6.2102 Y8.3774
G01 X6.2173 Y8.3966
G01 X6.2253 Y8.4154
G01 X6.2342 Y8.4338
G01 X6.2441 Y8.4517
G01 X6.2493 Y8.4605
G01 X6.2605 Y8.4776
G01 X6.2725 Y8.4941
G01 X6.2853 Y8.5101
G01 X6.2989 Y8.5254
G01 X6.3132 Y8.5400
G01 X6.3282 Y8.5538
G01 X6.3694 Y8.5884
G01 X4.4899 Y8.5885
G01 X4.4452 Y8.5907
G01 X4.4251 Y8.5927
G01 X4.3809 Y8.5993
G01 X4.3610 Y8.6032
G01 X4.3176 Y8.6141
G01 X4.2983 Y8.6199
G01 X4.2562 Y8.6350
G01 X4.2375 Y8.6427
G01 X4.2253 Y8.6484
G01 X4.2300 Y8.6296
G01 X4.2341 Y8.6096
G01 X4.2371 Y8.5894
G01 X4.2383 Y8.5792
G01 X4.2398 Y8.5589
G01 X4.2402 Y8.5486
G01 X4.2402 Y8.5282
G01 X4.2393 Y8.5078
G01 X4.2372 Y8.4874
G01 X4.2342 Y8.4672
G01 X4.2222 Y8.3984
G01 X4.2182 Y8.3783
G01 X4.2158 Y8.3684
G01 X4.2103 Y8.3487
G01 X4.2039 Y8.3293
G01 X4.1970 Y8.3116
G00 Z2.0000
G00 X4.3120 Y8.3998
G01 F30.00
G01 Z-0.0499
G01 F75.00
G01 X6.0000 Y8.3998
G01 X6.0245 Y8.3992
G01 X6.0613 Y8.3972
G01 X6.0857 Y8.3948
G01 X6.1214 Y8.3897
G01 X6.1309 Y8.4176
G01 X6.1400 Y8.4407
G01 X6.1450 Y8.4520
G01 X6.1559 Y8.4744
G01 X6.1703 Y8.5002
G01 X4.5000 Y8.5002
G01 X4.4755 Y8.5008
G01 X4.4510 Y8.5020
G01 X4.4387 Y8.5028
G01 X4.4143 Y8.5052
G01 X4.3658 Y8.5124
G01 X4.3417 Y8.5171
G01 X4.3282 Y8.5204
G01 X4.3272 Y8.5013
G01 X4.3248 Y8.4766
G01 X4.3211 Y8.4521
G01 X4.3120 Y8.3998
G00 Z2.0000
G00 X4.5000 Y8.6766
G01 F30.00
G01 Z-0.0499
G01 F75.00
G01 X9.5079 Y8.6767
G01 X9.5404 Y8.6782
G01 X9.5562 Y8.6794
G01 X9.5720 Y8.6813
G01 X9.6041 Y8.6862
G01 X9.6196 Y8.6893
G01 X9.6512 Y8.6971
G01 X9.6664 Y8.7013
G01 X9.6815 Y8.7063
G01 X9.7194 Y8.7202
G01 X9.7339 Y8.7267
G01 X9.7703 Y8.7443
G01 X9.7841 Y8.7521
G01 X9.8186 Y8.7732
G01 X9.8315 Y8.7824
G01 X9.8571 Y8.8014
G01 X10.6533 Y8.8014
G01 X11.9190 Y8.2136
G01 X12.0026 Y8.1378
G01 X12.0146 Y8.1275
G01 X12.0271 Y8.1177
G01 X12.1365 Y8.0366
G01 X12.1495 Y8.0274
G01 X12.1629 Y8.0189
G01 X12.2797 Y7.9489
G01 X12.2935 Y7.9411
G01 X12.3077 Y7.9340
G01 X12.4308 Y7.8758
G01 X12.4453 Y7.8693
G01 X12.4601 Y7.8636
G01 X12.5883 Y7.8178
G01 X12.6034 Y7.8128
G01 X12.6187 Y7.8085
G01 X12.7507 Y7.7755
G01 X12.7662 Y7.7720
G01 X12.7819 Y7.7693
G01 X12.9165 Y7.7493
G01 X12.9323 Y7.7473
G01 X12.9481 Y7.7462
G01 X13.0841 Y7.7395
G01 X13.1000 Y7.7391
G01 X13.1159 Y7.7395
G01 X13.2519 Y7.7462
G01 X13.2677 Y7.7473
G01 X13.2835 Y7.7493
G01 X13.4181 Y7.7693
G01 X13.4338 Y7.7720
G01 X13.4493 Y7.7755
G01 X13.5813 Y7.8085
G01 X13.5966 Y7.8128
G01 X13.6117 Y7.8178
G01 X13.7399 Y7.8636
G01 X13.7547 Y7.8693
G01 X13.7692 Y7.8758
G01 X13.8923 Y7.9340
G01 X13.9065 Y7.9411
G01 X13.9203 Y7.9489
G01 X14.0371 Y8.0189
G01 X14.0505 Y8.0274
G01 X14.0635 Y8.0366
G01 X14.1729 Y8.1177
G01 X14.1854 Y8.1275
G01 X14.1974 Y8.1378
G01 X14.2983 Y8.2293
G01 X14.3098 Y8.2402
G01 X14.3207 Y8.2517
G01 X14.4122 Y8.3526
G01 X14.4225 Y8.3646
G01 X14.4323 Y8.3771
G01 X14.5134 Y8.4865
G01 X14.5226 Y8.4995
G01 X14.5311 Y8.5129
G01 X14.6011 Y8.6297
G01 X14.6089 Y8.6435
G01 X14.6160 Y8.6577
G01 X14.6742 Y8.7808
G01 X14.6807 Y8.7953
G01 X14.6864 Y8.8101
G01 X14.7322 Y8.9383
G01 X14.7372 Y8.9534
G01 X14.7415 Y8.9687
G01 X14.7745 Y9.1007
G01 X14.7780 Y9.1162
G01 X14.7807 Y9.1319
G01 X14.8007 Y9.2665
G01 X14.8027 Y9.2823
G01 X14.8038 Y9.2981
G01 X14.8105 Y9.4341
G01 X14.8109 Y9.4500
G01 X14.8105 Y9.4659
G01 X14.8038 Y9.6019
G01 X14.8027 Y9.6177
G01 X14.8007 Y9.6335
G01 X14.7807 Y9.7681
G01 X14.7780 Y9.7838
G01 X14.7745 Y9.7993
G01 X14.7415 Y9.9313
G01 X14.7372 Y9.9466
G01 X14.7322 Y9.9617
G01 X14.6864 Y10.0899
G01 X14.6807 Y10.1047
G01 X14.6742 Y10.1192
G01 X14.6160 Y10.2423
G01 X14.6089 Y10.2565
G01 X14.6011 Y10.2703
G01 X14.5311 Y10.3871
G01 X14.5226 Y10.4005
G01 X14.5134 Y10.4135
G01 X14.4323 Y10.5229
G01 X14.4225 Y10.5354
G01 X14.4122 Y10.5474
G01 X14.3207 Y10.6483
G01 X14.3098 Y10.6598
G01 X14.2983 Y10.6707
G01 X14.1974 Y10.7622
G01 X14.1854 Y10.7725
G01 X14.1729 Y10.7823
G01 X14.0635 Y10.8634
G01 X14.0505 Y10.8726
G01 X14.0371 Y10.8811
G01 X13.9203 Y10.9511
G01 X13.9065 Y10.9589
G01 X13.8923 Y10.9660
G01 X13.7692 Y11.0242
G01 X13.7547 Y11.0307
G01 X13.7399 Y11.0364
G01 X13.6117 Y11.0822
G01 X13.5966 Y11.0872
G01 X13.5813 Y11.0915
G01 X13.4493 Y11.1245
G01 X13.4338 Y11.1280
G01 X13.4181 Y11.1307
G01 X13.2835 Y11.1507
G01 X13.2677 Y11.1527
G01 X13.2519 Y11.1538
G01 X13.1159 Y11.1605
G01 X13.1000 Y11.1609
G01 X13.0841 Y11.1605
G01 X12.9481 Y11.1538
G01 X12.9323 Y11.1527
G01 X12.9165 Y11.1507
G01 X12.7819 Y11.1307
G01 X12.7662 Y11.1280
G01 X12.7507 Y11.1245
G01 X12.6187 Y11.0915
G01 X12.6034 Y11.0872
G01 X12.5883 Y11.0822
G01 X12.4601 Y11.0364
G01 X12.4453 Y11.0307
G01 X12.4308 Y11.0242
G01 X12.3077 Y10.9660
G01 X12.2935 Y10.9589
G01 X12.2797 Y10.9511
G01 X12.1561 Y10.8769
G01 X12.1365 Y10.8634
G01 X12.0208 Y10.7775
G01 X12.0085 Y10.7674
G01 X11.9757 Y10.7378
G01 X10.6611 Y10.1986
G01 X9.8571 Y10.1986
G01 X9.8315 Y10.2176
G01 X9.8186 Y10.2268
G01 X9.8052 Y10.2353
G01 X9.7703 Y10.2557
G01 X9.7339 Y10.2733
G01 X9.7194 Y10.2798
G01 X9.6815 Y10.2937
G01 X9.6664 Y10.2987
G01 X9.6512 Y10.3029
G01 X9.6196 Y10.3107
G01 X9.6041 Y10.3138
G01 X9.5720 Y10.3187
G01 X9.5562 Y10.3206
G01 X9.5404 Y10.3218
G01 X9.5079 Y10.3233
G01 X4.5000 Y10.3234
G01 X4.4841 Y10.3230
G01 X4.4517 Y10.3213
G01 X4.4280 Y10.3187
G01 X4.3881 Y10.3124
G01 X4.3726 Y10.3089
G01 X4.3336 Y10.2987
G01 X4.2954 Y10.2855
G01 X4.2733 Y10.2766
G01 X4.2367 Y10.2593
G01 X4.2159 Y10.2479
G01 X4.1814 Y10.2268
G01 X4.1488 Y10.2030
G01 X4.1302 Y10.1881
G01 X4.1002 Y10.1610
G01 X4.0836 Y10.1440
G01 X4.0568 Y10.1138
G01 X4.0324 Y10.0815
G01 X4.0232 Y10.0686
G01 X4.0021 Y10.0341
G01 X3.9907 Y10.0133
G01 X3.9734 Y9.9767
G01 X3.9645 Y9.9546
G01 X3.9513 Y9.9164
G01 X3.9411 Y9.8774
G01 X3.9376 Y9.8619
G01 X3.9349 Y9.8462
G01 X3.9294 Y9.8062
G01 X3.9270 Y9.7659
G01 X3.9266 Y9.7500
G01 X3.9266 Y9.2500
G01 X3.9270 Y9.2341
G01 X3.9294 Y9.1938
G01 X3.9349 Y9.1538
G01 X3.9376 Y9.1381
G01 X3.9411 Y9.1226
G01 X3.9513 Y9.0836
G01 X3.9645 Y9.0454
G01 X3.9702 Y9.0306
G01 X3.9767 Y9.0161
G01 X3.9907 Y8.9867
G01 X3.9981 Y8.9727
G01 X4.0189 Y8.9381
G01 X4.0277 Y8.9249
G01 X4.0518 Y8.8924
G01 X4.0619 Y8.8802
G01 X4.0890 Y8.8502
G01 X4.1002 Y8.8390
G01 X4.1242 Y8.8171
G01 X4.1424 Y8.8018
G01 X4.1685 Y8.7824
G01 X4.1814 Y8.7732
G01 X4.1948 Y8.7647
G01 X4.2227 Y8.7481
G01 X4.2367 Y8.7407
G01 X4.2733 Y8.7234
G01 X4.2879 Y8.7173
G01 X4.3185 Y8.7063
G01 X4.3336 Y8.7013
G01 X4.3488 Y8.6971
G01 X4.3881 Y8.6876
G01 X4.4038 Y8.6849
G01 X4.4438 Y8.6794
G01 X4.4841 Y8.6770
G01 X4.5000 Y8.6766
G00 Z2.0000
G00 X4.5000 Y8.7648
G01 F30.00
G01 Z-0.0499
G01 F75.00
G01 X9.5058 Y8.7649
G01 X9.5476 Y8.7671
G01 X9.5590 Y8.7685
G01 X9.5947 Y8.7741
G01 X9.6059 Y8.7767
G01 X9.6408 Y8.7857
G01 X9.6803 Y8.7996
G01 X9.6962 Y8.8064
G01 X9.7287 Y8.8221
G01 X9.7647 Y8.8434
G01 X9.7790 Y8.8532
G01 X9.8033 Y8.8713
G01 X9.8122 Y8.8787
G01 X9.8244 Y8.8896
G01 X10.6728 Y8.8896
G01 X11.9683 Y8.2880
G01 X12.0618 Y8.2032
G01 X12.0706 Y8.1956
G01 X12.0797 Y8.1885
G01 X12.1890 Y8.1074
G01 X12.1985 Y8.1008
G01 X12.2082 Y8.0946
G01 X12.3250 Y8.0246
G01 X12.3351 Y8.0189
G01 X12.3454 Y8.0137
G01 X12.4685 Y7.9555
G01 X12.4790 Y7.9508
G01 X12.4898 Y7.9467
G01 X12.6180 Y7.9008
G01 X12.6290 Y7.8972
G01 X12.6401 Y7.8941
G01 X12.7722 Y7.8610
G01 X12.7834 Y7.8585
G01 X12.7948 Y7.8565
G01 X12.9295 Y7.8365
G01 X12.9409 Y7.8351
G01 X12.9525 Y7.8343
G01 X13.0885 Y7.8276
G01 X13.1000 Y7.8273
G01 X13.1115 Y7.8276
G01 X13.2533 Y7.8346
G01 X13.2705 Y7.8365
G01 X13.4052 Y7.8565
G01 X13.4166 Y7.8585
G01 X13.4278 Y7.8610
G01 X13.5599 Y7.8941
G01 X13.5710 Y7.8972
G01 X13.5820 Y7.9008
G01 X13.7102 Y7.9467
G01 X13.7210 Y7.9508
G01 X13.7315 Y7.9555
G01 X13.8546 Y8.0137
G01 X13.8649 Y8.0189
G01 X13.8750 Y8.0246
G01 X13.9918 Y8.0946
G01 X14.0015 Y8.1008
G01 X14.0110 Y8.1074
G01 X14.1203 Y8.1885
G01 X14.1294 Y8.1956
G01 X14.1382 Y8.2032
G01 X14.2391 Y8.2946
G01 X14.2474 Y8.3026
G01 X14.2554 Y8.3109
G01 X14.3468 Y8.4118
G01 X14.3544 Y8.4206
G01 X14.3615 Y8.4297
G01 X14.4426 Y8.5390
G01 X14.4492 Y8.5485
G01 X14.4554 Y8.5582
G01 X14.5254 Y8.6750
G01 X14.5311 Y8.6851
G01 X14.5363 Y8.6954
G01 X14.5945 Y8.8185
G01 X14.5992 Y8.8290
G01 X14.6033 Y8.8398
G01 X14.6492 Y8.9680
G01 X14.6528 Y8.9790
G01 X14.6559 Y8.9901
G01 X14.6890 Y9.1222
G01 X14.6915 Y9.1334
G01 X14.6935 Y9.1448
G01 X14.7135 Y9.2795
G01 X14.7149 Y9.2909
G01 X14.7157 Y9.3025
G01 X14.7224 Y9.4385
G01 X14.7227 Y9.4500
G01 X14.7224 Y9.4615
G01 X14.7154 Y9.6033
G01 X14.7135 Y9.6205
G01 X14.6935 Y9.7552
G01 X14.6915 Y9.7666
G01 X14.6890 Y9.7778
G01 X14.6559 Y9.9099
G01 X14.6528 Y9.9210
G01 X14.6492 Y9.9320
G01 X14.6033 Y10.0602
G01 X14.5992 Y10.0710
G01 X14.5945 Y10.0815
G01 X14.5363 Y10.2046
G01 X14.5311 Y10.2149
G01 X14.5254 Y10.2250
G01 X14.4554 Y10.3418
G01 X14.4492 Y10.3515
G01 X14.4426 Y10.3610
G01 X14.3615 Y10.4703
G01 X14.3544 Y10.4794
G01 X14.3468 Y10.4882
G01 X14.2554 Y10.5891
G01 X14.2474 Y10.5974
G01 X14.2391 Y10.6054
G01 X14.1382 Y10.6968
G01 X14.1294 Y10.7044
G01 X14.1203 Y10.7115
G01 X14.0110 Y10.7926
G01 X14.0015 Y10.7992
G01 X13.9918 Y10.8054
G01 X13.8750 Y10.8754
G01 X13.8649 Y10.8811
G01 X13.8546 Y10.8863
G01 X13.7315 Y10.9445
G01 X13.7210 Y10.9492
G01 X13.7102 Y10.9533
G01 X13.5820 Y10.9992
G01 X13.5710 Y11.0028
G01 X13.5599 Y11.0059
G01 X13.4278 Y11.0390
G01 X13.4166 Y11.0415
G01 X13.4052 Y11.0435
G01 X13.2705 Y11.0635
G01 X13.2591 Y11.0649
G01 X13.2475 Y11.0657
G01 X13.1115 Y11.0724
G01 X13.1000 Y11.0727
G01 X13.0885 Y11.0724
G01 X12.9467 Y11.0654
G01 X12.9295 Y11.0635
G01 X12.7948 Y11.0435
G01 X12.7834 Y11.0415
G01 X12.7722 Y11.0390
G01 X12.6401 Y11.0059
G01 X12.6290 Y11.0028
G01 X12.6180 Y10.9992
G01 X12.4898 Y10.9533
G01 X12.4790 Y10.9492
G01 X12.4685 Y10.9445
G01 X12.3454 Y10.8863
G01 X12.3351 Y10.8811
G01 X12.3250 Y10.8754
G01 X12.2033 Y10.8024
G01 X12.1890 Y10.7926
G01 X12.0751 Y10.7080
G01 X12.0618 Y10.6968
G01 X12.0235 Y10.6621
G01 X10.6785 Y10.1104
G01 X9.8244 Y10.1104
G01 X9.8122 Y10.1213
G01 X9.8033 Y10.1287
G01 X9.7790 Y10.1468
G01 X9.7647 Y10.1566
G01 X9.7287 Y10.1779
G01 X9.6962 Y10.1936
G01 X9.6803 Y10.2004
G01 X9.6408 Y10.2143
G01 X9.6297 Y10.2174
G01 X9.5947 Y10.2259
G01 X9.5833 Y10.2279
G01 X9.5476 Y10.2329
G01 X9.5058 Y10.2351
G01 X4.5000 Y10.2352
G01 X4.4582 Y10.2334
G01 X4.4410 Y10.2315
G01 X4.4053 Y10.2259
G01 X4.3647 Y10.2159
G01 X4.3482 Y10.2107
G01 X4.3143 Y10.1983
G01 X4.2764 Y10.1806
G01 X4.2612 Y10.1722
G01 X4.2304 Y10.1534
G01 X4.2013 Y10.1322
G01 X4.1878 Y10.1213
G01 X4.1569 Y10.0931
G01 X4.1325 Y10.0665
G01 X4.1213 Y10.0533
G01 X4.0998 Y10.0243
G01 X4.0904 Y10.0098
G01 X4.0721 Y9.9787
G01 X4.0564 Y9.9462
G01 X4.0496 Y9.9303
G01 X4.0374 Y9.8963
G01 X4.0341 Y9.8853
G01 X4.0267 Y9.8559
G01 X4.0241 Y9.8447
G01 X4.0221 Y9.8333
G01 X4.0171 Y9.7976
G01 X4.0149 Y9.7558
G01 X4.0148 Y9.2500
G01 X4.0151 Y9.2385
G01 X4.0171 Y9.2024
G01 X4.0221 Y9.1667
G01 X4.0241 Y9.1553
G01 X4.0267 Y9.1441
G01 X4.0357 Y9.1092
G01 X4.0393 Y9.0982
G01 X4.0517 Y9.0643
G01 X4.0669 Y9.0316
G01 X4.0721 Y9.0213
G01 X4.0778 Y9.0112
G01 X4.0966 Y8.9804
G01 X4.1032 Y8.9710
G01 X4.1249 Y8.9422
G01 X4.1490 Y8.9153
G01 X4.1569 Y8.9069
G01 X4.1835 Y8.8825
G01 X4.1967 Y8.8713
G01 X4.2210 Y8.8532
G01 X4.2304 Y8.8466
G01 X4.2402 Y8.8404
G01 X4.2662 Y8.8249
G01 X4.2764 Y8.8194
G01 X4.3038 Y8.8064
G01 X4.3197 Y8.7996
G01 X4.3592 Y8.7857
G01 X4.3703 Y8.7826
G01 X4.4053 Y8.7741
G01 X4.4167 Y8.7721
G01 X4.4524 Y8.7671
G01 X4.4885 Y8.7651
G01 X4.5000 Y8.7648
G00 Z2.0000
G00 X4.5000 Y8.8530
G01 F30.00
G01 Z-0.0499
G01 F75.00
G01 X9.5036 Y8.8530
G01 X9.5389 Y8.8549
G01 X9.5775 Y8.8606
G01 X9.6152 Y8.8701
G01 X9.6452 Y8.8806
G01 X9.6552 Y8.8846
G01 X9.6871 Y8.8999
G01 X9.7145 Y8.9160
G01 X9.7235 Y8.9219
G01 X9.7462 Y8.9387
G01 X9.7546 Y8.9454
G01 X9.7781 Y8.9668
G01 X9.7887 Y8.9778
G01 X10.6923 Y8.9778
G01 X12.0177 Y8.3622
G01 X12.1265 Y8.2638
G01 X12.2475 Y8.1741
G01 X12.3766 Y8.0967
G01 X12.5128 Y8.0323
G01 X12.6546 Y7.9816
G01 X12.7936 Y7.9466
G01 X12.8077 Y7.9438
G01 X12.9496 Y7.9229
G01 X13.0928 Y7.9157
G01 X13.1072 Y7.9157
G01 X13.2468 Y7.9226
G01 X13.2576 Y7.9238
G01 X13.3994 Y7.9450
G01 X13.5454 Y7.9816
G01 X13.6872 Y8.0323
G01 X13.8234 Y8.0967
G01 X13.9525 Y8.1741
G01 X14.0735 Y8.2638
G01 X14.1851 Y8.3649
G01 X14.2862 Y8.4765
G01 X14.3759 Y8.5975
G01 X14.4533 Y8.7266
G01 X14.5177 Y8.8628
G01 X14.5684 Y9.0046
G01 X14.6050 Y9.1506
G01 X14.6271 Y9.2996
G01 X14.6345 Y9.4500
G01 X14.6274 Y9.5968
G01 X14.6262 Y9.6076
G01 X14.6050 Y9.7494
G01 X14.5684 Y9.8954
G01 X14.5177 Y10.0372
G01 X14.4533 Y10.1734
G01 X14.3759 Y10.3025
G01 X14.2862 Y10.4235
G01 X14.1851 Y10.5351
G01 X14.0735 Y10.6362
G01 X13.9525 Y10.7259
G01 X13.8234 Y10.8033
G01 X13.6872 Y10.8677
G01 X13.5454 Y10.9184
G01 X13.3994 Y10.9550
G01 X13.2504 Y10.9771
G01 X13.1000 Y10.9845
G01 X12.9532 Y10.9774
G01 X12.9424 Y10.9762
G01 X12.8077 Y10.9562
G01 X12.7936 Y10.9534
G01 X12.6546 Y10.9184
G01 X12.5128 Y10.8677
G01 X12.3766 Y10.8033
G01 X12.2505 Y10.7279
G01 X12.2416 Y10.7217
G01 X12.1293 Y10.6384
G01 X12.1211 Y10.6315
G01 X12.0713 Y10.5864
G01 X10.6959 Y10.0222
G01 X9.7887 Y10.0222
G01 X9.7781 Y10.0332
G01 X9.7546 Y10.0546
G01 X9.7462 Y10.0613
G01 X9.7235 Y10.0781
G01 X9.7145 Y10.0840
G01 X9.6871 Y10.1001
G01 X9.6552 Y10.1154
G01 X9.6452 Y10.1194
G01 X9.6152 Y10.1299
G01 X9.5775 Y10.1394
G01 X9.5389 Y10.1451
G01 X9.5036 Y10.1470
G01 X4.5000 Y10.1470
G01 X4.4683 Y10.1456
G01 X4.4539 Y10.1442
G01 X4.4225 Y10.1394
G01 X4.3917 Y10.1318
G01 X4.3779 Y10.1276
G01 X4.3481 Y10.1168
G01 X4.3193 Y10.1034
G01 X4.3066 Y10.0966
G01 X4.2794 Y10.0801
G01 X4.2538 Y10.0613
G01 X4.2427 Y10.0522
G01 X4.2193 Y10.0307
G01 X4.1931 Y10.0019
G01 X4.1741 Y9.9765
G01 X4.1660 Y9.9645
G01 X4.1499 Y9.9371
G01 X4.1361 Y9.9085
G01 X4.1306 Y9.8952
G01 X4.1201 Y9.8652
G01 X4.1122 Y9.8345
G01 X4.1094 Y9.8203
G01 X4.1049 Y9.7889
G01 X4.1030 Y9.7536
G01 X4.1030 Y9.2500
G01 X4.1046 Y9.2147
G01 X4.1058 Y9.2039
G01 X4.1106 Y9.1725
G01 X4.1191 Y9.1382
G01 X4.1224 Y9.1279
G01 X4.1319 Y9.1014
G01 X4.1361 Y9.0915
G01 X4.1466 Y9.0693
G01 X4.1534 Y9.0566
G01 X4.1679 Y9.0325
G01 X4.1741 Y9.0235
G01 X4.1887 Y9.0038
G01 X4.1954 Y8.9954
G01 X4.2168 Y8.9719
G01 X4.2245 Y8.9643
G01 X4.2481 Y8.9431
G01 X4.2794 Y8.9199
G01 X4.3129 Y8.8999
G01 X4.3481 Y8.8832
G01 X4.3848 Y8.8701
G01 X4.4225 Y8.8606
G01 X4.4611 Y8.8549
G01 X4.5000 Y8.8530
G00 Z2.0000
G00 X4.5000 Y8.9412
G01 F30.00
G01 Z-0.0499
G01 F75.00
G01 X9.5014 Y8.9412
G01 X9.5303 Y8.9427
G01 X9.5631 Y8.9478
G01 X9.5896 Y8.9545
G01 X9.6155 Y8.9637
G01 X9.6443 Y8.9770
G01 X9.6716 Y8.9932
G01 X9.6970 Y9.0122
G01 X9.7194 Y9.0327
G01 X9.7378 Y9.0530
G01 X9.7476 Y9.0660
G01 X10.7118 Y9.0660
G01 X12.0701 Y8.4352
G01 X12.0794 Y8.4253
G01 X12.1825 Y8.3320
G01 X12.2965 Y8.2474
G01 X12.4182 Y8.1745
G01 X12.5465 Y8.1138
G01 X12.6802 Y8.0660
G01 X12.8150 Y8.0321
G01 X12.8207 Y8.0310
G01 X12.9582 Y8.0107
G01 X13.0971 Y8.0038
G01 X13.1029 Y8.0038
G01 X13.2403 Y8.0105
G01 X13.3822 Y8.0315
G01 X13.5198 Y8.0660
G01 X13.6535 Y8.1138
G01 X13.7818 Y8.1745
G01 X13.9035 Y8.2474
G01 X14.0175 Y8.3320
G01 X14.1227 Y8.4273
G01 X14.2180 Y8.5325
G01 X14.3026 Y8.6465
G01 X14.3755 Y8.7682
G01 X14.4362 Y8.8965
G01 X14.4840 Y9.0302
G01 X14.5185 Y9.1678
G01 X14.5393 Y9.3082
G01 X14.5463 Y9.4500
G01 X14.5395 Y9.5903
G01 X14.5185 Y9.7322
G01 X14.4840 Y9.8698
G01 X14.4362 Y10.0035
G01 X14.3755 Y10.1318
G01 X14.3026 Y10.2535
G01 X14.2180 Y10.3675
G01 X14.1227 Y10.4727
G01 X14.0175 Y10.5680
G01 X13.9035 Y10.6526
G01 X13.7818 Y10.7255
G01 X13.6535 Y10.7862
G01 X13.5198 Y10.8340
G01 X13.3822 Y10.8685
G01 X13.2418 Y10.8893
G01 X13.1000 Y10.8963
G01 X12.9597 Y10.8895
G01 X12.8207 Y10.8690
G01 X12.8150 Y10.8679
G01 X12.6802 Y10.8340
G01 X12.5465 Y10.7862
G01 X12.4182 Y10.7255
G01 X12.2977 Y10.6533
G01 X12.1836 Y10.5689
G01 X12.1191 Y10.5106
G01 X10.7132 Y9.9340
G01 X9.7476 Y9.9340
G01 X9.7378 Y9.9470
G01 X9.7194 Y9.9673
G01 X9.6970 Y9.9878
G01 X9.6716 Y10.0068
G01 X9.6443 Y10.0230
G01 X9.6155 Y10.0363
G01 X9.5896 Y10.0455
G01 X9.5631 Y10.0522
G01 X9.5303 Y10.0573
G01 X9.5014 Y10.0588
G01 X4.5000 Y10.0588
G01 X4.4697 Y10.0573
G01 X4.4383 Y10.0526
G01 X4.4104 Y10.0455
G01 X4.3845 Y10.0363
G01 X4.3544 Y10.0223
G01 X4.3261 Y10.0051
G01 X4.3041 Y9.9887
G01 X4.2837 Y9.9703
G01 X4.2613 Y9.9459
G01 X4.2417 Y9.9191
G01 X4.2277 Y9.8956
G01 X4.2159 Y9.8708
G01 X4.2045 Y9.8396
G01 X4.1966 Y9.8074
G01 X4.1927 Y9.7803
G01 X4.1912 Y9.7514
G01 X4.1912 Y9.2500
G01 X4.1925 Y9.2226
G01 X4.1971 Y9.1898
G01 X4.2045 Y9.1604
G01 X4.2147 Y9.1318
G01 X4.2264 Y9.1070
G01 X4.2291 Y9.1019
G01 X4.2449 Y9.0761
G01 X4.2613 Y9.0541
G01 X4.2837 Y9.0297
G01 X4.3041 Y9.0113
G01 X4.3284 Y8.9932
G01 X4.3544 Y8.9777
G01 X4.3818 Y8.9647
G01 X4.4104 Y8.9545
G01 X4.4398 Y8.9471
G01 X4.4697 Y8.9427
G01 X4.5000 Y8.9412
G00 Z2.0000
G00 X4.5000 Y10.6766
G01 F30.00
G01 Z-0.0499
G01 F75.00
G01 X9.5079 Y10.6767
G01 X9.5404 Y10.6782
G01 X9.5562 Y10.6794
G01 X9.5720 Y10.6813
G01 X9.6041 Y10.6862
G01 X9.6196 Y10.6893
G01 X9.6512 Y10.6971
G01 X9.6664 Y10.7013
G01 X9.6815 Y10.7063
G01 X9.7194 Y10.7202
G01 X9.7339 Y10.7267
G01 X9.7703 Y10.7443
G01 X9.7841 Y10.7521
G01 X9.8186 Y10.7732
G01 X9.8315 Y10.7824
G01 X9.8571 Y10.8014
G01 X10.4500 Y10.8014
G01 X10.4659 Y10.8018
G01 X10.5106 Y10.8041
G01 X10.5264 Y10.8057
G01 X10.5706 Y10.8121
G01 X10.5863 Y10.8148
G01 X10.6018 Y10.8183
G01 X10.6375 Y10.8273
G01 X10.6528 Y10.8315
G01 X10.6679 Y10.8365
G01 X10.7025 Y10.8489
G01 X10.7173 Y10.8546
G01 X10.7318 Y10.8610
G01 X10.7651 Y10.8768
G01 X10.7793 Y10.8839
G01 X10.7931 Y10.8917
G01 X10.8247 Y10.9107
G01 X10.8381 Y10.9191
G01 X10.8511 Y10.9283
G01 X10.8807 Y10.9502
G01 X10.8932 Y10.9600
G01 X10.9052 Y10.9704
G01 X10.9383 Y11.0005
G01 X11.8667 Y11.9287
G01 X13.1782 Y12.4426
G01 X13.2519 Y12.4462
G01 X13.2756 Y12.4482
G01 X13.4181 Y12.4693
G01 X13.4415 Y12.4736
G01 X13.5813 Y12.5085
G01 X13.5966 Y12.5128
G01 X13.6117 Y12.5178
G01 X13.7399 Y12.5636
G01 X13.7547 Y12.5693
G01 X13.7692 Y12.5758
G01 X13.8923 Y12.6340
G01 X13.9065 Y12.6411
G01 X13.9203 Y12.6489
G01 X14.0371 Y12.7189
G01 X14.0505 Y12.7274
G01 X14.0635 Y12.7366
G01 X14.1729 Y12.8177
G01 X14.1854 Y12.8275
G01 X14.1974 Y12.8378
G01 X14.2983 Y12.9293
G01 X14.3098 Y12.9402
G01 X14.3207 Y12.9517
G01 X14.4122 Y13.0526
G01 X14.4225 Y13.0646
G01 X14.4323 Y13.0771
G01 X14.5134 Y13.1865
G01 X14.5226 Y13.1995
G01 X14.5311 Y13.2129
G01 X14.6011 Y13.3297
G01 X14.6089 Y13.3435
G01 X14.6160 Y13.3577
G01 X14.6742 Y13.4808
G01 X14.6807 Y13.4953
G01 X14.6864 Y13.5101
G01 X14.7322 Y13.6383
G01 X14.7372 Y13.6534
G01 X14.7415 Y13.6687
G01 X14.7745 Y13.8007
G01 X14.7780 Y13.8162
G01 X14.7807 Y13.8319
G01 X14.8007 Y13.9665
G01 X14.8027 Y13.9823
G01 X14.8038 Y13.9981
G01 X14.8105 Y14.1341
G01 X14.8109 Y14.1500
G01 X14.8105 Y14.1659
G01 X14.8038 Y14.3019
G01 X14.8027 Y14.3177
G01 X14.8007 Y14.3335
G01 X14.7807 Y14.4681
G01 X14.7780 Y14.4838
G01 X14.7745 Y14.4993
G01 X14.7415 Y14.6313
G01 X14.7372 Y14.6466
G01 X14.7322 Y14.6617
G01 X14.6864 Y14.7899
G01 X14.6807 Y14.8047
G01 X14.6742 Y14.8192
G01 X14.6160 Y14.9423
G01 X14.6089 Y14.9565
G01 X14.6011 Y14.9703
G01 X14.5311 Y15.0871
G01 X14.5226 Y15.1005
G01 X14.5134 Y15.1135
G01 X14.4323 Y15.2229
G01 X14.4225 Y15.2354
G01 X14.4122 Y15.2474
G01 X14.3207 Y15.3483
G01 X14.3098 Y15.3598
G01 X14.2983 Y15.3707
G01 X14.1974 Y15.4622
G01 X14.1854 Y15.4725
G01 X14.1729 Y15.4823
G01 X14.0635 Y15.5634
G01 X14.0505 Y15.5726
G01 X14.0371 Y15.5811
G01 X13.9203 Y15.6511
G01 X13.9065 Y15.6589
G01 X13.8923 Y15.6660
G01 X13.7692 Y15.7242
G01 X13.7547 Y15.7307
G01 X13.7399 Y15.7364
G01 X13.6117 Y15.7822
G01 X13.5966 Y15.7872
G01 X13.5813 Y15.7915
G01 X13.4493 Y15.8245
G01 X13.4338 Y15.8280
G01 X13.4181 Y15.8307
G01 X13.2835 Y15.8507
G01 X13.2677 Y15.8527
G01 X13.2519 Y15.8538
G01 X13.1159 Y15.8605
G01 X13.1000 Y15.8609
G01 X13.0841 Y15.8605
G01 X12.9481 Y15.8538
G01 X12.9323 Y15.8527
G01 X12.9165 Y15.8507
G01 X12.7819 Y15.8307
G01 X12.7662 Y15.8280
G01 X12.7507 Y15.8245
G01 X12.6187 Y15.7915
G01 X12.6034 Y15.7872
G01 X12.5883 Y15.7822
G01 X12.4601 Y15.7364
G01 X12.4453 Y15.7307
G01 X12.4308 Y15.7242
G01 X12.3077 Y15.6660
G01 X12.2935 Y15.6589
G01 X12.2797 Y15.6511
G01 X12.1629 Y15.5811
G01 X12.1495 Y15.5726
G01 X12.1365 Y15.5634
G01 X12.0271 Y15.4823
G01 X12.0146 Y15.4725
G01 X12.0026 Y15.4622
G01 X11.9017 Y15.3707
G01 X11.8902 Y15.3598
G01 X11.8793 Y15.3483
G01 X11.7878 Y15.2474
G01 X11.7775 Y15.2354
G01 X11.7677 Y15.2229
G01 X11.6866 Y15.1135
G01 X11.6731 Y15.0939
G01 X11.5989 Y14.9703
G01 X11.5911 Y14.9565
G01 X11.5840 Y14.9423
G01 X11.5258 Y14.8192
G01 X11.5193 Y14.8047
G01 X11.5136 Y14.7899
G01 X11.4678 Y14.6617
G01 X11.4628 Y14.6466
G01 X11.4585 Y14.6313
G01 X11.4236 Y14.4915
G01 X11.4193 Y14.4681
G01 X11.3982 Y14.3256
G01 X11.3962 Y14.3019
G01 X11.3926 Y14.2282
G01 X10.8787 Y12.9167
G01 X10.1606 Y12.1986
G01 X9.8571 Y12.1986
G01 X9.8315 Y12.2176
G01 X9.8186 Y12.2268
G01 X9.8052 Y12.2353
G01 X9.7703 Y12.2557
G01 X9.7339 Y12.2733
G01 X9.7194 Y12.2798
G01 X9.6815 Y12.2937
G01 X9.6664 Y12.2987
G01 X9.6512 Y12.3029
G01 X9.6196 Y12.3107
G01 X9.6041 Y12.3138
G01 X9.5720 Y12.3187
G01 X9.5562 Y12.3206
G01 X9.5404 Y12.3218
G01 X9.5079 Y12.3233
G01 X4.5000 Y12.3234
G01 X4.4841 Y12.3230
G01 X4.4517 Y12.3213
G01 X4.4280 Y12.3187
G01 X4.3881 Y12.3124
G01 X4.3726 Y12.3089
G01 X4.3412 Y12.3009
G01 X4.3185 Y12.2937
G01 X4.2806 Y12.2798
G01 X4.2439 Y12.2628
G01 X4.2227 Y12.2519
G01 X4.1881 Y12.2311
G01 X4.1685 Y12.2176
G01 X4.1362 Y12.1932
G01 X4.1060 Y12.1664
G01 X4.0890 Y12.1498
G01 X4.0619 Y12.1198
G01 X4.0470 Y12.1012
G01 X4.0232 Y12.0686
G01 X4.0147 Y12.0552
G01 X3.9943 Y12.0203
G01 X3.9767 Y11.9839
G01 X3.9673 Y11.9621
G01 X3.9563 Y11.9315
G01 X3.9513 Y11.9164
G01 X3.9471 Y11.9012
G01 X3.9393 Y11.8696
G01 X3.9362 Y11.8541
G01 X3.9313 Y11.8220
G01 X3.9294 Y11.8062
G01 X3.9282 Y11.7904
G01 X3.9266 Y11.7500
G01 X3.9266 Y11.2500
G01 X3.9270 Y11.2341
G01 X3.9294 Y11.1938
G01 X3.9349 Y11.1538
G01 X3.9376 Y11.1381
G01 X3.9411 Y11.1226
G01 X3.9513 Y11.0836
G01 X3.9645 Y11.0454
G01 X3.9702 Y11.0306
G01 X3.9767 Y11.0161
G01 X3.9907 Y10.9867
G01 X3.9981 Y10.9727
G01 X4.0189 Y10.9381
G01 X4.0277 Y10.9249
G01 X4.0518 Y10.8924
G01 X4.0619 Y10.8802
G01 X4.0890 Y10.8502
G01 X4.1002 Y10.8390
G01 X4.1242 Y10.8171
G01 X4.1424 Y10.8018
G01 X4.1685 Y10.7824
G01 X4.1814 Y10.7732
G01 X4.1948 Y10.7647
G01 X4.2227 Y10.7481
G01 X4.2367 Y10.7407
G01 X4.2733 Y10.7234
G01 X4.2879 Y10.7173
G01 X4.3185 Y10.7063
G01 X4.3336 Y10.7013
G01 X4.3488 Y10.6971
G01 X4.3881 Y10.6876
G01 X4.4038 Y10.6849
G01 X4.4438 Y10.6794
G01 X4.4841 Y10.6770
G01 X4.5000 Y10.6766
G00 Z2.0000
G00 X4.5000 Y10.7648
G01 F30.00
G01 Z-0.0499
G01 F75.00
G01 X9.5058 Y10.7649
G01 X9.5476 Y10.7671
G01 X9.5590 Y10.7685
G01 X9.5947 Y10.7741
G01 X9.6059 Y10.7767
G01 X9.6408 Y10.7857
G01 X9.6803 Y10.7996
G01 X9.6962 Y10.8064
G01 X9.7287 Y10.8221
G01 X9.7647 Y10.8434
G01 X9.7790 Y10.8532
G01 X9.8033 Y10.8713
G01 X9.8122 Y10.8787
G01 X9.8244 Y10.8896
G01 X10.4500 Y10.8896
G01 X10.4983 Y10.8917
G01 X10.5098 Y10.8926
G01 X10.5213 Y10.8940
G01 X10.5577 Y10.8994
G01 X10.5747 Y10.9025
G01 X10.6272 Y10.9159
G01 X10.6782 Y10.9339
G01 X10.6941 Y10.9408
G01 X10.7377 Y10.9617
G01 X10.7478 Y10.9674
G01 X10.7891 Y10.9925
G01 X10.7986 Y10.9991
G01 X10.8372 Y11.0282
G01 X10.8775 Y11.0644
G01 X11.8173 Y12.0041
G01 X13.1594 Y12.5299
G01 X13.2475 Y12.5343
G01 X13.2648 Y12.5358
G01 X13.4052 Y12.5565
G01 X13.4222 Y12.5597
G01 X13.5599 Y12.5941
G01 X13.5710 Y12.5972
G01 X13.5820 Y12.6008
G01 X13.7102 Y12.6467
G01 X13.7210 Y12.6508
G01 X13.7315 Y12.6555
G01 X13.8546 Y12.7137
G01 X13.8649 Y12.7189
G01 X13.8750 Y12.7246
G01 X13.9918 Y12.7946
G01 X14.0015 Y12.8008
G01 X14.0110 Y12.8074
G01 X14.1203 Y12.8885
G01 X14.1294 Y12.8956
G01 X14.1382 Y12.9032
G01 X14.2391 Y12.9946
G01 X14.2474 Y13.0026
G01 X14.2554 Y13.0109
G01 X14.3468 Y13.1118
G01 X14.3544 Y13.1206
G01 X14.3615 Y13.1297
G01 X14.4426 Y13.2390
G01 X14.4492 Y13.2485
G01 X14.4554 Y13.2582
G01 X14.5254 Y13.3750
G01 X14.5311 Y13.3851
G01 X14.5363 Y13.3954
G01 X14.5945 Y13.5185
G01 X14.5992 Y13.5290
G01 X14.6033 Y13.5398
G01 X14.6492 Y13.6680
G01 X14.6528 Y13.6790
G01 X14.6559 Y13.6901
G01 X14.6890 Y13.8222
G01 X14.6915 Y13.8334
G01 X14.6935 Y13.8448
G01 X14.7135 Y13.9795
G01 X14.7149 Y13.9909
G01 X14.7157 Y14.0025
G01 X14.7224 Y14.1385
G01 X14.7227 Y14.1500
G01 X14.7224 Y14.1615
G01 X14.7157 Y14.2975
G01 X14.7149 Y14.3091
G01 X14.7135 Y14.3205
G01 X14.6935 Y14.4552
G01 X14.6915 Y14.4666
G01 X14.6890 Y14.4778
G01 X14.6559 Y14.6099
G01 X14.6528 Y14.6210
G01 X14.6492 Y14.6320
G01 X14.6013 Y14.7656
G01 X14.5945 Y14.7815
G01 X14.5363 Y14.9046
G01 X14.5311 Y14.9149
G01 X14.5254 Y14.9250
G01 X14.4554 Y15.0418
G01 X14.4492 Y15.0515
G01 X14.4426 Y15.0610
G01 X14.3615 Y15.1703
G01 X14.3544 Y15.1794
G01 X14.3468 Y15.1882
G01 X14.2554 Y15.2891
G01 X14.2474 Y15.2974
G01 X14.2391 Y15.3054
G01 X14.1382 Y15.3968
G01 X14.1294 Y15.4044
G01 X14.1203 Y15.4115
G01 X14.0110 Y15.4926
G01 X14.0015 Y15.4992
G01 X13.9918 Y15.5054
G01 X13.8750 Y15.5754
G01 X13.8649 Y15.5811
G01 X13.8546 Y15.5863
G01 X13.7315 Y15.6445
G01 X13.7210 Y15.6492
G01 X13.7102 Y15.6533
G01 X13.5820 Y15.6992
G01 X13.5710 Y15.7028
G01 X13.5599 Y15.7059
G01 X13.4278 Y15.7390
G01 X13.4166 Y15.7415
G01 X13.4052 Y15.7435
G01 X13.2705 Y15.7635
G01 X13.2591 Y15.7649
G01 X13.2475 Y15.7657
G01 X13.1115 Y15.7724
G01 X13.1000 Y15.7727
G01 X13.0885 Y15.7724
G01 X12.9525 Y15.7657
G01 X12.9409 Y15.7649
G01 X12.9295 Y15.7635
G01 X12.7948 Y15.7435
G01 X12.7834 Y15.7415
G01 X12.7722 Y15.7390
G01 X12.6401 Y15.7059
G01 X12.6290 Y15.7028
G01 X12.6180 Y15.6992
G01 X12.4844 Y15.6513
G01 X12.4685 Y15.6445
G01 X12.3454 Y15.5863
G01 X12.3351 Y15.5811
G01 X12.3250 Y15.5754
G01 X12.2082 Y15.5054
G01 X12.1985 Y15.4992
G01 X12.1890 Y15.4926
G01 X12.0797 Y15.4115
G01 X12.0706 Y15.4044
G01 X12.0618 Y15.3968
G01 X11.9609 Y15.3054
G01 X11.9526 Y15.2974
G01 X11.9446 Y15.2891
G01 X11.8532 Y15.1882
G01 X11.8456 Y15.1794
G01 X11.8385 Y15.1703
G01 X11.7574 Y15.0610
G01 X11.7476 Y15.0467
G01 X11.6746 Y14.9250
G01 X11.6689 Y14.9149
G01 X11.6637 Y14.9046
G01 X11.6055 Y14.7815
G01 X11.6008 Y14.7710
G01 X11.5967 Y14.7602
G01 X11.5508 Y14.6320
G01 X11.5472 Y14.6210
G01 X11.5441 Y14.6099
G01 X11.5097 Y14.4722
G01 X11.5065 Y14.4552
G01 X11.4858 Y14.3148
G01 X11.4843 Y14.2975
G01 X11.4799 Y14.2094
G01 X10.9541 Y12.8673
G01 X10.1972 Y12.1104
G01 X9.8244 Y12.1104
G01 X9.8122 Y12.1213
G01 X9.8033 Y12.1287
G01 X9.7790 Y12.1468
G01 X9.7647 Y12.1566
G01 X9.7287 Y12.1779
G01 X9.6962 Y12.1936
G01 X9.6803 Y12.2004
G01 X9.6408 Y12.2143
G01 X9.6297 Y12.2174
G01 X9.5947 Y12.2259
G01 X9.5833 Y12.2279
G01 X9.5476 Y12.2329
G01 X9.5058 Y12.2351
G01 X4.5000 Y12.2352
G01 X4.4885 Y12.2349
G01 X4.4524 Y12.2329
G01 X4.4167 Y12.2279
G01 X4.3997 Y12.2247
G01 X4.3647 Y12.2159
G01 X4.3482 Y12.2107
G01 X4.3143 Y12.1983
G01 X4.2816 Y12.1831
G01 X4.2662 Y12.1751
G01 X4.2353 Y12.1566
G01 X4.2210 Y12.1468
G01 X4.1922 Y12.1251
G01 X4.1610 Y12.0971
G01 X4.1490 Y12.0847
G01 X4.1249 Y12.0578
G01 X4.1032 Y12.0290
G01 X4.0934 Y12.0147
G01 X4.0721 Y11.9787
G01 X4.0564 Y11.9462
G01 X4.0496 Y11.9303
G01 X4.0357 Y11.8908
G01 X4.0326 Y11.8797
G01 X4.0241 Y11.8447
G01 X4.0221 Y11.8333
G01 X4.0171 Y11.7976
G01 X4.0151 Y11.7615
G01 X4.0148 Y11.7500
G01 X4.0148 Y11.2500
G01 X4.0166 Y11.2082
G01 X4.0185 Y11.1910
G01 X4.0241 Y11.1553
G01 X4.0341 Y11.1147
G01 X4.0393 Y11.0982
G01 X4.0496 Y11.0697
G01 X4.0540 Y11.0590
G01 X4.0669 Y11.0316
G01 X4.0749 Y11.0162
G01 X4.0934 Y10.9853
G01 X4.0998 Y10.9757
G01 X4.1178 Y10.9513
G01 X4.1287 Y10.9378
G01 X4.1490 Y10.9153
G01 X4.1569 Y10.9069
G01 X4.1653 Y10.8990
G01 X4.1922 Y10.8749
G01 X4.2210 Y10.8532
G01 X4.2304 Y10.8466
G01 X4.2402 Y10.8404
G01 X4.2713 Y10.8221
G01 X4.2816 Y10.8169
G01 X4.3143 Y10.8017
G01 X4.3482 Y10.7893
G01 X4.3592 Y10.7857
G01 X4.3703 Y10.7826
G01 X4.4053 Y10.7741
G01 X4.4167 Y10.7721
G01 X4.4524 Y10.7671
G01 X4.4885 Y10.7651
G01 X4.5000 Y10.7648
G00 Z2.0000
G00 X4.5000 Y10.8530
G01 F30.00
G01 Z-0.0499
G01 F75.00
G01 X9.5036 Y10.8530
G01 X9.5389 Y10.8549
G01 X9.5775 Y10.8606
G01 X9.6152 Y10.8701
G01 X9.6452 Y10.8806
G01 X9.6552 Y10.8846
G01 X9.6871 Y10.8999
G01 X9.7145 Y10.9160
G01 X9.7235 Y10.9219
G01 X9.7462 Y10.9387
G01 X9.7546 Y10.9454
G01 X9.7781 Y10.9668
G01 X9.7887 Y10.9778
G01 X10.4572 Y10.9780
G01 X10.5012 Y10.9803
G01 X10.5519 Y10.9878
G01 X10.6016 Y11.0003
G01 X10.6465 Y11.0162
G01 X10.6564 Y11.0205
G01 X10.6962 Y11.0395
G01 X10.7401 Y11.0658
G01 X10.7813 Y11.0963
G01 X10.8167 Y11.1282
G01 X11.7680 Y12.0795
G01 X13.1407 Y12.6173
G01 X13.2504 Y12.6229
G01 X13.3994 Y12.6450
G01 X13.5454 Y12.6816
G01 X13.6872 Y12.7323
G01 X13.8234 Y12.7967
G01 X13.9525 Y12.8741
G01 X14.0735 Y12.9638
G01 X14.1825 Y13.0624
G01 X14.1900 Y13.0702
G01 X14.2815 Y13.1711
G01 X14.2906 Y13.1822
G01 X14.3759 Y13.2975
G01 X14.4533 Y13.4266
G01 X14.5148 Y13.5562
G01 X14.5203 Y13.5695
G01 X14.5684 Y13.7046
G01 X14.6050 Y13.8506
G01 X14.6271 Y13.9996
G01 X14.6343 Y14.1428
G01 X14.6343 Y14.1572
G01 X14.6271 Y14.3004
G01 X14.6062 Y14.4423
G01 X14.6034 Y14.4564
G01 X14.5684 Y14.5954
G01 X14.5190 Y14.7339
G01 X14.5148 Y14.7438
G01 X14.4533 Y14.8734
G01 X14.3759 Y15.0025
G01 X14.2862 Y15.1235
G01 X14.1851 Y15.2351
G01 X14.0735 Y15.3362
G01 X13.9525 Y15.4259
G01 X13.8234 Y15.5033
G01 X13.6872 Y15.5677
G01 X13.5454 Y15.6184
G01 X13.3994 Y15.6550
G01 X13.2504 Y15.6771
G01 X13.1000 Y15.6845
G01 X12.9496 Y15.6771
G01 X12.8006 Y15.6550
G01 X12.6546 Y15.6184
G01 X12.5161 Y15.5690
G01 X12.5062 Y15.5648
G01 X12.3831 Y15.5066
G01 X12.3704 Y15.4998
G01 X12.2475 Y15.4259
G01 X12.1265 Y15.3362
G01 X12.0149 Y15.2351
G01 X11.9185 Y15.1289
G01 X11.9094 Y15.1178
G01 X11.8283 Y15.0084
G01 X11.8221 Y14.9995
G01 X11.7467 Y14.8734
G01 X11.6852 Y14.7438
G01 X11.6797 Y14.7305
G01 X11.6316 Y14.5954
G01 X11.5950 Y14.4494
G01 X11.5729 Y14.3004
G01 X11.5673 Y14.1907
G01 X11.0295 Y12.8180
G01 X10.2337 Y12.0222
G01 X9.7887 Y12.0222
G01 X9.7781 Y12.0332
G01 X9.7546 Y12.0546
G01 X9.7462 Y12.0613
G01 X9.7235 Y12.0781
G01 X9.7145 Y12.0840
G01 X9.6871 Y12.1001
G01 X9.6552 Y12.1154
G01 X9.6452 Y12.1194
G01 X9.6152 Y12.1299
G01 X9.5775 Y12.1394
G01 X9.5389 Y12.1451
G01 X9.5036 Y12.1470
G01 X4.5000 Y12.1470
G01 X4.4611 Y12.1451
G01 X4.4225 Y12.1394
G01 X4.3917 Y12.1318
G01 X4.3779 Y12.1276
G01 X4.3481 Y12.1168
G01 X4.3193 Y12.1034
G01 X4.3066 Y12.0966
G01 X4.2794 Y12.0801
G01 X4.2538 Y12.0613
G01 X4.2427 Y12.0522
G01 X4.2193 Y12.0307
G01 X4.1978 Y12.0073
G01 X4.1887 Y11.9962
G01 X4.1699 Y11.9706
G01 X4.1534 Y11.9434
G01 X4.1466 Y11.9307
G01 X4.1332 Y11.9019
G01 X4.1224 Y11.8721
G01 X4.1182 Y11.8583
G01 X4.1122 Y11.8345
G01 X4.1100 Y11.8239
G01 X4.1049 Y11.7889
G01 X4.1030 Y11.7536
G01 X4.1030 Y11.2500
G01 X4.1044 Y11.2183
G01 X4.1053 Y11.2075
G01 X4.1100 Y11.1761
G01 X4.1122 Y11.1655
G01 X4.1191 Y11.1382
G01 X4.1224 Y11.1279
G01 X4.1319 Y11.1014
G01 X4.1361 Y11.0915
G01 X4.1466 Y11.0693
G01 X4.1534 Y11.0566
G01 X4.1679 Y11.0325
G01 X4.1741 Y11.0235
G01 X4.1887 Y11.0038
G01 X4.1954 Y10.9954
G01 X4.2168 Y10.9719
G01 X4.2245 Y10.9643
G01 X4.2481 Y10.9431
G01 X4.2794 Y10.9199
G01 X4.3129 Y10.8999
G01 X4.3481 Y10.8832
G01 X4.3848 Y10.8701
G01 X4.4225 Y10.8606
G01 X4.4611 Y10.8549
G01 X4.5000 Y10.8530
G00 Z2.0000
G00 X4.5000 Y10.9412
G01 F30.00
G01 Z-0.0499
G01 F75.00
G01 X9.5014 Y10.9412
G01 X9.5303 Y10.9427
G01 X9.5631 Y10.9478
G01 X9.5896 Y10.9545
G01 X9.6155 Y10.9637
G01 X9.6443 Y10.9770
G01 X9.6716 Y10.9932
G01 X9.6970 Y11.0122
G01 X9.7194 Y11.0327
G01 X9.7378 Y11.0530
G01 X9.7476 Y11.0660
G01 X10.4529 Y11.0661
G01 X10.4925 Y11.0681
G01 X10.5347 Y11.0744
G01 X10.5760 Y11.0847
G01 X10.6147 Y11.0985
G01 X10.6546 Y11.1173
G01 X10.6911 Y11.1392
G01 X10.7253 Y11.1645
G01 X10.7558 Y11.1921
G01 X11.7187 Y12.1549
G01 X13.1220 Y12.7047
G01 X13.2418 Y12.7107
G01 X13.3822 Y12.7315
G01 X13.5198 Y12.7660
G01 X13.6535 Y12.8138
G01 X13.7818 Y12.8745
G01 X13.9035 Y12.9474
G01 X14.0175 Y13.0320
G01 X14.1217 Y13.1263
G01 X14.2161 Y13.2303
G01 X14.2198 Y13.2348
G01 X14.3026 Y13.3465
G01 X14.3755 Y13.4682
G01 X14.4362 Y13.5965
G01 X14.4831 Y13.7274
G01 X14.4848 Y13.7329
G01 X14.5185 Y13.8678
G01 X14.5393 Y14.0082
G01 X14.5462 Y14.1471
G01 X14.5462 Y14.1529
G01 X14.5393 Y14.2918
G01 X14.5190 Y14.4293
G01 X14.5179 Y14.4350
G01 X14.4840 Y14.5698
G01 X14.4367 Y14.7021
G01 X14.3755 Y14.8318
G01 X14.3026 Y14.9535
G01 X14.2180 Y15.0675
G01 X14.1227 Y15.1727
G01 X14.0175 Y15.2680
G01 X13.9035 Y15.3526
G01 X13.7818 Y15.4255
G01 X13.6535 Y15.4862
G01 X13.5198 Y15.5340
G01 X13.3822 Y15.5685
G01 X13.2418 Y15.5893
G01 X13.1000 Y15.5963
G01 X12.9582 Y15.5893
G01 X12.8178 Y15.5685
G01 X12.6802 Y15.5340
G01 X12.5479 Y15.4867
G01 X12.4208 Y15.4268
G01 X12.4157 Y15.4241
G01 X12.2965 Y15.3526
G01 X12.1825 Y15.2680
G01 X12.0773 Y15.1727
G01 X11.9839 Y15.0697
G01 X11.9802 Y15.0652
G01 X11.8967 Y14.9523
G01 X11.8245 Y14.8318
G01 X11.7650 Y14.7061
G01 X11.7628 Y14.7008
G01 X11.7160 Y14.5698
G01 X11.6815 Y14.4322
G01 X11.6607 Y14.2918
G01 X11.6547 Y14.1720
G01 X11.1049 Y12.7687
G01 X10.2702 Y11.9340
G01 X9.7476 Y11.9340
G01 X9.7378 Y11.9470
G01 X9.7194 Y11.9673
G01 X9.6970 Y11.9878
G01 X9.6716 Y12.0068
G01 X9.6443 Y12.0230
G01 X9.6155 Y12.0363
G01 X9.5896 Y12.0455
G01 X9.5631 Y12.0522
G01 X9.5303 Y12.0573
G01 X9.5014 Y12.0588
G01 X4.5000 Y12.0588
G01 X4.4697 Y12.0573
G01 X4.4412 Y12.0531
G01 X4.4131 Y12.0463
G01 X4.4076 Y12.0446
G01 X4.3818 Y12.0353
G01 X4.3570 Y12.0236
G01 X4.3284 Y12.0068
G01 X4.3019 Y11.9868
G01 X4.2816 Y11.9684
G01 X4.2632 Y11.9481
G01 X4.2432 Y11.9216
G01 X4.2277 Y11.8956
G01 X4.2159 Y11.8708
G01 X4.2045 Y11.8396
G01 X4.1966 Y11.8074
G01 X4.1927 Y11.7803
G01 X4.1912 Y11.7514
G01 X4.1912 Y11.2500
G01 X4.1925 Y11.2226
G01 X4.1971 Y11.1898
G01 X4.2045 Y11.1604
G01 X4.2147 Y11.1318
G01 X4.2264 Y11.1070
G01 X4.2291 Y11.1019
G01 X4.2449 Y11.0761
G01 X4.2613 Y11.0541
G01 X4.2837 Y11.0297
G01 X4.3041 Y11.0113
G01 X4.3284 Y10.9932
G01 X4.3544 Y10.9777
G01 X4.3818 Y10.9647
G01 X4.4104 Y10.9545
G01 X4.4398 Y10.9471
G01 X4.4697 Y10.9427
G01 X4.5000 Y10.9412
G00 Z2.0000
G00 X6.1715 Y12.4998
G01 F30.00
G01 Z-0.0499
G01 F75.00
G01 X6.1613 Y12.5160
G01 X6.1551 Y12.5267
G01 X6.1434 Y12.5486
G01 X6.1379 Y12.5597
G01 X6.1279 Y12.5824
G01 X6.1176 Y12.6097
G01 X6.0857 Y12.6052
G01 X6.0613 Y12.6028
G01 X6.0245 Y12.6008
G01 X6.0000 Y12.6002
G01 X4.3128 Y12.6002
G01 X4.3246 Y12.5175
G01 X4.3269 Y12.4934
G01 X4.3276 Y12.4795
G01 X4.3417 Y12.4829
G01 X4.3658 Y12.4876
G01 X4.4143 Y12.4948
G01 X4.4387 Y12.4972
G01 X4.4510 Y12.4980
G01 X4.4755 Y12.4992
G01 X4.5000 Y12.4998
G01 X6.1715 Y12.4998
G00 Z2.0000
G00 X6.3634 Y12.4116
G01 F30.00
G01 Z-0.0499
G01 F75.00
G01 X6.3456 Y12.4282
G01 X6.3314 Y12.4430
G01 X6.2723 Y12.5113
G01 X6.2597 Y12.5273
G01 X6.2537 Y12.5356
G01 X6.2423 Y12.5526
G01 X6.2370 Y12.5613
G01 X6.2269 Y12.5791
G01 X6.2177 Y12.5974
G01 X6.2094 Y12.6161
G01 X6.2021 Y12.6352
G01 X6.1958 Y12.6546
G01 X6.1904 Y12.6743
G01 X6.1860 Y12.6943
G01 X6.1826 Y12.7141
G01 X6.1390 Y12.7032
G01 X6.1092 Y12.6977
G01 X6.0849 Y12.6941
G01 X6.0648 Y12.6916
G01 X6.0447 Y12.6901
G01 X6.0101 Y12.6885
G01 X4.1972 Y12.6884
G01 X4.2026 Y12.6749
G01 X4.2095 Y12.6557
G01 X4.2154 Y12.6361
G01 X4.2203 Y12.6163
G01 X4.2242 Y12.5962
G01 X4.2258 Y12.5861
G01 X4.2357 Y12.5169
G01 X4.2381 Y12.4972
G01 X4.2395 Y12.4773
G01 X4.2399 Y12.4574
G01 X4.2387 Y12.4276
G01 X4.2368 Y12.4078
G01 X4.2338 Y12.3881
G01 X4.2300 Y12.3685
G01 X4.2259 Y12.3519
G01 X4.2375 Y12.3573
G01 X4.2562 Y12.3650
G01 X4.2983 Y12.3801
G01 X4.3176 Y12.3859
G01 X4.3610 Y12.3968
G01 X4.3809 Y12.4007
G01 X4.4251 Y12.4073
G01 X4.4452 Y12.4093
G01 X4.4899 Y12.4115
G01 X6.3634 Y12.4116
G00 Z2.0000
G00 X5.0588 Y14.7588
G01 F30.00
G01 Z-0.0499
G01 F75.00
G01 X6.0014 Y14.7588
G01 X6.0303 Y14.7573
G01 X6.0574 Y14.7534
G01 X6.0631 Y14.7522
G01 X6.0910 Y14.7451
G01 X6.1182 Y14.7353
G01 X6.1481 Y14.7209
G01 X6.1739 Y14.7051
G01 X6.1959 Y14.6887
G01 X6.2163 Y14.6703
G01 X6.2387 Y14.6459
G01 X6.2568 Y14.6216
G01 X6.2723 Y14.5956
G01 X6.2853 Y14.5682
G01 X6.2955 Y14.5396
G01 X6.3022 Y14.5131
G01 X6.3034 Y14.5074
G01 X6.3074 Y14.4788
G01 X6.3088 Y14.4500
G01 X6.3088 Y14.2088
G01 X6.6912 Y14.2088
G01 X6.6912 Y14.4970
G01 X6.6817 Y14.5903
G01 X6.6307 Y14.7441
G01 X6.5459 Y14.8816
G01 X6.4316 Y14.9959
G01 X6.2941 Y15.0807
G01 X6.1403 Y15.1317
G01 X6.0470 Y15.1412
G01 X5.0588 Y15.1412
G01 X5.0588 Y14.7588
G00 Z2.0000
G00 X5.1470 Y14.8470
G01 F30.00
G01 Z-0.0499
G01 F75.00
G01 X6.0036 Y14.8470
G01 X6.0389 Y14.8451
G01 X6.0775 Y14.8394
G01 X6.1152 Y14.8299
G01 X6.1486 Y14.8181
G01 X6.1585 Y14.8139
G01 X6.1871 Y14.8001
G01 X6.2175 Y14.7821
G01 X6.2265 Y14.7759
G01 X6.2490 Y14.7591
G01 X6.2573 Y14.7522
G01 X6.2755 Y14.7357
G01 X6.2832 Y14.7281
G01 X6.3046 Y14.7046
G01 X6.3113 Y14.6962
G01 X6.3259 Y14.6765
G01 X6.3340 Y14.6645
G01 X6.3484 Y14.6403
G01 X6.3534 Y14.6307
G01 X6.3668 Y14.6019
G01 X6.3799 Y14.5652
G01 X6.3894 Y14.5275
G01 X6.3947 Y14.4925
G01 X6.3956 Y14.4817
G01 X6.3970 Y14.4500
G01 X6.3970 Y14.2970
G01 X6.6030 Y14.2970
G01 X6.6030 Y14.4925
G01 X6.5949 Y14.5717
G01 X6.5502 Y14.7066
G01 X6.4762 Y14.8266
G01 X6.3765 Y14.9262
G01 X6.2566 Y15.0002
G01 X6.1217 Y15.0449
G01 X6.0425 Y15.0530
G01 X5.1470 Y15.0530
G01 X5.1470 Y14.8470
G00 Z2.0000
G00 X5.2352 Y14.9352
G01 F30.00
G01 Z-0.0499
G01 F75.00
G01 X6.0000 Y14.9352
G01 X6.0115 Y14.9349
G01 X6.0418 Y14.9334
G01 X6.0533 Y14.9322
G01 X6.0833 Y14.9279
G01 X6.1003 Y14.9247
G01 X6.1408 Y14.9143
G01 X6.1749 Y14.9024
G01 X6.1910 Y14.8960
G01 X6.2287 Y14.8779
G01 X6.2598 Y14.8596
G01 X6.2743 Y14.8502
G01 X6.3078 Y14.8251
G01 X6.3347 Y14.8010
G01 X6.3431 Y14.7931
G01 X6.3675 Y14.7665
G01 X6.3751 Y14.7578
G01 X6.3822 Y14.7487
G01 X6.4002 Y14.7243
G01 X6.4066 Y14.7147
G01 X6.4279 Y14.6787
G01 X6.4331 Y14.6684
G01 X6.4483 Y14.6357
G01 X6.4524 Y14.6249
G01 X6.4643 Y14.5908
G01 X6.4733 Y14.5559
G01 X6.4759 Y14.5447
G01 X6.4779 Y14.5333
G01 X6.4822 Y14.5033
G01 X6.4834 Y14.4918
G01 X6.4851 Y14.4558
G01 X6.4852 Y14.3852
G01 X6.5148 Y14.3852
G01 X6.5148 Y14.4880
G01 X6.5081 Y14.5532
G01 X6.4697 Y14.6690
G01 X6.4066 Y14.7715
G01 X6.3215 Y14.8566
G01 X6.2190 Y14.9197
G01 X6.1032 Y14.9581
G01 X6.0380 Y14.9648
G01 X5.2352 Y14.9648
G01 X5.2352 Y14.9352
G00 Z2.0000
G00 X3.1912 Y14.2088
G01 F30.00
G01 Z-0.0499
G01 F75.00
G01 X3.1912 Y14.4514
G01 X3.1927 Y14.4803
G01 X3.1978 Y14.5131
G01 X3.2045 Y14.5396
G01 X3.2147 Y14.5682
G01 X3.2277 Y14.5956
G01 X3.2417 Y14.6191
G01 X3.2449 Y14.6239
G01 X3.2632 Y14.6481
G01 X3.2816 Y14.6684
G01 X3.3064 Y14.6905
G01 X3.3284 Y14.7068
G01 X3.3519 Y14.7209
G01 X3.3818 Y14.7353
G01 X3.4104 Y14.7455
G01 X3.4369 Y14.7522
G01 X3.4669 Y14.7570
G01 X3.4726 Y14.7575
G01 X3.5000 Y14.7588
G01 X4.4412 Y14.7588
G01 X4.4412 Y15.1412
G01 X3.4530 Y15.1412
G01 X3.3597 Y15.1317
G01 X3.2059 Y15.0807
G01 X3.0684 Y14.9959
G01 X2.9541 Y14.8816
G01 X2.8693 Y14.7441
G01 X2.8183 Y14.5903
G01 X2.8088 Y14.4970
G01 X2.8088 Y14.2088
G01 X3.1912 Y14.2088
G00 Z2.0000
G00 X3.1030 Y14.2970
G01 F30.00
G01 Z-0.0499
G01 F75.00
G01 X3.1030 Y14.4500
G01 X3.1049 Y14.4889
G01 X3.1094 Y14.5203
G01 X3.1122 Y14.5345
G01 X3.1201 Y14.5652
G01 X3.1319 Y14.5986
G01 X3.1361 Y14.6085
G01 X3.1466 Y14.6307
G01 X3.1534 Y14.6434
G01 X3.1699 Y14.6706
G01 X3.1931 Y14.7019
G01 X3.2193 Y14.7307
G01 X3.2427 Y14.7522
G01 X3.2538 Y14.7613
G01 X3.2765 Y14.7781
G01 X3.2855 Y14.7840
G01 X3.3129 Y14.8001
G01 X3.3415 Y14.8139
G01 X3.3514 Y14.8181
G01 X3.3813 Y14.8288
G01 X3.3917 Y14.8318
G01 X3.4225 Y14.8394
G01 X3.4539 Y14.8442
G01 X3.4683 Y14.8456
G01 X3.5000 Y14.8470
G01 X4.3530 Y14.8470
G01 X4.3530 Y15.0530
G01 X3.4575 Y15.0530
G01 X3.3783 Y15.0449
G01 X3.2434 Y15.0002
G01 X3.1234 Y14.9262
G01 X3.0238 Y14.8266
G01 X2.9498 Y14.7066
G01 X2.9051 Y14.5717
G01 X2.8970 Y14.4925
G01 X2.8970 Y14.2970
G01 X3.1030 Y14.2970
G00 Z2.0000
G00 X3.0148 Y14.3852
G01 F30.00
G01 Z-0.0499
G01 F75.00
G01 X3.0149 Y14.4558
G01 X3.0163 Y14.4860
G01 X3.0178 Y14.5033
G01 X3.0241 Y14.5447
G01 X3.0326 Y14.5797
G01 X3.0357 Y14.5908
G01 X3.0476 Y14.6249
G01 X3.0517 Y14.6357
G01 X3.0564 Y14.6462
G01 X3.0694 Y14.6736
G01 X3.0749 Y14.6838
G01 X3.0966 Y14.7196
G01 X3.1213 Y14.7533
G01 X3.1287 Y14.7622
G01 X3.1490 Y14.7847
G01 X3.1569 Y14.7931
G01 X3.1653 Y14.8010
G01 X3.1922 Y14.8251
G01 X3.2013 Y14.8322
G01 X3.2304 Y14.8534
G01 X3.2612 Y14.8722
G01 X3.2713 Y14.8779
G01 X3.3038 Y14.8936
G01 X3.3197 Y14.9004
G01 X3.3537 Y14.9126
G01 X3.3703 Y14.9174
G01 X3.3997 Y14.9247
G01 X3.4167 Y14.9279
G01 X3.4467 Y14.9322
G01 X3.4582 Y14.9334
G01 X3.4885 Y14.9349
G01 X3.5000 Y14.9352
G01 X4.2648 Y14.9352
G01 X4.2648 Y14.9648
G01 X3.4620 Y14.9648
G01 X3.3968 Y14.9581
G01 X3.2810 Y14.9197
G01 X3.1785 Y14.8566
G01 X3.0934 Y14.7715
G01 X3.0303 Y14.6690
G01 X2.9919 Y14.5532
G01 X2.9852 Y14.4880
G01 X2.9852 Y14.3852
G01 X3.0148 Y14.3852
G00 Z2.0000
G00 X0.4417 Y17.8755
G01 F30.00
G01 Z-0.0499
G01 F75.00
G01 X0.4417 Y0.6245
G01 X0.4420 Y0.6189
G01 X0.4428 Y0.6134
G01 X0.4542 Y0.5605
G01 X0.4563 Y0.5534
G01 X0.4591 Y0.5467
G01 X0.4628 Y0.5403
G01 X0.4663 Y0.5356
G01 X0.5130 Y0.4817
G01 X0.5171 Y0.4775
G01 X0.5227 Y0.4728
G01 X0.5275 Y0.4696
G01 X0.5340 Y0.4663
G01 X0.5395 Y0.4642
G01 X0.6093 Y0.4437
G01 X0.6161 Y0.4423
G01 X0.6245 Y0.4417
G01 X18.6684 Y0.4417
G01 X18.6739 Y0.4420
G01 X18.6795 Y0.4428
G01 X18.7324 Y0.4542
G01 X18.7394 Y0.4563
G01 X18.7462 Y0.4591
G01 X18.7513 Y0.4620
G01 X18.7573 Y0.4663
G01 X18.8112 Y0.5130
G01 X18.8154 Y0.5171
G01 X18.8201 Y0.5227
G01 X18.8233 Y0.5275
G01 X18.8266 Y0.5340
G01 X18.8287 Y0.5395
G01 X18.8492 Y0.6093
G01 X18.8506 Y0.6161
G01 X18.8512 Y0.6245
G01 X18.8512 Y17.8755
G01 X18.8509 Y17.8811
G01 X18.8501 Y17.8866
G01 X18.8386 Y17.9395
G01 X18.8366 Y17.9466
G01 X18.8337 Y17.9533
G01 X18.8300 Y17.9597
G01 X18.8265 Y17.9644
G01 X18.7798 Y18.0183
G01 X18.7758 Y18.0225
G01 X18.7702 Y18.0272
G01 X18.7653 Y18.0304
G01 X18.7602 Y18.0331
G01 X18.7534 Y18.0358
G01 X18.6836 Y18.0563
G01 X18.6753 Y18.0579
G01 X18.6684 Y18.0583
G01 X0.6245 Y18.0583
G01 X0.6189 Y18.0580
G01 X0.6134 Y18.0572
G01 X0.5605 Y18.0458
G01 X0.5534 Y18.0437
G01 X0.5467 Y18.0409
G01 X0.5403 Y18.0372
G01 X0.5356 Y18.0337
G01 X0.4785 Y17.9840
G01 X0.4737 Y17.9785
G01 X0.4703 Y17.9737
G01 X0.4675 Y17.9686
G01 X0.4647 Y17.9619
G01 X0.4437 Y17.8907
G01 X0.4423 Y17.8839
G01 X0.4417 Y17.8755
G00 Z2.0000
G00 X0.3535 Y17.8755
G01 F30.00
G01 Z-0.0499
G01 F75.00
G01 X0.3535 Y0.6245
G01 X0.3542 Y0.6105
G01 X0.3555 Y0.6001
G01 X0.3681 Y0.5417
G01 X0.3708 Y0.5311
G01 X0.3731 Y0.5241
G01 X0.3757 Y0.5172
G01 X0.3803 Y0.5072
G01 X0.3875 Y0.4944
G01 X0.3916 Y0.4883
G01 X0.3982 Y0.4795
G01 X0.4464 Y0.4239
G01 X0.4565 Y0.4134
G01 X0.4647 Y0.4062
G01 X0.4705 Y0.4017
G01 X0.4826 Y0.3936
G01 X0.4956 Y0.3869
G01 X0.5091 Y0.3814
G01 X0.5898 Y0.3576
G01 X0.6070 Y0.3545
G01 X0.6245 Y0.3535
G01 X18.6684 Y0.3535
G01 X18.6788 Y0.3539
G01 X18.6927 Y0.3555
G01 X18.7511 Y0.3681
G01 X18.7583 Y0.3698
G01 X18.7688 Y0.3731
G01 X18.7790 Y0.3771
G01 X18.7857 Y0.3803
G01 X18.7922 Y0.3837
G01 X18.8015 Y0.3895
G01 X18.8133 Y0.3982
G01 X18.8689 Y0.4464
G01 X18.8795 Y0.4565
G01 X18.8867 Y0.4647
G01 X18.8912 Y0.4705
G01 X18.8992 Y0.4826
G01 X18.9060 Y0.4956
G01 X18.9115 Y0.5091
G01 X18.9352 Y0.5898
G01 X18.9383 Y0.6070
G01 X18.9394 Y0.6245
G01 X18.9394 Y17.8755
G01 X18.9390 Y17.8860
G01 X18.9373 Y17.8999
G01 X18.9248 Y17.9583
G01 X18.9220 Y17.9689
G01 X18.9198 Y17.9759
G01 X18.9157 Y17.9862
G01 X18.9126 Y17.9928
G01 X18.9054 Y18.0056
G01 X18.9013 Y18.0117
G01 X18.8946 Y18.0205
G01 X18.8465 Y18.0761
G01 X18.8364 Y18.0866
G01 X18.8253 Y18.0961
G01 X18.8133 Y18.1045
G01 X18.8038 Y18.1099
G01 X18.7973 Y18.1131
G01 X18.7838 Y18.1186
G01 X18.7030 Y18.1424
G01 X18.6858 Y18.1455
G01 X18.6684 Y18.1465
G01 X0.6245 Y18.1465
G01 X0.6140 Y18.1461
G01 X0.6001 Y18.1445
G01 X0.5417 Y18.1319
G01 X0.5346 Y18.1302
G01 X0.5241 Y18.1269
G01 X0.5105 Y18.1213
G01 X0.4975 Y18.1144
G01 X0.4913 Y18.1105
G01 X0.4824 Y18.1041
G01 X0.4239 Y18.0536
G01 X0.4159 Y18.0462
G01 X0.4085 Y18.0381
G01 X0.4039 Y18.0324
G01 X0.3955 Y18.0205
G01 X0.3884 Y18.0077
G01 X0.3826 Y17.9943
G01 X0.3791 Y17.9840
G01 X0.3576 Y17.9102
G01 X0.3545 Y17.8930
G01 X0.3535 Y17.8755
G00 Z2.0000
G00 X0.2653 Y17.8755
G01 F30.00
G01 Z-0.0499
G01 F75.00
G01 X0.2653 Y0.6245
G01 X0.2656 Y0.6133
G01 X0.2664 Y0.6021
G01 X0.2686 Y0.5855
G01 X0.2819 Y0.5230
G01 X0.2847 Y0.5116
G01 X0.2880 Y0.5003
G01 X0.2919 Y0.4892
G01 X0.2988 Y0.4730
G01 X0.3041 Y0.4625
G01 X0.3129 Y0.4472
G01 X0.3195 Y0.4375
G01 X0.3265 Y0.4280
G01 X0.3340 Y0.4190
G01 X0.3797 Y0.3662
G01 X0.3876 Y0.3575
G01 X0.3959 Y0.3493
G01 X0.4045 Y0.3415
G01 X0.4136 Y0.3341
G01 X0.4230 Y0.3272
G01 X0.4328 Y0.3208
G01 X0.4428 Y0.3148
G01 X0.4532 Y0.3094
G01 X0.4638 Y0.3045
G01 X0.4746 Y0.3001
G01 X0.4912 Y0.2945
G01 X0.5690 Y0.2719
G01 X0.5855 Y0.2686
G01 X0.5966 Y0.2670
G01 X0.6077 Y0.2659
G01 X0.6245 Y0.2653
G01 X18.6684 Y0.2653
G01 X18.6851 Y0.2659
G01 X18.6963 Y0.2670
G01 X18.7074 Y0.2686
G01 X18.7699 Y0.2819
G01 X18.7813 Y0.2847
G01 X18.7925 Y0.2880
G01 X18.8091 Y0.2941
G01 X18.8199 Y0.2988
G01 X18.8304 Y0.3041
G01 X18.8456 Y0.3129
G01 X18.8554 Y0.3195
G01 X18.8648 Y0.3265
G01 X18.8739 Y0.3340
G01 X18.9267 Y0.3797
G01 X18.9353 Y0.3876
G01 X18.9436 Y0.3959
G01 X18.9514 Y0.4045
G01 X18.9587 Y0.4136
G01 X18.9657 Y0.4230
G01 X18.9721 Y0.4328
G01 X18.9780 Y0.4428
G01 X18.9835 Y0.4532
G01 X18.9884 Y0.4638
G01 X18.9928 Y0.4746
G01 X18.9983 Y0.4912
G01 X19.0209 Y0.5690
G01 X19.0233 Y0.5800
G01 X19.0259 Y0.5966
G01 X19.0270 Y0.6077
G01 X19.0276 Y0.6245
G01 X19.0276 Y17.8755
G01 X19.0273 Y17.8867
G01 X19.0265 Y17.8979
G01 X19.0243 Y17.9145
G01 X19.0110 Y17.9770
G01 X19.0082 Y17.9884
G01 X19.0048 Y17.9997
G01 X19.0009 Y18.0108
G01 X18.9940 Y18.0270
G01 X18.9888 Y18.0375
G01 X18.9830 Y18.0477
G01 X18.9767 Y18.0577
G01 X18.9664 Y18.0720
G01 X18.9589 Y18.0810
G01 X18.9131 Y18.1338
G01 X18.9053 Y18.1425
G01 X18.8970 Y18.1507
G01 X18.8883 Y18.1585
G01 X18.8793 Y18.1659
G01 X18.8698 Y18.1728
G01 X18.8601 Y18.1792
G01 X18.8500 Y18.1852
G01 X18.8397 Y18.1906
G01 X18.8291 Y18.1955
G01 X18.8183 Y18.1999
G01 X18.8017 Y18.2055
G01 X18.7238 Y18.2281
G01 X18.7129 Y18.2304
G01 X18.6963 Y18.2330
G01 X18.6795 Y18.2344
G01 X18.6684 Y18.2347
G01 X0.6189 Y18.2346
G01 X0.6021 Y18.2336
G01 X0.5855 Y18.2314
G01 X0.5230 Y18.2181
G01 X0.5116 Y18.2153
G01 X0.4947 Y18.2101
G01 X0.4838 Y18.2059
G01 X0.4730 Y18.2012
G01 X0.4625 Y18.1959
G01 X0.4523 Y18.1901
G01 X0.4375 Y18.1805
G01 X0.4280 Y18.1735
G01 X0.4190 Y18.1660
G01 X0.3662 Y18.1203
G01 X0.3534 Y18.1083
G01 X0.3453 Y18.0998
G01 X0.3377 Y18.0910
G01 X0.3306 Y18.0817
G01 X0.3239 Y18.0721
G01 X0.3177 Y18.0622
G01 X0.3120 Y18.0520
G01 X0.3045 Y18.0362
G01 X0.3001 Y18.0254
G01 X0.2945 Y18.0088
G01 X0.2719 Y17.9310
G01 X0.2696 Y17.9200
G01 X0.2670 Y17.9034
G01 X0.2659 Y17.8923
G01 X0.2653 Y17.8755
G00 Z2.0000
G00 X0.1771 Y17.8755
G01 F30.00
G01 Z-0.0499
G01 F75.00
G01 X0.1771 Y0.6245
G01 X0.1779 Y0.6014
G01 X0.1804 Y0.5785
G01 X0.1845 Y0.5558
G01 X0.1957 Y0.5042
G01 X0.1995 Y0.4885
G01 X0.2067 Y0.4654
G01 X0.2125 Y0.4503
G01 X0.2190 Y0.4355
G01 X0.2262 Y0.4210
G01 X0.2342 Y0.4070
G01 X0.2428 Y0.3933
G01 X0.2570 Y0.3737
G01 X0.2673 Y0.3612
G01 X0.3131 Y0.3084
G01 X0.3239 Y0.2965
G01 X0.3353 Y0.2852
G01 X0.3472 Y0.2745
G01 X0.3597 Y0.2643
G01 X0.3726 Y0.2548
G01 X0.3860 Y0.2460
G01 X0.3998 Y0.2378
G01 X0.4140 Y0.2303
G01 X0.4286 Y0.2236
G01 X0.4435 Y0.2175
G01 X0.4663 Y0.2099
G01 X0.5334 Y0.1902
G01 X0.5558 Y0.1845
G01 X0.5709 Y0.1816
G01 X0.5861 Y0.1794
G01 X0.6091 Y0.1775
G01 X0.6245 Y0.1771
G01 X18.6684 Y0.1771
G01 X18.6914 Y0.1779
G01 X18.7144 Y0.1804
G01 X18.7371 Y0.1845
G01 X18.7886 Y0.1957
G01 X18.8043 Y0.1995
G01 X18.8198 Y0.2041
G01 X18.8426 Y0.2125
G01 X18.8574 Y0.2190
G01 X18.8718 Y0.2262
G01 X18.8859 Y0.2342
G01 X18.9062 Y0.2474
G01 X18.9192 Y0.2570
G01 X18.9316 Y0.2673
G01 X18.9845 Y0.3131
G01 X18.9963 Y0.3239
G01 X19.0076 Y0.3353
G01 X19.0184 Y0.3472
G01 X19.0285 Y0.3597
G01 X19.0380 Y0.3726
G01 X19.0469 Y0.3860
G01 X19.0551 Y0.3998
G01 X19.0625 Y0.4140
G01 X19.0693 Y0.4286
G01 X19.0753 Y0.4435
G01 X19.0830 Y0.4663
G01 X19.1027 Y0.5334
G01 X19.1084 Y0.5558
G01 X19.1113 Y0.5709
G01 X19.1135 Y0.5861
G01 X19.1154 Y0.6091
G01 X19.1158 Y0.6245
G01 X19.1158 Y17.8755
G01 X19.1149 Y17.8986
G01 X19.1125 Y17.9215
G01 X19.1084 Y17.9442
G01 X19.0972 Y17.9958
G01 X19.0933 Y18.0115
G01 X19.0887 Y18.0269
G01 X19.0804 Y18.0497
G01 X19.0739 Y18.0645
G01 X19.0666 Y18.0790
G01 X19.0545 Y18.0999
G01 X19.0455 Y18.1133
G01 X19.0358 Y18.1263
G01 X19.0256 Y18.1388
G01 X18.9798 Y18.1916
G01 X18.9690 Y18.2035
G01 X18.9576 Y18.2148
G01 X18.9457 Y18.2255
G01 X18.9332 Y18.2357
G01 X18.9203 Y18.2452
G01 X18.9068 Y18.2540
G01 X18.8930 Y18.2622
G01 X18.8788 Y18.2697
G01 X18.8642 Y18.2764
G01 X18.8494 Y18.2825
G01 X18.8265 Y18.2901
G01 X18.7595 Y18.3098
G01 X18.7371 Y18.3155
G01 X18.7220 Y18.3184
G01 X18.7068 Y18.3206
G01 X18.6914 Y18.3221
G01 X18.6684 Y18.3229
G01 X0.6168 Y18.3228
G01 X0.5938 Y18.3214
G01 X0.5709 Y18.3184
G01 X0.5558 Y18.3155
G01 X0.5042 Y18.3043
G01 X0.4808 Y18.2983
G01 X0.4654 Y18.2933
G01 X0.4503 Y18.2875
G01 X0.4355 Y18.2810
G01 X0.4140 Y18.2699
G01 X0.4001 Y18.2616
G01 X0.3867 Y18.2526
G01 X0.3737 Y18.2430
G01 X0.3612 Y18.2327
G01 X0.3084 Y18.1869
G01 X0.2908 Y18.1705
G01 X0.2798 Y18.1588
G01 X0.2643 Y18.1403
G01 X0.2548 Y18.1274
G01 X0.2460 Y18.1140
G01 X0.2378 Y18.1002
G01 X0.2303 Y18.0860
G01 X0.2236 Y18.0714
G01 X0.2175 Y18.0565
G01 X0.2099 Y18.0337
G01 X0.1902 Y17.9666
G01 X0.1845 Y17.9442
G01 X0.1816 Y17.9291
G01 X0.1794 Y17.9139
G01 X0.1775 Y17.8909
G01 X0.1771 Y17.8755
G00 Z2.0000
G00 X0.0889 Y17.8755
G01 F30.00
G01 Z-0.0499
G01 F75.00
G01 X0.0889 Y0.6245
G01 X0.0899 Y0.5951
G01 X0.0931 Y0.5659
G01 X0.0963 Y0.5466
G01 X0.1095 Y0.4855
G01 X0.1118 Y0.4755
G01 X0.1172 Y0.4556
G01 X0.1236 Y0.4361
G01 X0.1309 Y0.4168
G01 X0.1392 Y0.3980
G01 X0.1436 Y0.3887
G01 X0.1533 Y0.3706
G01 X0.1639 Y0.3529
G01 X0.1753 Y0.3358
G01 X0.1876 Y0.3193
G01 X0.2006 Y0.3034
G01 X0.2464 Y0.2506
G01 X0.2602 Y0.2355
G01 X0.2747 Y0.2211
G01 X0.2899 Y0.2075
G01 X0.3057 Y0.1946
G01 X0.3222 Y0.1825
G01 X0.3392 Y0.1712
G01 X0.3568 Y0.1608
G01 X0.3749 Y0.1513
G01 X0.3935 Y0.1427
G01 X0.4124 Y0.1350
G01 X0.4317 Y0.1283
G01 X0.4415 Y0.1253
G01 X0.5085 Y0.1056
G01 X0.5370 Y0.0983
G01 X0.5659 Y0.0931
G01 X0.5854 Y0.0908
G01 X0.6049 Y0.0894
G01 X0.6245 Y0.0889
G01 X18.6684 Y0.0889
G01 X18.6977 Y0.0899
G01 X18.7269 Y0.0931
G01 X18.7463 Y0.0963
G01 X18.8074 Y0.1095
G01 X18.8273 Y0.1144
G01 X18.8471 Y0.1203
G01 X18.8568 Y0.1236
G01 X18.8760 Y0.1309
G01 X18.8949 Y0.1392
G01 X18.9132 Y0.1484
G01 X18.9223 Y0.1533
G01 X18.9399 Y0.1639
G01 X18.9570 Y0.1753
G01 X18.9735 Y0.1876
G01 X18.9894 Y0.2006
G01 X19.0422 Y0.2464
G01 X19.0573 Y0.2602
G01 X19.0717 Y0.2747
G01 X19.0854 Y0.2899
G01 X19.0983 Y0.3057
G01 X19.1104 Y0.3222
G01 X19.1217 Y0.3392
G01 X19.1321 Y0.3568
G01 X19.1416 Y0.3749
G01 X19.1502 Y0.3935
G01 X19.1579 Y0.4124
G01 X19.1646 Y0.4317
G01 X19.1676 Y0.4415
G01 X19.1873 Y0.5085
G01 X19.1945 Y0.5370
G01 X19.1983 Y0.5562
G01 X19.2021 Y0.5854
G01 X19.2035 Y0.6049
G01 X19.2040 Y0.6245
G01 X19.2040 Y17.8755
G01 X19.2029 Y17.9049
G01 X19.1998 Y17.9341
G01 X19.1965 Y17.9534
