(G-CODE GENERATED BY FLATCAM v8.994 - www.flatcam.org - Version Date: 2020/11/7)

(Name: Zoetrope Carusel V4 - External Power Switch_V2-PTH.drl_cnc)
(Type: G-code from Geometry)
(Units: MM)

(Created on Saturday, 07 March 2026 at 21:11)

(This preprocessor is the default preprocessor used by FlatCAM.)
(It is made to work with MACH3 compatible motion controllers.)


(TOOLS DIAMETER: )
(Tool: 1 -> Dia: 1.85)

(FEEDRATE Z: )
(Tool: 1 -> Feedrate: 10.0)

(FEEDRATE RAPIDS: )
(Tool: 1 -> Feedrate Rapids: 1500)

(Z_CUT: )
(Tool: 1 -> Z_Cut: -1.8)

(Tools Offset: )
(Tool: 1 -> Offset Z: 0.0)

(DEPTH_PER_CUT: )
(Tool: 1 -> DeptPerCut: 0.5)

(Z_MOVE: )
(Tool: 1 -> Z_Move: 2.0)

(Z Toolchange: 15.0 mm)
(X,Y Toolchange: 0.0000, 0.0000 mm)
(Z Start: None mm)
(Z End: 20.0 mm)
(X,Y End: None mm)
(Steps per circle: 64)
(Preprocessor Excellon: default)

(X range:   12.1750 ...   14.0250  mm)
(Y range:    3.8250 ...   15.0750  mm)

(Spindle Speed: 10000 RPM)
G21
G90
G94

G01 F10.00

M5
G00 Z15.0000
T1
G00 X0.0000 Y0.0000                
M6
(MSG, Change to Tool Dia = 1.8500 ||| Total drills for tool T1 = 3)
M0
G00 Z15.0000

G01 F10.00
M03 S10000
G00 X13.1000 Y14.1500
G01 Z-0.5000
G01 Z0
G00 Z2.0000
G01 Z-1.0000
G01 Z0
G00 Z2.0000
G01 Z-1.5000
G01 Z0
G00 Z2.0000
G01 Z-1.8000
G01 Z0
G00 Z2.0000
G00 X13.1000 Y9.4500
G01 Z-0.5000
G01 Z0
G00 Z2.0000
G01 Z-1.0000
G01 Z0
G00 Z2.0000
G01 Z-1.5000
G01 Z0
G00 Z2.0000
G01 Z-1.8000
G01 Z0
G00 Z2.0000
G00 X13.1000 Y4.7500
G01 Z-0.5000
G01 Z0
G00 Z2.0000
G01 Z-1.0000
G01 Z0
G00 Z2.0000
G01 Z-1.5000
G01 Z0
G00 Z2.0000
G01 Z-1.8000
G01 Z0
G00 Z2.0000
M05
G00 Z20.00


