(G-CODE GENERATED BY FLATCAM v8.994 - www.flatcam.org - Version Date: 2020/11/7)

(Name: Zoetrope Carusel V4 - External Power Switch_V2-Edge_Cuts.gbr_cutout_cnc)
(Type: G-code from Geometry)
(Units: MM)

(Created on Saturday, 07 March 2026 at 21:23)

(This preprocessor is the default preprocessor used by FlatCAM.)
(It is made to work with MACH3 compatible motion controllers.)

(TOOL DIAMETER: 1.8 mm)
(Feedrate_XY: 100.0 mm/min)
(Feedrate_Z: 30.0 mm/min)
(Feedrate rapids 1500.0 mm/min)

(Z_Cut: -1.8 mm)
(DepthPerCut: 0.5 mm <=>4 passes)
(Z_Move: 2.0 mm)
(Z Start: None mm)
(Z End: 15.0 mm)
(X,Y End: None mm)
(Steps per circle: 64)
(Preprocessor Geometry: default)

(X range:   -1.0250 ...   20.3179  mm)
(Y range:   -1.0250 ...   19.5250  mm)

(Spindle Speed: 10000.0 RPM)
G21
G90
G94

G01 F100.00

M5
G00 Z15.0000
G00 X0.0000 Y0.0000
T1
M6    
(MSG, Change to Tool Dia = 1.8000)
M0
G00 Z15.0000

M03 S10000.0
G01 F100.00
G00 X19.3179 Y-1.0250
G01 F30.00
G01 Z-0.5000
G01 F100.00
G01 X-0.0250 Y-1.0250
G01 X-0.1230 Y-1.0202
G01 X-0.2201 Y-1.0058
G01 X-0.3153 Y-0.9820
G01 X-0.4077 Y-0.9489
G01 X-0.4964 Y-0.9069
G01 X-0.5806 Y-0.8565
G01 X-0.6594 Y-0.7980
G01 X-0.7321 Y-0.7321
G01 X-0.7980 Y-0.6594
G01 X-0.8565 Y-0.5806
G01 X-0.9069 Y-0.4964
G01 X-0.9489 Y-0.4077
G01 X-0.9820 Y-0.3153
G01 X-1.0058 Y-0.2201
G01 X-1.0202 Y-0.1230
G01 X-1.0250 Y-0.0250
G01 X-1.0250 Y18.5250
G01 X-1.0202 Y18.6230
G01 X-1.0058 Y18.7201
G01 X-0.9820 Y18.8153
G01 X-0.9489 Y18.9077
G01 X-0.9069 Y18.9964
G01 X-0.8565 Y19.0806
G01 X-0.7980 Y19.1594
G01 X-0.7321 Y19.2321
G01 X-0.6594 Y19.2980
G01 X-0.5806 Y19.3565
G01 X-0.4964 Y19.4069
G01 X-0.4077 Y19.4489
G01 X-0.3153 Y19.4820
G01 X-0.2201 Y19.5058
G01 X-0.1230 Y19.5202
G01 X-0.0250 Y19.5250
G01 X19.3179 Y19.5250
G01 X19.4159 Y19.5202
G01 X19.5130 Y19.5058
G01 X19.6082 Y19.4820
G01 X19.7006 Y19.4489
G01 X19.7893 Y19.4069
G01 X19.8734 Y19.3565
G01 X19.9523 Y19.2980
G01 X20.0250 Y19.2321
G01 X20.0909 Y19.1594
G01 X20.1493 Y19.0806
G01 X20.1998 Y18.9964
G01 X20.2417 Y18.9077
G01 X20.2748 Y18.8153
G01 X20.2987 Y18.7201
G01 X20.3131 Y18.6230
G01 X20.3179 Y18.5250
G01 X20.3179 Y-0.0250
G01 X20.3131 Y-0.1230
G01 X20.2987 Y-0.2201
G01 X20.2748 Y-0.3153
G01 X20.2417 Y-0.4077
G01 X20.1998 Y-0.4964
G01 X20.1493 Y-0.5806
G01 X20.0909 Y-0.6594
G01 X20.0250 Y-0.7321
G01 X19.9523 Y-0.7980
G01 X19.8734 Y-0.8565
G01 X19.7893 Y-0.9069
G01 X19.7006 Y-0.9489
G01 X19.6082 Y-0.9820
G01 X19.5130 Y-1.0058
G01 X19.4159 Y-1.0202
G01 X19.3179 Y-1.0250
G00 X19.3179 Y-1.0250
G01 F30.00
G01 Z-1.0000
G01 F100.00
G01 X19.4159 Y-1.0202
G01 X19.5130 Y-1.0058
G01 X19.6082 Y-0.9820
G01 X19.7006 Y-0.9489
G01 X19.7893 Y-0.9069
G01 X19.8734 Y-0.8565
G01 X19.9523 Y-0.7980
G01 X20.0250 Y-0.7321
G01 X20.0909 Y-0.6594
G01 X20.1493 Y-0.5806
G01 X20.1998 Y-0.4964
G01 X20.2417 Y-0.4077
G01 X20.2748 Y-0.3153
G01 X20.2987 Y-0.2201
G01 X20.3131 Y-0.1230
G01 X20.3179 Y-0.0250
G01 X20.3179 Y18.5250
G01 X20.3131 Y18.6230
G01 X20.2987 Y18.7201
G01 X20.2748 Y18.8153
G01 X20.2417 Y18.9077
G01 X20.1998 Y18.9964
G01 X20.1493 Y19.0806
G01 X20.0909 Y19.1594
G01 X20.0250 Y19.2321
G01 X19.9523 Y19.2980
G01 X19.8734 Y19.3565
G01 X19.7893 Y19.4069
G01 X19.7006 Y19.4489
G01 X19.6082 Y19.4820
G01 X19.5130 Y19.5058
G01 X19.4159 Y19.5202
G01 X19.3179 Y19.5250
G01 X-0.0250 Y19.5250
G01 X-0.1230 Y19.5202
G01 X-0.2201 Y19.5058
G01 X-0.3153 Y19.4820
G01 X-0.4077 Y19.4489
G01 X-0.4964 Y19.4069
G01 X-0.5806 Y19.3565
G01 X-0.6594 Y19.2980
G01 X-0.7321 Y19.2321
G01 X-0.7980 Y19.1594
G01 X-0.8565 Y19.0806
G01 X-0.9069 Y18.9964
G01 X-0.9489 Y18.9077
G01 X-0.9820 Y18.8153
G01 X-1.0058 Y18.7201
G01 X-1.0202 Y18.6230
G01 X-1.0250 Y18.5250
G01 X-1.0250 Y-0.0250
G01 X-1.0202 Y-0.1230
G01 X-1.0058 Y-0.2201
G01 X-0.9820 Y-0.3153
G01 X-0.9489 Y-0.4077
G01 X-0.9069 Y-0.4964
G01 X-0.8565 Y-0.5806
G01 X-0.7980 Y-0.6594
G01 X-0.7321 Y-0.7321
G01 X-0.6594 Y-0.7980
G01 X-0.5806 Y-0.8565
G01 X-0.4964 Y-0.9069
G01 X-0.4077 Y-0.9489
G01 X-0.3153 Y-0.9820
G01 X-0.2201 Y-1.0058
G01 X-0.1230 Y-1.0202
G01 X-0.0250 Y-1.0250
G01 X19.3179 Y-1.0250
G00 X19.3179 Y-1.0250
G01 F30.00
G01 Z-1.5000
G01 F100.00
G01 X-0.0250 Y-1.0250
G01 X-0.1230 Y-1.0202
G01 X-0.2201 Y-1.0058
G01 X-0.3153 Y-0.9820
G01 X-0.4077 Y-0.9489
G01 X-0.4964 Y-0.9069
G01 X-0.5806 Y-0.8565
G01 X-0.6594 Y-0.7980
G01 X-0.7321 Y-0.7321
G01 X-0.7980 Y-0.6594
G01 X-0.8565 Y-0.5806
G01 X-0.9069 Y-0.4964
G01 X-0.9489 Y-0.4077
G01 X-0.9820 Y-0.3153
G01 X-1.0058 Y-0.2201
G01 X-1.0202 Y-0.1230
G01 X-1.0250 Y-0.0250
G01 X-1.0250 Y18.5250
G01 X-1.0202 Y18.6230
G01 X-1.0058 Y18.7201
G01 X-0.9820 Y18.8153
G01 X-0.9489 Y18.9077
G01 X-0.9069 Y18.9964
G01 X-0.8565 Y19.0806
G01 X-0.7980 Y19.1594
G01 X-0.7321 Y19.2321
G01 X-0.6594 Y19.2980
G01 X-0.5806 Y19.3565
G01 X-0.4964 Y19.4069
G01 X-0.4077 Y19.4489
G01 X-0.3153 Y19.4820
G01 X-0.2201 Y19.5058
G01 X-0.1230 Y19.5202
G01 X-0.0250 Y19.5250
G01 X19.3179 Y19.5250
G01 X19.4159 Y19.5202
G01 X19.5130 Y19.5058
G01 X19.6082 Y19.4820
G01 X19.7006 Y19.4489
G01 X19.7893 Y19.4069
G01 X19.8734 Y19.3565
G01 X19.9523 Y19.2980
G01 X20.0250 Y19.2321
G01 X20.0909 Y19.1594
G01 X20.1493 Y19.0806
G01 X20.1998 Y18.9964
G01 X20.2417 Y18.9077
G01 X20.2748 Y18.8153
G01 X20.2987 Y18.7201
G01 X20.3131 Y18.6230
G01 X20.3179 Y18.5250
G01 X20.3179 Y-0.0250
G01 X20.3131 Y-0.1230
G01 X20.2987 Y-0.2201
G01 X20.2748 Y-0.3153
G01 X20.2417 Y-0.4077
G01 X20.1998 Y-0.4964
G01 X20.1493 Y-0.5806
G01 X20.0909 Y-0.6594
G01 X20.0250 Y-0.7321
G01 X19.9523 Y-0.7980
G01 X19.8734 Y-0.8565
G01 X19.7893 Y-0.9069
G01 X19.7006 Y-0.9489
G01 X19.6082 Y-0.9820
G01 X19.5130 Y-1.0058
G01 X19.4159 Y-1.0202
G01 X19.3179 Y-1.0250
G00 X19.3179 Y-1.0250
G01 F30.00
G01 Z-1.8000
G01 F100.00
G01 X19.4159 Y-1.0202
G01 X19.5130 Y-1.0058
G01 X19.6082 Y-0.9820
G01 X19.7006 Y-0.9489
G01 X19.7893 Y-0.9069
G01 X19.8734 Y-0.8565
G01 X19.9523 Y-0.7980
G01 X20.0250 Y-0.7321
G01 X20.0909 Y-0.6594
G01 X20.1493 Y-0.5806
G01 X20.1998 Y-0.4964
G01 X20.2417 Y-0.4077
G01 X20.2748 Y-0.3153
G01 X20.2987 Y-0.2201
G01 X20.3131 Y-0.1230
G01 X20.3179 Y-0.0250
G01 X20.3179 Y18.5250
G01 X20.3131 Y18.6230
G01 X20.2987 Y18.7201
G01 X20.2748 Y18.8153
G01 X20.2417 Y18.9077
G01 X20.1998 Y18.9964
G01 X20.1493 Y19.0806
G01 X20.0909 Y19.1594
G01 X20.0250 Y19.2321
G01 X19.9523 Y19.2980
G01 X19.8734 Y19.3565
G01 X19.7893 Y19.4069
G01 X19.7006 Y19.4489
G01 X19.6082 Y19.4820
G01 X19.5130 Y19.5058
G01 X19.4159 Y19.5202
G01 X19.3179 Y19.5250
G01 X-0.0250 Y19.5250
G01 X-0.1230 Y19.5202
G01 X-0.2201 Y19.5058
G01 X-0.3153 Y19.4820
G01 X-0.4077 Y19.4489
G01 X-0.4964 Y19.4069
G01 X-0.5806 Y19.3565
G01 X-0.6594 Y19.2980
G01 X-0.7321 Y19.2321
G01 X-0.7980 Y19.1594
G01 X-0.8565 Y19.0806
G01 X-0.9069 Y18.9964
G01 X-0.9489 Y18.9077
G01 X-0.9820 Y18.8153
G01 X-1.0058 Y18.7201
G01 X-1.0202 Y18.6230
G01 X-1.0250 Y18.5250
G01 X-1.0250 Y-0.0250
G01 X-1.0202 Y-0.1230
G01 X-1.0058 Y-0.2201
G01 X-0.9820 Y-0.3153
G01 X-0.9489 Y-0.4077
G01 X-0.9069 Y-0.4964
G01 X-0.8565 Y-0.5806
G01 X-0.7980 Y-0.6594
G01 X-0.7321 Y-0.7321
G01 X-0.6594 Y-0.7980
G01 X-0.5806 Y-0.8565
G01 X-0.4964 Y-0.9069
G01 X-0.4077 Y-0.9489
G01 X-0.3153 Y-0.9820
G01 X-0.2201 Y-1.0058
G01 X-0.1230 Y-1.0202
G01 X-0.0250 Y-1.0250
G01 X19.3179 Y-1.0250
G00 Z2.0000
M05
G00 Z2.0000
G00 Z15.00


