(G-CODE GENERATED BY FLATCAM v8.994 - www.flatcam.org - Version Date: 2020/11/7)

(Name: PhotoeyeOnlyEye PCB_V1-F_Cu.gbr_iso_combined_cnc)
(Type: G-code from Geometry)
(Units: MM)

(Created on Sunday, 08 March 2026 at 18:40)

(This preprocessor is the default preprocessor used by FlatCAM.)
(It is made to work with MACH3 compatible motion controllers.)

(TOOL DIAMETER: 0.1176 mm)
(Feedrate_XY: 100.0 mm/min)
(Feedrate_Z: 25.0 mm/min)
(Feedrate rapids 1500.0 mm/min)

(Z_Cut: -0.0499 mm)
(Z_Move: 2.0 mm)
(Z Start: None mm)
(Z End: 20.0 mm)
(X,Y End: None mm)
(Steps per circle: 64)
(Preprocessor Geometry: default)

(X range:   -0.0287 ...   20.0287  mm)
(Y range:   -0.0287 ...   20.0287  mm)

(Spindle Speed: 10000.0 RPM)
G21
G90
G94

G01 F100.00

M5
G00 Z15.0000
G00 X0.0000 Y0.0000
T2
M6    
(MSG, Change to Tool Dia = 0.1176)
M0
G00 Z15.0000

M03 S10000.0
G01 F100.00
G00 X1.6090 Y5.0223
G01 F25.00
G01 Z-0.0499
G01 F100.00
G01 X1.7697 Y4.9405
G01 X1.9570 Y4.8796
G01 X2.1515 Y4.8488
G01 X2.3485 Y4.8488
G01 X2.5430 Y4.8796
G01 X2.7303 Y4.9405
G01 X2.7915 Y4.9716
G01 X2.4961 Y5.2670
G01 X2.4195 Y5.2479
G01 X2.3352 Y5.2354
G01 X2.2500 Y5.2312
G01 X2.1663 Y5.2353
G01 X2.0805 Y5.2479
G01 X1.9992 Y5.2682
G01 X1.9189 Y5.2968
G01 X1.8947 Y5.3080
G01 X1.6090 Y5.0223
G00 Z2.0000
G00 X1.7671 Y5.0474
G01 F25.00
G01 Z-0.0499
G01 F100.00
G01 X1.8058 Y5.0277
G01 X1.9790 Y4.9714
G01 X2.1589 Y4.9429
G01 X2.3411 Y4.9429
G01 X2.5210 Y4.9714
G01 X2.6249 Y5.0051
G01 X2.4673 Y5.1628
G01 X2.4452 Y5.1573
G01 X2.4342 Y5.1549
G01 X2.3518 Y5.1427
G01 X2.3406 Y5.1414
G01 X2.2500 Y5.1371
G01 X2.1594 Y5.1414
G01 X2.1482 Y5.1427
G01 X2.0695 Y5.1543
G01 X2.0585 Y5.1564
G01 X1.9705 Y5.1786
G01 X1.9172 Y5.1975
G01 X1.7671 Y5.0474
G00 Z2.0000
G00 X1.9418 Y5.0890
G01 F25.00
G01 Z-0.0499
G01 F100.00
G01 X1.9368 Y5.0840
G01 X2.0011 Y5.0631
G01 X2.1663 Y5.0370
G01 X2.3337 Y5.0370
G01 X2.4428 Y5.0542
G01 X2.4368 Y5.0602
G01 X2.3656 Y5.0496
G01 X2.3536 Y5.0481
G01 X2.3415 Y5.0472
G01 X2.2561 Y5.0431
G01 X2.2379 Y5.0433
G01 X2.1524 Y5.0476
G01 X2.1344 Y5.0496
G01 X2.0557 Y5.0613
G01 X2.0438 Y5.0633
G01 X2.0320 Y5.0660
G01 X1.9549 Y5.0853
G01 X1.9418 Y5.0890
G00 Z2.0000
G00 X1.1870 Y6.1837
G01 F25.00
G01 Z-0.0499
G01 F100.00
G01 X1.1870 Y6.0163
G01 X1.2131 Y5.8511
G01 X1.2340 Y5.7868
G01 X1.2390 Y5.7918
G01 X1.2353 Y5.8049
G01 X1.2160 Y5.8820
G01 X1.2133 Y5.8938
G01 X1.2113 Y5.9057
G01 X1.1988 Y5.9904
G01 X1.1972 Y6.0085
G01 X1.1933 Y6.0879
G01 X1.1930 Y6.1000
G01 X1.1933 Y6.1121
G01 X1.1972 Y6.1915
G01 X1.1988 Y6.2096
G01 X1.2113 Y6.2943
G01 X1.2133 Y6.3062
G01 X1.2160 Y6.3180
G01 X1.2353 Y6.3951
G01 X1.2390 Y6.4082
G01 X1.2340 Y6.4132
G01 X1.2131 Y6.3489
G01 X1.1870 Y6.1837
G00 Z2.0000
G00 X1.0929 Y6.1911
G01 F25.00
G01 Z-0.0499
G01 F100.00
G01 X1.0929 Y6.0089
G01 X1.1214 Y5.8290
G01 X1.1777 Y5.6558
G01 X1.1974 Y5.6171
G01 X1.3475 Y5.7672
G01 X1.3309 Y5.8134
G01 X1.3275 Y5.8241
G01 X1.3073 Y5.9048
G01 X1.3049 Y5.9158
G01 X1.2918 Y6.0056
G01 X1.2871 Y6.1000
G01 X1.2918 Y6.1944
G01 X1.3049 Y6.2842
G01 X1.3073 Y6.2952
G01 X1.3275 Y6.3759
G01 X1.3309 Y6.3866
G01 X1.3475 Y6.4328
G01 X1.1974 Y6.5829
G01 X1.1777 Y6.5442
G01 X1.1214 Y6.3710
G01 X1.0929 Y6.1911
G00 Z2.0000
G00 X0.9988 Y6.1985
G01 F25.00
G01 Z-0.0499
G01 F100.00
G01 X0.9988 Y6.0015
G01 X1.0296 Y5.8070
G01 X1.0905 Y5.6197
G01 X1.1723 Y5.4590
G01 X1.4580 Y5.7447
G01 X1.4468 Y5.7689
G01 X1.4190 Y5.8464
G01 X1.3982 Y5.9291
G01 X1.3854 Y6.0148
G01 X1.3812 Y6.1000
G01 X1.3854 Y6.1852
G01 X1.3982 Y6.2709
G01 X1.4190 Y6.3536
G01 X1.4468 Y6.4311
G01 X1.4580 Y6.4553
G01 X1.1723 Y6.7410
G01 X1.0905 Y6.5803
G01 X1.0296 Y6.3930
G01 X0.9988 Y6.1985
G00 Z2.0000
G00 X1.6090 Y7.1777
G01 F25.00
G01 Z-0.0499
G01 F100.00
G01 X1.8947 Y6.8920
G01 X1.9175 Y6.9027
G01 X1.9411 Y6.9112
G01 X1.9411 Y7.3152
G01 X1.7697 Y7.2595
G01 X1.6090 Y7.1777
G00 Z2.0000
G00 X1.7671 Y7.1526
G01 F25.00
G01 Z-0.0499
G01 F100.00
G01 X1.8470 Y7.0728
G01 X1.8470 Y7.1857
G01 X1.8058 Y7.1723
G01 X1.7671 Y7.1526
G00 Z2.0000
G00 X2.5589 Y7.3152
G01 F25.00
G01 Z-0.0499
G01 F100.00
G01 X2.5589 Y6.9112
G01 X2.5825 Y6.9027
G01 X2.6053 Y6.8920
G01 X2.8910 Y7.1777
G01 X2.7303 Y7.2595
G01 X2.5589 Y7.3152
G00 Z2.0000
G00 X2.6530 Y7.1857
G01 F25.00
G01 Z-0.0499
G01 F100.00
G01 X2.6530 Y7.0728
G01 X2.7329 Y7.1526
G01 X2.6942 Y7.1723
G01 X2.6530 Y7.1857
G00 Z2.0000
G00 X3.0420 Y6.4553
G01 F25.00
G01 Z-0.0499
G01 F100.00
G01 X3.0532 Y6.4311
G01 X3.0810 Y6.3536
G01 X3.1018 Y6.2709
G01 X3.1146 Y6.1852
G01 X3.1188 Y6.1000
G01 X3.1146 Y6.0148
G01 X3.1018 Y5.9291
G01 X3.0810 Y5.8464
G01 X3.0532 Y5.7689
G01 X3.0420 Y5.7447
G01 X3.3277 Y5.4590
G01 X3.4095 Y5.6197
G01 X3.4704 Y5.8070
G01 X3.5012 Y6.0015
G01 X3.5012 Y6.1985
G01 X3.4704 Y6.3930
G01 X3.4095 Y6.5803
G01 X3.3277 Y6.7410
G01 X3.0420 Y6.4553
G00 Z2.0000
G00 X3.1525 Y6.4328
G01 F25.00
G01 Z-0.0499
G01 F100.00
G01 X3.1691 Y6.3866
G01 X3.1725 Y6.3759
G01 X3.1927 Y6.2952
G01 X3.1951 Y6.2842
G01 X3.2082 Y6.1944
G01 X3.2129 Y6.1000
G01 X3.2082 Y6.0056
G01 X3.1951 Y5.9158
G01 X3.1927 Y5.9048
G01 X3.1725 Y5.8241
G01 X3.1691 Y5.8134
G01 X3.1525 Y5.7672
G01 X3.3026 Y5.6171
G01 X3.3223 Y5.6558
G01 X3.3786 Y5.8290
G01 X3.4071 Y6.0089
G01 X3.4071 Y6.1911
G01 X3.3786 Y6.3710
G01 X3.3223 Y6.5442
G01 X3.3026 Y6.5829
G01 X3.1525 Y6.4328
G00 Z2.0000
G00 X3.2610 Y6.4082
G01 F25.00
G01 Z-0.0499
G01 F100.00
G01 X3.2647 Y6.3951
G01 X3.2840 Y6.3180
G01 X3.2867 Y6.3062
G01 X3.2887 Y6.2943
G01 X3.3004 Y6.2156
G01 X3.3019 Y6.2036
G01 X3.3028 Y6.1915
G01 X3.3067 Y6.1121
G01 X3.3070 Y6.1000
G01 X3.3067 Y6.0879
G01 X3.3028 Y6.0085
G01 X3.3012 Y5.9904
G01 X3.2887 Y5.9057
G01 X3.2867 Y5.8938
G01 X3.2840 Y5.8820
G01 X3.2647 Y5.8049
G01 X3.2610 Y5.7918
G01 X3.2660 Y5.7868
G01 X3.2869 Y5.8511
G01 X3.3130 Y6.0163
G01 X3.3130 Y6.1837
G01 X3.2869 Y6.3489
G01 X3.2660 Y6.4132
G01 X3.2610 Y6.4082
G00 Z2.0000
G00 X6.0348 Y3.9089
G01 F25.00
G01 Z-0.0499
G01 F100.00
G01 X6.4388 Y3.9089
G01 X6.4473 Y3.9325
G01 X6.4580 Y3.9553
G01 X6.1723 Y4.2410
G01 X6.0905 Y4.0803
G01 X6.0348 Y3.9089
G00 Z2.0000
G00 X6.1643 Y4.0030
G01 F25.00
G01 Z-0.0499
G01 F100.00
G01 X6.2772 Y4.0030
G01 X6.1974 Y4.0829
G01 X6.1777 Y4.0442
G01 X6.1643 Y4.0030
G00 Z2.0000
G00 X6.0348 Y3.2911
G01 F25.00
G01 Z-0.0499
G01 F100.00
G01 X6.0905 Y3.1197
G01 X6.1723 Y2.9590
G01 X6.4580 Y3.2447
G01 X6.4473 Y3.2675
G01 X6.4388 Y3.2911
G01 X6.0348 Y3.2911
G00 Z2.0000
G00 X6.1643 Y3.1970
G01 F25.00
G01 Z-0.0499
G01 F100.00
G01 X6.1777 Y3.1558
G01 X6.1974 Y3.1171
G01 X6.2772 Y3.1970
G01 X6.1643 Y3.1970
G00 Z2.0000
G00 X6.6090 Y2.5223
G01 F25.00
G01 Z-0.0499
G01 F100.00
G01 X6.7697 Y2.4405
G01 X6.9570 Y2.3796
G01 X7.1515 Y2.3488
G01 X7.3485 Y2.3488
G01 X7.5430 Y2.3796
G01 X7.7303 Y2.4405
G01 X7.8910 Y2.5223
G01 X7.6053 Y2.8080
G01 X7.5811 Y2.7968
G01 X7.5036 Y2.7690
G01 X7.4209 Y2.7482
G01 X7.3352 Y2.7354
G01 X7.2500 Y2.7312
G01 X7.1648 Y2.7354
G01 X7.0791 Y2.7482
G01 X6.9964 Y2.7690
G01 X6.9189 Y2.7968
G01 X6.8947 Y2.8080
G01 X6.6090 Y2.5223
G00 Z2.0000
G00 X6.7671 Y2.5474
G01 F25.00
G01 Z-0.0499
G01 F100.00
G01 X6.8058 Y2.5277
G01 X6.9790 Y2.4714
G01 X7.1589 Y2.4429
G01 X7.3411 Y2.4429
G01 X7.5210 Y2.4714
G01 X7.6942 Y2.5277
G01 X7.7329 Y2.5474
G01 X7.5828 Y2.6975
G01 X7.5366 Y2.6809
G01 X7.5259 Y2.6775
G01 X7.4452 Y2.6573
G01 X7.4342 Y2.6549
G01 X7.3444 Y2.6418
G01 X7.2500 Y2.6371
G01 X7.1556 Y2.6418
G01 X7.0658 Y2.6549
G01 X7.0548 Y2.6573
G01 X6.9741 Y2.6775
G01 X6.9634 Y2.6809
G01 X6.9172 Y2.6975
G01 X6.7671 Y2.5474
G00 Z2.0000
G00 X6.9418 Y2.5890
G01 F25.00
G01 Z-0.0499
G01 F100.00
G01 X6.9368 Y2.5840
G01 X7.0011 Y2.5631
G01 X7.1663 Y2.5370
G01 X7.3337 Y2.5370
G01 X7.4989 Y2.5631
G01 X7.5632 Y2.5840
G01 X7.5582 Y2.5890
G01 X7.5451 Y2.5853
G01 X7.4680 Y2.5660
G01 X7.4562 Y2.5633
G01 X7.4443 Y2.5613
G01 X7.3596 Y2.5488
G01 X7.3415 Y2.5472
G01 X7.2621 Y2.5433
G01 X7.2500 Y2.5430
G01 X7.2379 Y2.5433
G01 X7.1585 Y2.5472
G01 X7.1464 Y2.5481
G01 X7.1344 Y2.5496
G01 X7.0557 Y2.5613
G01 X7.0438 Y2.5633
G01 X7.0320 Y2.5660
G01 X6.9549 Y2.5853
G01 X6.9418 Y2.5890
G00 Z2.0000
G00 X8.0420 Y3.2447
G01 F25.00
G01 Z-0.0499
G01 F100.00
G01 X8.3277 Y2.9590
G01 X8.4095 Y3.1197
G01 X8.4704 Y3.3070
G01 X8.5012 Y3.5015
G01 X8.5012 Y3.6985
G01 X8.4704 Y3.8930
G01 X8.4095 Y4.0803
G01 X8.3277 Y4.2410
G01 X8.0420 Y3.9553
G01 X8.0532 Y3.9311
G01 X8.0810 Y3.8536
G01 X8.1018 Y3.7709
G01 X8.1146 Y3.6852
G01 X8.1188 Y3.6000
G01 X8.1146 Y3.5148
G01 X8.1018 Y3.4291
G01 X8.0810 Y3.3464
G01 X8.0532 Y3.2689
G01 X8.0420 Y3.2447
G00 Z2.0000
G00 X8.1525 Y3.2672
G01 F25.00
G01 Z-0.0499
G01 F100.00
G01 X8.3026 Y3.1171
G01 X8.3223 Y3.1558
G01 X8.3786 Y3.3290
G01 X8.4071 Y3.5089
G01 X8.4071 Y3.6911
G01 X8.3786 Y3.8710
G01 X8.3223 Y4.0442
G01 X8.3026 Y4.0829
G01 X8.1525 Y3.9328
G01 X8.1691 Y3.8866
G01 X8.1725 Y3.8759
G01 X8.1927 Y3.7952
G01 X8.1951 Y3.7842
G01 X8.2082 Y3.6944
G01 X8.2129 Y3.6000
G01 X8.2082 Y3.5056
G01 X8.1951 Y3.4158
G01 X8.1927 Y3.4048
G01 X8.1725 Y3.3241
G01 X8.1691 Y3.3134
G01 X8.1525 Y3.2672
G00 Z2.0000
G00 X8.2610 Y3.2918
G01 F25.00
G01 Z-0.0499
G01 F100.00
G01 X8.2660 Y3.2868
G01 X8.2869 Y3.3511
G01 X8.3130 Y3.5163
G01 X8.3130 Y3.6837
G01 X8.2869 Y3.8489
G01 X8.2660 Y3.9132
G01 X8.2610 Y3.9082
G01 X8.2647 Y3.8951
G01 X8.2840 Y3.8180
G01 X8.2867 Y3.8062
G01 X8.2887 Y3.7943
G01 X8.3012 Y3.7096
G01 X8.3028 Y3.6915
G01 X8.3067 Y3.6121
G01 X8.3070 Y3.6000
G01 X8.3067 Y3.5879
G01 X8.3028 Y3.5085
G01 X8.3019 Y3.4964
G01 X8.3004 Y3.4844
G01 X8.2887 Y3.4057
G01 X8.2867 Y3.3938
G01 X8.2840 Y3.3820
G01 X8.2647 Y3.3049
G01 X8.2610 Y3.2918
G00 Z2.0000
G00 X6.9368 Y4.6160
G01 F25.00
G01 Z-0.0499
G01 F100.00
G01 X6.9418 Y4.6110
G01 X6.9549 Y4.6147
G01 X7.0320 Y4.6340
G01 X7.0438 Y4.6367
G01 X7.0557 Y4.6387
G01 X7.1404 Y4.6512
G01 X7.1585 Y4.6528
G01 X7.2379 Y4.6567
G01 X7.2500 Y4.6570
G01 X7.2621 Y4.6567
G01 X7.3415 Y4.6528
G01 X7.3596 Y4.6512
G01 X7.4443 Y4.6387
G01 X7.4562 Y4.6367
G01 X7.4680 Y4.6340
G01 X7.5451 Y4.6147
G01 X7.5582 Y4.6110
G01 X7.5632 Y4.6160
G01 X7.4989 Y4.6369
G01 X7.3337 Y4.6630
G01 X7.1663 Y4.6630
G01 X7.0011 Y4.6369
G01 X6.9368 Y4.6160
G00 Z2.0000
G00 X6.7671 Y4.6526
G01 F25.00
G01 Z-0.0499
G01 F100.00
G01 X6.9172 Y4.5025
G01 X6.9634 Y4.5191
G01 X6.9741 Y4.5225
G01 X7.0548 Y4.5427
G01 X7.0658 Y4.5451
G01 X7.1556 Y4.5582
G01 X7.2500 Y4.5629
G01 X7.3444 Y4.5582
G01 X7.4342 Y4.5451
G01 X7.4452 Y4.5427
G01 X7.5259 Y4.5225
G01 X7.5366 Y4.5191
G01 X7.5828 Y4.5025
G01 X7.7329 Y4.6526
G01 X7.6942 Y4.6723
G01 X7.5210 Y4.7286
G01 X7.3411 Y4.7571
G01 X7.1589 Y4.7571
G01 X6.9790 Y4.7286
G01 X6.8058 Y4.6723
G01 X6.7671 Y4.6526
G00 Z2.0000
G00 X6.6090 Y4.6777
G01 F25.00
G01 Z-0.0499
G01 F100.00
G01 X6.8947 Y4.3920
G01 X6.9189 Y4.4032
G01 X6.9964 Y4.4310
G01 X7.0791 Y4.4518
G01 X7.1648 Y4.4646
G01 X7.2500 Y4.4688
G01 X7.3352 Y4.4646
G01 X7.4209 Y4.4518
G01 X7.5036 Y4.4310
G01 X7.5811 Y4.4032
G01 X7.6053 Y4.3920
G01 X7.8910 Y4.6777
G01 X7.7303 Y4.7595
G01 X7.5430 Y4.8204
G01 X7.3485 Y4.8512
G01 X7.1515 Y4.8512
G01 X6.9570 Y4.8204
G01 X6.7697 Y4.7595
G01 X6.6090 Y4.6777
G00 Z2.0000
G00 X10.7920 Y3.4332
G01 F25.00
G01 Z-0.0499
G01 F100.00
G01 X12.2094 Y3.4332
G01 X12.2181 Y3.4341
G01 X12.2264 Y3.4362
G01 X12.2344 Y3.4395
G01 X12.2419 Y3.4439
G01 X12.2485 Y3.4494
G01 X12.2544 Y3.4558
G01 X12.2592 Y3.4630
G01 X12.2634 Y3.4722
G01 X12.2659 Y3.4819
G01 X12.2668 Y3.4920
G01 X12.2668 Y4.9080
G01 X12.2659 Y4.9181
G01 X12.2634 Y4.9278
G01 X12.2592 Y4.9370
G01 X12.2535 Y4.9453
G01 X12.2475 Y4.9516
G01 X12.2395 Y4.9577
G01 X12.2318 Y4.9618
G01 X12.2223 Y4.9650
G01 X12.2138 Y4.9665
G01 X12.2080 Y4.9668
G01 X11.8089 Y4.9668
G01 X11.8089 Y6.2542
G01 X12.6425 Y5.4206
G01 X12.6639 Y5.4012
G01 X12.6893 Y5.3822
G01 X12.7128 Y5.3680
G01 X12.7401 Y5.3548
G01 X12.7454 Y5.3526
G01 X12.7713 Y5.3434
G01 X12.8007 Y5.3360
G01 X12.8307 Y5.3316
G01 X12.8595 Y5.3301
G01 X15.4390 Y5.3301
G01 X15.4693 Y5.3316
G01 X15.5021 Y5.3367
G01 X15.5287 Y5.3434
G01 X15.5546 Y5.3526
G01 X15.5821 Y5.3653
G01 X15.6107 Y5.3822
G01 X15.6372 Y5.4021
G01 X15.6575 Y5.4206
G01 X16.2195 Y5.9826
G01 X16.2388 Y6.0040
G01 X16.2569 Y6.0284
G01 X16.2724 Y6.0544
G01 X16.2842 Y6.0791
G01 X16.2947 Y6.1076
G01 X16.2964 Y6.1131
G01 X16.3030 Y6.1397
G01 X16.3076 Y6.1726
G01 X16.3089 Y6.2000
G01 X16.3089 Y8.7014
G01 X16.3074 Y8.7303
G01 X16.3030 Y8.7603
G01 X16.2956 Y8.7897
G01 X16.2854 Y8.8182
G01 X16.2724 Y8.8456
G01 X16.2569 Y8.8716
G01 X16.2388 Y8.8960
G01 X16.2204 Y8.9164
G01 X15.2174 Y9.9195
G01 X15.1960 Y9.9388
G01 X15.1692 Y9.9584
G01 X15.1456 Y9.9724
G01 X15.1209 Y9.9842
G01 X15.0911 Y9.9952
G01 X15.0631 Y10.0024
G01 X15.0574 Y10.0035
G01 X15.0303 Y10.0074
G01 X15.0000 Y10.0089
G01 X12.8753 Y10.0089
G01 X11.5589 Y11.3253
G01 X11.5589 Y11.8969
G01 X11.5896 Y11.9045
G01 X11.6155 Y11.9137
G01 X11.6208 Y11.9159
G01 X11.6481 Y11.9291
G01 X11.6716 Y11.9432
G01 X11.6959 Y11.9613
G01 X11.7184 Y11.9816
G01 X11.7387 Y12.0041
G01 X11.7568 Y12.0284
G01 X11.7709 Y12.0519
G01 X11.7841 Y12.0792
G01 X11.7863 Y12.0845
G01 X11.7955 Y12.1104
G01 X11.8029 Y12.1398
G01 X11.8073 Y12.1697
G01 X11.8087 Y12.1971
G01 X11.8088 Y17.2000
G01 X11.8073 Y17.2303
G01 X11.8029 Y17.2602
G01 X11.7955 Y17.2896
G01 X11.7853 Y17.3182
G01 X11.7723 Y17.3456
G01 X11.7568 Y17.3716
G01 X11.7387 Y17.3959
G01 X11.7203 Y17.4163
G01 X11.6981 Y17.4368
G01 X11.6936 Y17.4405
G01 X11.6716 Y17.4568
G01 X11.6430 Y17.4736
G01 X11.6182 Y17.4853
G01 X11.5896 Y17.4955
G01 X11.5602 Y17.5029
G01 X11.5274 Y17.5075
G01 X11.5000 Y17.5088
G01 X10.9986 Y17.5088
G01 X10.9697 Y17.5073
G01 X10.9426 Y17.5034
G01 X10.9369 Y17.5022
G01 X10.9090 Y17.4951
G01 X10.8818 Y17.4853
G01 X10.8570 Y17.4736
G01 X10.8284 Y17.4568
G01 X10.8041 Y17.4387
G01 X10.7837 Y17.4203
G01 X10.7613 Y17.3959
G01 X10.7432 Y17.3716
G01 X10.7291 Y17.3481
G01 X10.7147 Y17.3182
G01 X10.7037 Y17.2869
G01 X10.6971 Y17.2602
G01 X10.6927 Y17.2303
G01 X10.6912 Y17.2000
G01 X10.6913 Y12.1971
G01 X10.6927 Y12.1697
G01 X10.6971 Y12.1398
G01 X10.7045 Y12.1104
G01 X10.7137 Y12.0845
G01 X10.7159 Y12.0792
G01 X10.7291 Y12.0519
G01 X10.7432 Y12.0284
G01 X10.7613 Y12.0041
G01 X10.7816 Y11.9816
G01 X10.8041 Y11.9613
G01 X10.8284 Y11.9432
G01 X10.8519 Y11.9291
G01 X10.8792 Y11.9159
G01 X10.8845 Y11.9137
G01 X10.9104 Y11.9045
G01 X10.9411 Y11.8969
G01 X10.9411 Y11.1959
G01 X10.9426 Y11.1670
G01 X10.9470 Y11.1370
G01 X10.9544 Y11.1076
G01 X10.9641 Y11.0804
G01 X10.9776 Y11.0517
G01 X10.9931 Y11.0257
G01 X11.0112 Y11.0013
G01 X11.0316 Y10.9789
G01 X12.5289 Y9.4816
G01 X12.5536 Y9.4594
G01 X12.5757 Y9.4431
G01 X12.6017 Y9.4276
G01 X12.6291 Y9.4146
G01 X12.6604 Y9.4036
G01 X12.6870 Y9.3970
G01 X12.7142 Y9.3929
G01 X12.7459 Y9.3911
G01 X14.8720 Y9.3911
G01 X15.6911 Y8.5720
G01 X15.6911 Y6.3280
G01 X15.3111 Y5.9480
G01 X12.9889 Y5.9480
G01 X12.2143 Y6.7226
G01 X12.2338 Y6.7774
G01 X12.2514 Y6.8476
G01 X12.2526 Y6.8532
G01 X12.2631 Y6.9248
G01 X12.2667 Y6.9971
G01 X12.2667 Y7.0029
G01 X12.2631 Y7.0752
G01 X12.2521 Y7.1496
G01 X12.2338 Y7.2226
G01 X12.2095 Y7.2907
G01 X12.2073 Y7.2961
G01 X12.1763 Y7.3615
G01 X12.1376 Y7.4260
G01 X12.0945 Y7.4842
G01 X12.0909 Y7.4886
G01 X12.0412 Y7.5432
G01 X11.9865 Y7.5927
G01 X11.9284 Y7.6359
G01 X11.9236 Y7.6391
G01 X11.8640 Y7.6748
G01 X11.8589 Y7.6776
G01 X11.7934 Y7.7084
G01 X11.7226 Y7.7338
G01 X11.6496 Y7.7521
G01 X11.5780 Y7.7628
G01 X11.5723 Y7.7633
G01 X11.5029 Y7.7667
G01 X11.4971 Y7.7667
G01 X11.4248 Y7.7631
G01 X11.3504 Y7.7521
G01 X11.2774 Y7.7338
G01 X11.2093 Y7.7095
G01 X11.2039 Y7.7073
G01 X11.1411 Y7.6776
G01 X11.1360 Y7.6748
G01 X11.0764 Y7.6391
G01 X11.0716 Y7.6359
G01 X11.0135 Y7.5927
G01 X10.9599 Y7.5442
G01 X10.9558 Y7.5401
G01 X10.9073 Y7.4865
G01 X10.8624 Y7.4260
G01 X10.8252 Y7.3640
G01 X10.8224 Y7.3589
G01 X10.7916 Y7.2934
G01 X10.7671 Y7.2253
G01 X10.7654 Y7.2198
G01 X10.7479 Y7.1496
G01 X10.7368 Y7.0737
G01 X10.7332 Y7.0000
G01 X10.7367 Y6.9277
G01 X10.7372 Y6.9220
G01 X10.7479 Y6.8504
G01 X10.7662 Y6.7774
G01 X10.7905 Y6.7093
G01 X10.7927 Y6.7039
G01 X10.8224 Y6.6411
G01 X10.8252 Y6.6360
G01 X10.8624 Y6.5740
G01 X10.9055 Y6.5158
G01 X10.9091 Y6.5114
G01 X10.9558 Y6.4599
G01 X10.9599 Y6.4558
G01 X11.0135 Y6.4073
G01 X11.0740 Y6.3624
G01 X11.1385 Y6.3237
G01 X11.1911 Y6.2988
G01 X11.1911 Y4.9668
G01 X10.7920 Y4.9668
G01 X10.7862 Y4.9665
G01 X10.7763 Y4.9647
G01 X10.7682 Y4.9618
G01 X10.7593 Y4.9569
G01 X10.7515 Y4.9506
G01 X10.7456 Y4.9442
G01 X10.7401 Y4.9357
G01 X10.7362 Y4.9264
G01 X10.7338 Y4.9166
G01 X10.7332 Y4.9080
G01 X10.7333 Y3.4891
G01 X10.7346 Y3.4791
G01 X10.7362 Y3.4736
G01 X10.7382 Y3.4682
G01 X10.7408 Y3.4630
G01 X10.7439 Y3.4581
G01 X10.7475 Y3.4536
G01 X10.7515 Y3.4494
G01 X10.7558 Y3.4456
G01 X10.7605 Y3.4423
G01 X10.7656 Y3.4395
G01 X10.7708 Y3.4371
G01 X10.7805 Y3.4343
G01 X10.7862 Y3.4335
G01 X10.7920 Y3.4332
G00 Z2.0000
G00 X10.7920 Y3.3391
G01 F25.00
G01 Z-0.0499
G01 F100.00
G01 X12.2155 Y3.3393
G01 X12.2267 Y3.3403
G01 X12.2378 Y3.3421
G01 X12.2488 Y3.3447
G01 X12.2595 Y3.3481
G01 X12.2700 Y3.3522
G01 X12.2801 Y3.3572
G01 X12.2898 Y3.3628
G01 X12.2960 Y3.3670
G01 X12.3021 Y3.3715
G01 X12.3107 Y3.3787
G01 X12.3187 Y3.3866
G01 X12.3262 Y3.3950
G01 X12.3330 Y3.4040
G01 X12.3391 Y3.4134
G01 X12.3446 Y3.4233
G01 X12.3492 Y3.4335
G01 X12.3543 Y3.4476
G01 X12.3579 Y3.4622
G01 X12.3601 Y3.4770
G01 X12.3609 Y3.4920
G01 X12.3609 Y4.9080
G01 X12.3605 Y4.9192
G01 X12.3586 Y4.9341
G01 X12.3572 Y4.9415
G01 X12.3543 Y4.9524
G01 X12.3506 Y4.9630
G01 X12.3462 Y4.9734
G01 X12.3410 Y4.9834
G01 X12.3351 Y4.9929
G01 X12.3285 Y5.0021
G01 X12.3213 Y5.0107
G01 X12.3134 Y5.0187
G01 X12.3050 Y5.0262
G01 X12.2960 Y5.0330
G01 X12.2866 Y5.0391
G01 X12.2767 Y5.0446
G01 X12.2665 Y5.0492
G01 X12.2560 Y5.0532
G01 X12.2488 Y5.0553
G01 X12.2415 Y5.0572
G01 X12.2304 Y5.0592
G01 X12.2230 Y5.0601
G01 X12.2118 Y5.0608
G01 X11.9030 Y5.0609
G01 X11.9030 Y6.0271
G01 X12.5760 Y5.3541
G01 X12.5996 Y5.3324
G01 X12.6112 Y5.3229
G01 X12.6371 Y5.3039
G01 X12.6645 Y5.2873
G01 X12.6743 Y5.2819
G01 X12.7033 Y5.2682
G01 X12.7137 Y5.2640
G01 X12.7440 Y5.2534
G01 X12.7787 Y5.2445
G01 X12.7897 Y5.2425
G01 X12.8215 Y5.2380
G01 X12.8610 Y5.2360
G01 X15.4428 Y5.2361
G01 X15.4785 Y5.2380
G01 X15.5177 Y5.2438
G01 X15.5560 Y5.2534
G01 X15.5933 Y5.2667
G01 X15.6290 Y5.2836
G01 X15.6629 Y5.3039
G01 X15.6947 Y5.3275
G01 X15.7213 Y5.3514
G01 X16.2850 Y5.9150
G01 X16.3115 Y5.9443
G01 X16.3308 Y5.9700
G01 X16.3391 Y5.9824
G01 X16.3554 Y6.0100
G01 X16.3723 Y6.0458
G01 X16.3857 Y6.0830
G01 X16.3936 Y6.1141
G01 X16.3965 Y6.1288
G01 X16.4007 Y6.1568
G01 X16.4016 Y6.1680
G01 X16.4030 Y6.2000
G01 X16.4028 Y8.7075
G01 X16.4011 Y8.7395
G01 X16.3953 Y8.7786
G01 X16.3857 Y8.8170
G01 X16.3723 Y8.8542
G01 X16.3554 Y8.8900
G01 X16.3351 Y8.9239
G01 X16.3115 Y8.9557
G01 X16.2901 Y8.9795
G01 X15.2823 Y9.9876
G01 X15.2613 Y10.0066
G01 X15.2527 Y10.0139
G01 X15.2270 Y10.0330
G01 X15.2176 Y10.0391
G01 X15.1900 Y10.0554
G01 X15.1611 Y10.0693
G01 X15.1507 Y10.0737
G01 X15.1206 Y10.0845
G01 X15.1098 Y10.0877
G01 X15.0859 Y10.0936
G01 X15.0712 Y10.0965
G01 X15.0395 Y10.1011
G01 X15.0000 Y10.1030
G01 X12.9142 Y10.1030
G01 X11.6530 Y11.3642
G01 X11.6530 Y11.8273
G01 X11.6832 Y11.8413
G01 X11.6964 Y11.8484
G01 X11.7238 Y11.8650
G01 X11.7556 Y11.8886
G01 X11.7794 Y11.9099
G01 X11.7901 Y11.9206
G01 X11.8114 Y11.9444
G01 X11.8350 Y11.9762
G01 X11.8553 Y12.0101
G01 X11.8692 Y12.0390
G01 X11.8749 Y12.0528
G01 X11.8855 Y12.0831
G01 X11.8935 Y12.1141
G01 X11.8964 Y12.1288
G01 X11.9009 Y12.1605
G01 X11.9027 Y12.1925
G01 X11.9028 Y17.2038
G01 X11.9009 Y17.2395
G01 X11.8951 Y17.2786
G01 X11.8855 Y17.3169
G01 X11.8722 Y17.3542
G01 X11.8553 Y17.3899
G01 X11.8350 Y17.4238
G01 X11.8114 Y17.4556
G01 X11.7875 Y17.4822
G01 X11.7794 Y17.4901
G01 X11.7556 Y17.5114
G01 X11.7269 Y17.5329
G01 X11.7175 Y17.5390
G01 X11.6932 Y17.5535
G01 X11.6832 Y17.5587
G01 X11.6610 Y17.5692
G01 X11.6507 Y17.5736
G01 X11.6241 Y17.5832
G01 X11.6097 Y17.5875
G01 X11.5859 Y17.5935
G01 X11.5749 Y17.5958
G01 X11.5432 Y17.6005
G01 X11.5320 Y17.6015
G01 X11.5000 Y17.6029
G01 X10.9925 Y17.6027
G01 X10.9605 Y17.6009
G01 X10.9214 Y17.5951
G01 X10.8831 Y17.5855
G01 X10.8493 Y17.5736
G01 X10.8390 Y17.5692
G01 X10.8168 Y17.5587
G01 X10.8068 Y17.5535
G01 X10.7762 Y17.5350
G01 X10.7503 Y17.5160
G01 X10.7387 Y17.5065
G01 X10.7151 Y17.4849
G01 X10.6935 Y17.4613
G01 X10.6840 Y17.4497
G01 X10.6650 Y17.4238
G01 X10.6484 Y17.3964
G01 X10.6413 Y17.3832
G01 X10.6278 Y17.3542
G01 X10.6168 Y17.3241
G01 X10.6125 Y17.3097
G01 X10.6049 Y17.2786
G01 X10.5991 Y17.2395
G01 X10.5971 Y17.2000
G01 X10.5973 Y12.1925
G01 X10.5991 Y12.1605
G01 X10.6036 Y12.1288
G01 X10.6065 Y12.1141
G01 X10.6145 Y12.0831
G01 X10.6251 Y12.0528
G01 X10.6308 Y12.0390
G01 X10.6447 Y12.0101
G01 X10.6650 Y11.9762
G01 X10.6886 Y11.9444
G01 X10.7099 Y11.9206
G01 X10.7206 Y11.9099
G01 X10.7444 Y11.8886
G01 X10.7762 Y11.8650
G01 X10.8036 Y11.8484
G01 X10.8168 Y11.8413
G01 X10.8470 Y11.8273
G01 X10.8470 Y11.1936
G01 X10.8489 Y11.1578
G01 X10.8547 Y11.1187
G01 X10.8643 Y11.0803
G01 X10.8750 Y11.0501
G01 X10.8807 Y11.0362
G01 X10.8946 Y11.0073
G01 X10.9149 Y10.9734
G01 X10.9385 Y10.9416
G01 X10.9650 Y10.9123
G01 X12.4650 Y9.4124
G01 X12.4916 Y9.3885
G01 X12.5234 Y9.3649
G01 X12.5573 Y9.3446
G01 X12.5896 Y9.3292
G01 X12.6001 Y9.3250
G01 X12.6303 Y9.3143
G01 X12.6687 Y9.3047
G01 X12.7078 Y9.2989
G01 X12.7436 Y9.2970
G01 X14.8331 Y9.2970
G01 X15.5970 Y8.5331
G01 X15.5970 Y6.3669
G01 X15.2721 Y6.0420
G01 X13.0279 Y6.0420
G01 X12.3229 Y6.7471
G01 X12.3258 Y6.7573
G01 X12.3427 Y6.8247
G01 X12.3456 Y6.8394
G01 X12.3567 Y6.9156
G01 X12.3609 Y7.0000
G01 X12.3573 Y7.0769
G01 X12.3558 Y7.0918
G01 X12.3443 Y7.1679
G01 X12.3238 Y7.2499
G01 X12.2980 Y7.3224
G01 X12.2923 Y7.3363
G01 X12.2592 Y7.4058
G01 X12.2158 Y7.4783
G01 X12.1655 Y7.5461
G01 X12.1139 Y7.6033
G01 X12.1033 Y7.6139
G01 X12.0461 Y7.6655
G01 X11.9844 Y7.7115
G01 X11.9719 Y7.7198
G01 X11.9058 Y7.7592
G01 X11.8294 Y7.7953
G01 X11.7499 Y7.8238
G01 X11.6753 Y7.8427
G01 X11.6606 Y7.8456
G01 X11.5918 Y7.8558
G01 X11.5769 Y7.8573
G01 X11.5000 Y7.8609
G01 X11.4156 Y7.8567
G01 X11.3321 Y7.8443
G01 X11.2573 Y7.8258
G01 X11.2430 Y7.8215
G01 X11.1776 Y7.7980
G01 X11.1637 Y7.7923
G01 X11.0942 Y7.7592
G01 X11.0249 Y7.7178
G01 X11.0156 Y7.7115
G01 X10.9539 Y7.6655
G01 X10.8967 Y7.6139
G01 X10.8861 Y7.6033
G01 X10.8345 Y7.5461
G01 X10.7885 Y7.4844
G01 X10.7802 Y7.4719
G01 X10.7445 Y7.4123
G01 X10.7374 Y7.3991
G01 X10.7047 Y7.3294
G01 X10.6762 Y7.2499
G01 X10.6557 Y7.1679
G01 X10.6442 Y7.0918
G01 X10.6427 Y7.0769
G01 X10.6391 Y7.0000
G01 X10.6427 Y6.9231
G01 X10.6442 Y6.9082
G01 X10.6557 Y6.8321
G01 X10.6762 Y6.7501
G01 X10.7020 Y6.6776
G01 X10.7077 Y6.6637
G01 X10.7408 Y6.5942
G01 X10.7802 Y6.5281
G01 X10.7885 Y6.5156
G01 X10.8345 Y6.4539
G01 X10.8913 Y6.3913
G01 X10.9539 Y6.3345
G01 X11.0156 Y6.2885
G01 X11.0281 Y6.2802
G01 X11.0877 Y6.2445
G01 X11.0970 Y6.2393
G01 X11.0970 Y5.0609
G01 X10.7882 Y5.0608
G01 X10.7770 Y5.0601
G01 X10.7659 Y5.0586
G01 X10.7549 Y5.0563
G01 X10.7476 Y5.0543
G01 X10.7370 Y5.0506
G01 X10.7266 Y5.0462
G01 X10.7166 Y5.0410
G01 X10.7071 Y5.0351
G01 X10.6979 Y5.0285
G01 X10.6893 Y5.0213
G01 X10.6813 Y5.0134
G01 X10.6738 Y5.0050
G01 X10.6670 Y4.9960
G01 X10.6609 Y4.9866
G01 X10.6554 Y4.9767
G01 X10.6508 Y4.9665
G01 X10.6468 Y4.9560
G01 X10.6437 Y4.9451
G01 X10.6414 Y4.9341
G01 X10.6399 Y4.9230
G01 X10.6391 Y4.9080
G01 X10.6391 Y3.4920
G01 X10.6399 Y3.4770
G01 X10.6414 Y3.4659
G01 X10.6447 Y3.4512
G01 X10.6494 Y3.4370
G01 X10.6554 Y3.4233
G01 X10.6628 Y3.4102
G01 X10.6692 Y3.4009
G01 X10.6787 Y3.3893
G01 X10.6893 Y3.3787
G01 X10.7009 Y3.3692
G01 X10.7134 Y3.3609
G01 X10.7266 Y3.3538
G01 X10.7370 Y3.3494
G01 X10.7476 Y3.3457
G01 X10.7622 Y3.3421
G01 X10.7770 Y3.3399
G01 X10.7920 Y3.3391
G00 Z2.0000
G00 X12.7628 Y4.2011
G01 F25.00
G01 Z-0.0499
G01 F100.00
G01 X12.7634 Y4.2260
G01 X12.7668 Y4.2954
G01 X12.7688 Y4.3213
G01 X12.7719 Y4.3470
G01 X12.7821 Y4.4158
G01 X12.7842 Y4.4286
G01 X12.7893 Y4.4541
G01 X12.8091 Y4.5341
G01 X12.8161 Y4.5591
G01 X12.8242 Y4.5838
G01 X12.8522 Y4.6614
G01 X12.8570 Y4.6735
G01 X12.8675 Y4.6972
G01 X12.8972 Y4.7600
G01 X12.9089 Y4.7832
G01 X12.9217 Y4.8058
G01 X12.9540 Y4.8597
G01 X12.8610 Y4.8597
G01 X12.8350 Y4.8603
G01 X12.7975 Y4.8623
G01 X12.7846 Y4.8635
G01 X12.7717 Y4.8649
G01 X12.7372 Y4.8698
G01 X12.7372 Y4.1974
G01 X12.7628 Y4.2011
G00 Z2.0000
G00 X12.8606 Y4.1140
G01 F25.00
G01 Z-0.0499
G01 F100.00
G01 X12.8574 Y4.1786
G01 X12.8569 Y4.2000
G01 X12.8570 Y4.2107
G01 X12.8608 Y4.2907
G01 X12.8615 Y4.3014
G01 X12.8636 Y4.3227
G01 X12.8752 Y4.4020
G01 X12.8788 Y4.4230
G01 X12.8835 Y4.4438
G01 X12.9004 Y4.5112
G01 X12.9061 Y4.5318
G01 X12.9093 Y4.5420
G01 X12.9362 Y4.6175
G01 X12.9439 Y4.6375
G01 X12.9525 Y4.6570
G01 X12.9823 Y4.7198
G01 X12.9919 Y4.7389
G01 X12.9970 Y4.7482
G01 X13.0381 Y4.8170
G01 X13.0437 Y4.8261
G01 X13.0556 Y4.8439
G01 X13.1097 Y4.9168
G01 X13.1232 Y4.9334
G01 X13.1416 Y4.9538
G01 X12.8610 Y4.9538
G01 X12.8396 Y4.9543
G01 X12.8044 Y4.9562
G01 X12.7832 Y4.9583
G01 X12.7483 Y4.9633
G01 X12.7273 Y4.9669
G01 X12.7168 Y4.9692
G01 X12.6723 Y4.9803
G01 X12.6519 Y4.9865
G01 X12.6348 Y4.9925
G01 X12.6384 Y4.9718
G01 X12.6410 Y4.9506
G01 X12.6426 Y4.9294
G01 X12.6431 Y4.9080
G01 X12.6431 Y4.0817
G01 X12.6558 Y4.0858
G01 X12.6767 Y4.0915
G01 X12.6978 Y4.0961
G01 X12.7191 Y4.0997
G01 X12.7882 Y4.1097
G01 X12.8097 Y4.1122
G01 X12.8312 Y4.1137
G01 X12.8606 Y4.1140
G00 Z2.0000
G00 X12.9706 Y3.9980
G01 F25.00
G01 Z-0.0499
G01 F100.00
G01 X12.9683 Y4.0118
G01 X12.9581 Y4.0806
G01 X12.9560 Y4.0972
G01 X12.9548 Y4.1139
G01 X12.9514 Y4.1833
G01 X12.9510 Y4.2000
G01 X12.9514 Y4.2167
G01 X12.9548 Y4.2861
G01 X12.9560 Y4.3028
G01 X12.9581 Y4.3194
G01 X12.9683 Y4.3882
G01 X12.9711 Y4.4047
G01 X12.9748 Y4.4210
G01 X12.9917 Y4.4884
G01 X12.9961 Y4.5045
G01 X13.0014 Y4.5204
G01 X13.0277 Y4.5937
G01 X13.0376 Y4.6168
G01 X13.0673 Y4.6796
G01 X13.0748 Y4.6945
G01 X13.0831 Y4.7091
G01 X13.1188 Y4.7687
G01 X13.1278 Y4.7828
G01 X13.1374 Y4.7965
G01 X13.1839 Y4.8590
G01 X13.2000 Y4.8782
G01 X13.2467 Y4.9297
G01 X13.2642 Y4.9476
G01 X13.3218 Y5.0000
G01 X13.3345 Y5.0109
G01 X13.3477 Y5.0212
G01 X13.3836 Y5.0479
G01 X12.8610 Y5.0479
G01 X12.8197 Y5.0495
G01 X12.8030 Y5.0507
G01 X12.7864 Y5.0528
G01 X12.7539 Y5.0577
G01 X12.7375 Y5.0610
G01 X12.7055 Y5.0689
G01 X12.6894 Y5.0733
G01 X12.6504 Y5.0868
G01 X12.6347 Y5.0929
G01 X12.6194 Y5.0996
G01 X12.5897 Y5.1138
G01 X12.5750 Y5.1217
G01 X12.5467 Y5.1385
G01 X12.5325 Y5.1475
G01 X12.5189 Y5.1571
G01 X12.4925 Y5.1768
G01 X12.4795 Y5.1874
G01 X12.4551 Y5.2095
G01 X12.4430 Y5.2210
G01 X12.0912 Y5.5728
G01 X12.0912 Y5.2490
G01 X12.2164 Y5.2489
G01 X12.2331 Y5.2481
G01 X12.2580 Y5.2453
G01 X12.2827 Y5.2408
G01 X12.2990 Y5.2367
G01 X12.3150 Y5.2318
G01 X12.3307 Y5.2262
G01 X12.3462 Y5.2198
G01 X12.3613 Y5.2126
G01 X12.3761 Y5.2047
G01 X12.3905 Y5.1961
G01 X12.4044 Y5.1868
G01 X12.4178 Y5.1769
G01 X12.4308 Y5.1662
G01 X12.4432 Y5.1550
G01 X12.4550 Y5.1432
G01 X12.4662 Y5.1308
G01 X12.4769 Y5.1178
G01 X12.4868 Y5.1044
G01 X12.4961 Y5.0905
G01 X12.5047 Y5.0761
G01 X12.5126 Y5.0613
G01 X12.5198 Y5.0462
G01 X12.5262 Y5.0307
G01 X12.5318 Y5.0150
G01 X12.5367 Y4.9990
G01 X12.5425 Y4.9745
G01 X12.5465 Y4.9497
G01 X12.5481 Y4.9331
G01 X12.5490 Y4.9080
G01 X12.5490 Y3.9193
G01 X12.5641 Y3.9323
G01 X12.5843 Y3.9477
G01 X12.6056 Y3.9615
G01 X12.6279 Y3.9738
G01 X12.6432 Y3.9810
G01 X12.6668 Y3.9904
G01 X12.6910 Y3.9980
G01 X12.7157 Y4.0038
G01 X12.7324 Y4.0066
G01 X12.8100 Y4.0177
G01 X12.8353 Y4.0197
G01 X12.8607 Y4.0199
G01 X12.8861 Y4.0181
G01 X12.9029 Y4.0159
G01 X12.9195 Y4.0129
G01 X12.9442 Y4.0068
G01 X12.9603 Y4.0017
G01 X12.9706 Y3.9980
G00 Z2.0000
G00 X14.2774 Y3.4857
G01 F25.00
G01 Z-0.0499
G01 F100.00
G01 X14.6066 Y3.1566
G01 X14.6290 Y3.1362
G01 X14.6558 Y3.1166
G01 X14.6794 Y3.1026
G01 X14.7068 Y3.0896
G01 X14.7381 Y3.0786
G01 X14.7647 Y3.0720
G01 X14.7947 Y3.0676
G01 X14.8250 Y3.0661
G01 X16.9905 Y3.0661
G01 X16.9975 Y3.0517
G01 X17.0090 Y3.0324
G01 X17.0240 Y3.0119
G01 X17.0420 Y2.9920
G01 X17.0619 Y2.9740
G01 X17.0837 Y2.9583
G01 X17.1030 Y2.9468
G01 X17.1233 Y2.9371
G01 X17.1499 Y2.9273
G01 X17.1745 Y2.9212
G01 X17.1996 Y2.9174
G01 X17.2250 Y2.9162
G01 X17.7764 Y2.9162
G01 X17.8004 Y2.9174
G01 X17.8255 Y2.9212
G01 X17.8501 Y2.9273
G01 X17.8740 Y2.9359
G01 X17.8970 Y2.9468
G01 X17.9188 Y2.9598
G01 X17.9392 Y2.9749
G01 X17.9559 Y2.9900
G01 X17.9600 Y2.9941
G01 X17.9768 Y3.0131
G01 X17.9902 Y3.0312
G01 X18.0045 Y3.0556
G01 X18.0141 Y3.0760
G01 X18.0227 Y3.0999
G01 X18.0288 Y3.1245
G01 X18.0326 Y3.1496
G01 X18.0338 Y3.1750
G01 X18.0338 Y3.5764
G01 X18.0326 Y3.6004
G01 X18.0293 Y3.6226
G01 X18.0227 Y3.6501
G01 X18.0129 Y3.6767
G01 X18.0032 Y3.6970
G01 X17.9902 Y3.7188
G01 X17.9732 Y3.7414
G01 X17.9580 Y3.7580
G01 X17.9414 Y3.7732
G01 X17.9188 Y3.7902
G01 X17.8944 Y3.8045
G01 X17.8740 Y3.8141
G01 X17.8529 Y3.8218
G01 X17.8473 Y3.8234
G01 X17.8241 Y3.8291
G01 X17.8004 Y3.8326
G01 X17.7750 Y3.8338
G01 X17.2250 Y3.8338
G01 X17.1996 Y3.8326
G01 X17.1759 Y3.8291
G01 X17.1499 Y3.8227
G01 X17.1233 Y3.8129
G01 X17.1030 Y3.8032
G01 X17.0837 Y3.7917
G01 X17.0619 Y3.7760
G01 X17.0420 Y3.7580
G01 X17.0240 Y3.7381
G01 X17.0090 Y3.7176
G01 X16.9975 Y3.6983
G01 X16.9905 Y3.6839
G01 X14.9530 Y3.6839
G01 X14.7143 Y3.9226
G01 X14.7338 Y3.9774
G01 X14.7514 Y4.0476
G01 X14.7526 Y4.0532
G01 X14.7631 Y4.1248
G01 X14.7667 Y4.1971
G01 X14.7667 Y4.2029
G01 X14.7631 Y4.2752
G01 X14.7521 Y4.3496
G01 X14.7338 Y4.4226
G01 X14.7095 Y4.4907
G01 X14.7073 Y4.4961
G01 X14.6763 Y4.5615
G01 X14.6391 Y4.6236
G01 X14.6359 Y4.6284
G01 X14.5927 Y4.6865
G01 X14.5422 Y4.7422
G01 X14.4865 Y4.7927
G01 X14.4284 Y4.8359
G01 X14.4236 Y4.8391
G01 X14.3615 Y4.8763
G01 X14.2934 Y4.9084
G01 X14.2253 Y4.9329
G01 X14.2198 Y4.9346
G01 X14.1496 Y4.9521
G01 X14.0752 Y4.9631
G01 X14.0029 Y4.9667
G01 X13.9971 Y4.9667
G01 X13.9248 Y4.9631
G01 X13.8504 Y4.9521
G01 X13.7802 Y4.9346
G01 X13.7747 Y4.9329
G01 X13.7066 Y4.9084
G01 X13.6385 Y4.8763
G01 X13.5740 Y4.8376
G01 X13.5135 Y4.7927
G01 X13.4578 Y4.7422
G01 X13.4073 Y4.6865
G01 X13.3624 Y4.6260
G01 X13.3237 Y4.5615
G01 X13.2916 Y4.4934
G01 X13.2662 Y4.4226
G01 X13.2479 Y4.3496
G01 X13.2369 Y4.2752
G01 X13.2332 Y4.2000
G01 X13.2369 Y4.1248
G01 X13.2479 Y4.0504
G01 X13.2662 Y3.9774
G01 X13.2916 Y3.9066
G01 X13.3237 Y3.8385
G01 X13.3624 Y3.7740
G01 X13.4073 Y3.7135
G01 X13.4578 Y3.6578
G01 X13.5135 Y3.6073
G01 X13.5740 Y3.5624
G01 X13.6385 Y3.5237
G01 X13.7066 Y3.4916
G01 X13.7774 Y3.4662
G01 X13.8504 Y3.4479
G01 X13.9248 Y3.4369
G01 X14.0000 Y3.4332
G01 X14.0752 Y3.4369
G01 X14.1496 Y3.4479
G01 X14.2226 Y3.4662
G01 X14.2774 Y3.4857
G00 Z2.0000
G00 X14.2529 Y3.3771
G01 F25.00
G01 Z-0.0499
G01 F100.00
G01 X14.5400 Y3.0900
G01 X14.5693 Y3.0635
G01 X14.5950 Y3.0442
G01 X14.6074 Y3.0359
G01 X14.6350 Y3.0196
G01 X14.6639 Y3.0057
G01 X14.6778 Y3.0000
G01 X14.7080 Y2.9893
G01 X14.7464 Y2.9797
G01 X14.7855 Y2.9739
G01 X14.8250 Y2.9720
G01 X16.9365 Y2.9720
G01 X16.9522 Y2.9511
G01 X16.9703 Y2.9309
G01 X16.9782 Y2.9229
G01 X16.9955 Y2.9071
G01 X17.0041 Y2.8999
G01 X17.0259 Y2.8837
G01 X17.0353 Y2.8776
G01 X17.0554 Y2.8656
G01 X17.0654 Y2.8604
G01 X17.0900 Y2.8490
G01 X17.1226 Y2.8373
G01 X17.1562 Y2.8289
G01 X17.1867 Y2.8242
G01 X17.1979 Y2.8233
G01 X17.2250 Y2.8221
G01 X17.7788 Y2.8222
G01 X17.8096 Y2.8238
G01 X17.8402 Y2.8282
G01 X17.8475 Y2.8297
G01 X17.8702 Y2.8353
G01 X17.8846 Y2.8397
G01 X17.9100 Y2.8490
G01 X17.9380 Y2.8621
G01 X17.9479 Y2.8675
G01 X17.9679 Y2.8795
G01 X17.9741 Y2.8837
G01 X17.9989 Y2.9022
G01 X18.0191 Y2.9203
G01 X18.0297 Y2.9309
G01 X18.0454 Y2.9483
G01 X18.0501 Y2.9541
G01 X18.0684 Y2.9790
G01 X18.0825 Y3.0021
G01 X18.0896 Y3.0154
G01 X18.0995 Y3.0365
G01 X18.1024 Y3.0434
G01 X18.1127 Y3.0726
G01 X18.1203 Y3.1025
G01 X18.1218 Y3.1098
G01 X18.1253 Y3.1330
G01 X18.1267 Y3.1479
G01 X18.1279 Y3.1750
G01 X18.1277 Y3.5825
G01 X18.1262 Y3.6096
G01 X18.1211 Y3.6438
G01 X18.1127 Y3.6774
G01 X18.1037 Y3.7030
G01 X18.0995 Y3.7135
G01 X18.0862 Y3.7413
G01 X18.0705 Y3.7679
G01 X18.0641 Y3.7772
G01 X18.0478 Y3.7989
G01 X18.0297 Y3.8191
G01 X18.0218 Y3.8271
G01 X17.9989 Y3.8478
G01 X17.9741 Y3.8663
G01 X17.9647 Y3.8724
G01 X17.9413 Y3.8862
G01 X17.9169 Y3.8980
G01 X17.9066 Y3.9024
G01 X17.8774 Y3.9127
G01 X17.8438 Y3.9211
G01 X17.8096 Y3.9262
G01 X17.7750 Y3.9279
G01 X17.2250 Y3.9279
G01 X17.1904 Y3.9262
G01 X17.1635 Y3.9224
G01 X17.1525 Y3.9203
G01 X17.1262 Y3.9137
G01 X17.1154 Y3.9103
G01 X17.0934 Y3.9024
G01 X17.0831 Y3.8980
G01 X17.0587 Y3.8862
G01 X17.0321 Y3.8705
G01 X17.0228 Y3.8641
G01 X17.0011 Y3.8478
G01 X16.9782 Y3.8271
G01 X16.9703 Y3.8191
G01 X16.9546 Y3.8017
G01 X16.9499 Y3.7959
G01 X16.9365 Y3.7780
G01 X14.9919 Y3.7780
G01 X14.8229 Y3.9471
G01 X14.8258 Y3.9573
G01 X14.8427 Y4.0247
G01 X14.8456 Y4.0394
G01 X14.8567 Y4.1156
G01 X14.8607 Y4.1925
G01 X14.8607 Y4.2075
G01 X14.8567 Y4.2844
G01 X14.8456 Y4.3606
G01 X14.8427 Y4.3753
G01 X14.8238 Y4.4499
G01 X14.7980 Y4.5224
G01 X14.7923 Y4.5363
G01 X14.7592 Y4.6058
G01 X14.7198 Y4.6719
G01 X14.7115 Y4.6844
G01 X14.6655 Y4.7461
G01 X14.6087 Y4.8087
G01 X14.5518 Y4.8606
G01 X14.5402 Y4.8701
G01 X14.4783 Y4.9158
G01 X14.4123 Y4.9555
G01 X14.3991 Y4.9626
G01 X14.3294 Y4.9953
G01 X14.2570 Y5.0215
G01 X14.2427 Y5.0258
G01 X14.1679 Y5.0443
G01 X14.0918 Y5.0558
G01 X14.0769 Y5.0573
G01 X14.0000 Y5.0609
G01 X13.9231 Y5.0573
G01 X13.9082 Y5.0558
G01 X13.8321 Y5.0443
G01 X13.7501 Y5.0238
G01 X13.6706 Y4.9953
G01 X13.5942 Y4.9592
G01 X13.5217 Y4.9158
G01 X13.4539 Y4.8655
G01 X13.3913 Y4.8087
G01 X13.3345 Y4.7461
G01 X13.2842 Y4.6783
G01 X13.2408 Y4.6058
G01 X13.2047 Y4.5294
G01 X13.1762 Y4.4499
G01 X13.1557 Y4.3679
G01 X13.1433 Y4.2844
G01 X13.1391 Y4.2000
G01 X13.1433 Y4.1156
G01 X13.1557 Y4.0321
G01 X13.1762 Y3.9501
G01 X13.2047 Y3.8706
G01 X13.2408 Y3.7942
G01 X13.2842 Y3.7217
G01 X13.3345 Y3.6539
G01 X13.3913 Y3.5913
G01 X13.4539 Y3.5345
G01 X13.5217 Y3.4842
G01 X13.5942 Y3.4408
G01 X13.6706 Y3.4047
G01 X13.7501 Y3.3762
G01 X13.8321 Y3.3557
G01 X13.9156 Y3.3433
G01 X14.0000 Y3.3391
G01 X14.0844 Y3.3433
G01 X14.1679 Y3.3557
G01 X14.2427 Y3.3742
G01 X14.2529 Y3.3771
G00 Z2.0000
G00 X14.2244 Y3.2726
G01 F25.00
G01 Z-0.0499
G01 F100.00
G01 X14.4778 Y3.0193
G01 X14.5097 Y2.9907
G01 X14.5438 Y2.9651
G01 X14.5591 Y2.9552
G01 X14.5907 Y2.9366
G01 X14.6292 Y2.9181
G01 X14.6461 Y2.9114
G01 X14.6807 Y2.8993
G01 X14.7221 Y2.8887
G01 X14.7400 Y2.8854
G01 X14.7703 Y2.8810
G01 X14.7823 Y2.8798
G01 X14.8250 Y2.8779
G01 X16.8914 Y2.8779
G01 X16.9047 Y2.8633
G01 X16.9133 Y2.8547
G01 X16.9415 Y2.8295
G01 X16.9668 Y2.8103
G01 X16.9767 Y2.8034
G01 X17.0090 Y2.7837
G01 X17.0197 Y2.7780
G01 X17.0429 Y2.7670
G01 X17.0540 Y2.7621
G01 X17.0653 Y2.7577
G01 X17.0895 Y2.7491
G01 X17.1011 Y2.7456
G01 X17.1319 Y2.7379
G01 X17.1438 Y2.7355
G01 X17.1812 Y2.7302
G01 X17.2129 Y2.7283
G01 X17.2250 Y2.7280
G01 X17.7750 Y2.7280
G01 X17.7871 Y2.7283
G01 X17.8188 Y2.7302
G01 X17.8562 Y2.7355
G01 X17.8681 Y2.7379
G01 X17.8931 Y2.7441
G01 X17.9105 Y2.7491
G01 X17.9460 Y2.7621
G01 X17.9803 Y2.7780
G01 X17.9910 Y2.7837
G01 X18.0131 Y2.7969
G01 X18.0283 Y2.8068
G01 X18.0585 Y2.8295
G01 X18.0867 Y2.8547
G01 X18.0994 Y2.8677
G01 X18.1166 Y2.8868
G01 X18.1243 Y2.8962
G01 X18.1466 Y2.9267
G01 X18.1663 Y2.9590
G01 X18.1746 Y2.9751
G01 X18.1855 Y2.9984
G01 X18.1902 Y3.0096
G01 X18.2027 Y3.0453
G01 X18.2059 Y3.0569
G01 X18.2134 Y3.0878
G01 X18.2154 Y3.0997
G01 X18.2198 Y3.1312
G01 X18.2219 Y3.1689
G01 X18.2219 Y3.5811
G01 X18.2203 Y3.6128
G01 X18.2191 Y3.6248
G01 X18.2145 Y3.6562
G01 X18.2121 Y3.6681
G01 X18.2044 Y3.6989
G01 X18.2009 Y3.7105
G01 X18.1902 Y3.7404
G01 X18.1830 Y3.7571
G01 X18.1692 Y3.7857
G01 X18.1531 Y3.8131
G01 X18.1432 Y3.8283
G01 X18.1280 Y3.8490
G01 X18.1166 Y3.8632
G01 X18.0953 Y3.8867
G01 X18.0867 Y3.8953
G01 X18.0632 Y3.9166
G01 X18.0490 Y3.9280
G01 X18.0233 Y3.9466
G01 X17.9962 Y3.9632
G01 X17.9857 Y3.9692
G01 X17.9571 Y3.9830
G01 X17.9460 Y3.9879
G01 X17.9347 Y3.9923
G01 X17.9047 Y4.0027
G01 X17.8931 Y4.0059
G01 X17.8622 Y4.0134
G01 X17.8308 Y4.0183
G01 X17.8128 Y4.0203
G01 X17.7750 Y4.0220
G01 X17.2189 Y4.0219
G01 X17.1872 Y4.0203
G01 X17.1752 Y4.0191
G01 X17.1438 Y4.0145
G01 X17.1319 Y4.0121
G01 X17.1011 Y4.0044
G01 X17.0895 Y4.0009
G01 X17.0596 Y3.9902
G01 X17.0484 Y3.9855
G01 X17.0197 Y3.9720
G01 X17.0090 Y3.9663
G01 X16.9818 Y3.9499
G01 X16.9717 Y3.9432
G01 X16.9462 Y3.9243
G01 X16.9323 Y3.9126
G01 X16.9090 Y3.8910
G01 X16.8914 Y3.8721
G01 X15.0309 Y3.8721
G01 X14.9274 Y3.9756
G01 X14.9354 Y4.0078
G01 X14.9377 Y4.0197
G01 X14.9497 Y4.1004
G01 X14.9513 Y4.1185
G01 X14.9549 Y4.1939
G01 X14.9547 Y4.2121
G01 X14.9513 Y4.2815
G01 X14.9504 Y4.2936
G01 X14.9489 Y4.3056
G01 X14.9377 Y4.3803
G01 X14.9340 Y4.3981
G01 X14.9171 Y4.4655
G01 X14.9138 Y4.4772
G01 X14.9100 Y4.4887
G01 X14.8866 Y4.5541
G01 X14.8823 Y4.5654
G01 X14.8774 Y4.5765
G01 X14.8476 Y4.6393
G01 X14.8422 Y4.6502
G01 X14.8362 Y4.6607
G01 X14.8005 Y4.7203
G01 X14.7906 Y4.7355
G01 X14.7457 Y4.7963
G01 X14.7382 Y4.8058
G01 X14.7303 Y4.8150
G01 X14.6836 Y4.8665
G01 X14.6753 Y4.8753
G01 X14.6665 Y4.8836
G01 X14.6150 Y4.9303
G01 X14.6058 Y4.9382
G01 X14.5963 Y4.9457
G01 X14.5405 Y4.9870
G01 X14.5255 Y4.9973
G01 X14.4607 Y5.0362
G01 X14.4502 Y5.0422
G01 X14.4393 Y5.0476
G01 X14.3765 Y5.0774
G01 X14.3598 Y5.0845
G01 X14.2887 Y5.1100
G01 X14.2714 Y5.1155
G01 X14.1922 Y5.1354
G01 X14.1803 Y5.1377
G01 X14.1524 Y5.1419
G01 X15.4451 Y5.1420
G01 X15.4878 Y5.1443
G01 X15.5300 Y5.1504
G01 X15.5419 Y5.1527
G01 X15.5716 Y5.1601
G01 X15.5833 Y5.1633
G01 X15.5948 Y5.1671
G01 X15.6293 Y5.1798
G01 X15.6613 Y5.1946
G01 X15.6787 Y5.2036
G01 X15.7050 Y5.2192
G01 X15.7202 Y5.2291
G01 X15.7496 Y5.2510
G01 X15.7636 Y5.2627
G01 X15.7862 Y5.2833
G01 X16.3557 Y5.8528
G01 X16.3763 Y5.8755
G01 X16.3880 Y5.8894
G01 X16.4099 Y5.9188
G01 X16.4198 Y5.9341
G01 X16.4384 Y5.9657
G01 X16.4543 Y5.9987
G01 X16.4615 Y6.0154
G01 X16.4757 Y6.0557
G01 X16.4789 Y6.0674
G01 X16.4875 Y6.1030
G01 X16.4932 Y6.1392
G01 X16.4952 Y6.1573
G01 X16.4971 Y6.2000
G01 X16.4970 Y8.7061
G01 X16.4952 Y8.7427
G01 X16.4932 Y8.7608
G01 X16.4875 Y8.7970
G01 X16.4789 Y8.8326
G01 X16.4739 Y8.8501
G01 X16.4615 Y8.8846
G01 X16.4543 Y8.9013
G01 X16.4384 Y8.9343
G01 X16.4166 Y8.9711
G01 X16.4063 Y8.9861
G01 X16.3843 Y9.0153
G01 X16.3557 Y9.0472
G01 X15.3515 Y10.0515
G01 X15.3341 Y10.0677
G01 X15.3153 Y10.0843
G01 X15.2861 Y10.1063
G01 X15.2711 Y10.1166
G01 X15.2449 Y10.1324
G01 X15.2289 Y10.1412
G01 X15.1958 Y10.1569
G01 X15.1789 Y10.1636
G01 X15.1443 Y10.1757
G01 X15.1088 Y10.1849
G01 X15.0970 Y10.1875
G01 X15.0850 Y10.1896
G01 X15.0487 Y10.1947
G01 X15.0061 Y10.1970
G01 X12.9532 Y10.1971
G01 X11.7471 Y11.4032
G01 X11.7471 Y11.7691
G01 X11.7761 Y11.7868
G01 X11.8105 Y11.8121
G01 X11.8244 Y11.8238
G01 X11.8514 Y11.8486
G01 X11.8803 Y11.8801
G01 X11.8916 Y11.8943
G01 X11.9132 Y11.9239
G01 X11.9323 Y11.9552
G01 X11.9411 Y11.9711
G01 X11.9591 Y12.0098
G01 X11.9718 Y12.0442
G01 X11.9772 Y12.0616
G01 X11.9862 Y12.0971
G01 X11.9895 Y12.1150
G01 X11.9946 Y12.1513
G01 X11.9967 Y12.1879
G01 X11.9970 Y12.2000
G01 X11.9970 Y17.2000
G01 X11.9967 Y17.2121
G01 X11.9946 Y17.2487
G01 X11.9895 Y17.2850
G01 X11.9874 Y17.2970
G01 X11.9788 Y17.3326
G01 X11.9756 Y17.3443
G01 X11.9718 Y17.3558
G01 X11.9591 Y17.3902
G01 X11.9542 Y17.4013
G01 X11.9383 Y17.4343
G01 X11.9197 Y17.4659
G01 X11.9132 Y17.4761
G01 X11.9062 Y17.4860
G01 X11.8842 Y17.5153
G01 X11.8598 Y17.5426
G01 X11.8514 Y17.5514
G01 X11.8244 Y17.5762
G01 X11.8153 Y17.5842
G01 X11.8057 Y17.5916
G01 X11.7761 Y17.6132
G01 X11.7448 Y17.6323
G01 X11.7343 Y17.6383
G01 X11.7013 Y17.6542
G01 X11.6902 Y17.6591
G01 X11.6558 Y17.6718
G01 X11.6443 Y17.6756
G01 X11.6326 Y17.6788
G01 X11.5970 Y17.6874
G01 X11.5850 Y17.6895
G01 X11.5487 Y17.6946
G01 X11.5061 Y17.6969
G01 X11.0000 Y17.6970
G01 X10.9634 Y17.6955
G01 X10.9513 Y17.6946
G01 X10.9393 Y17.6931
G01 X10.9090 Y17.6885
G01 X10.8912 Y17.6848
G01 X10.8616 Y17.6772
G01 X10.8500 Y17.6737
G01 X10.8211 Y17.6635
G01 X10.8043 Y17.6567
G01 X10.7657 Y17.6383
G01 X10.7341 Y17.6197
G01 X10.7189 Y17.6098
G01 X10.6847 Y17.5842
G01 X10.6529 Y17.5556
G01 X10.6402 Y17.5426
G01 X10.6158 Y17.5153
G01 X10.5938 Y17.4860
G01 X10.5835 Y17.4710
G01 X10.5617 Y17.4343
G01 X10.5458 Y17.4013
G01 X10.5386 Y17.3846
G01 X10.5244 Y17.3443
G01 X10.5152 Y17.3088
G01 X10.5115 Y17.2910
G01 X10.5054 Y17.2487
G01 X10.5033 Y17.2121
G01 X10.5030 Y17.2000
G01 X10.5030 Y12.2000
G01 X10.5033 Y12.1879
G01 X10.5054 Y12.1513
G01 X10.5105 Y12.1150
G01 X10.5138 Y12.0971
G01 X10.5228 Y12.0616
G01 X10.5282 Y12.0442
G01 X10.5409 Y12.0098
G01 X10.5589 Y11.9711
G01 X10.5677 Y11.9552
G01 X10.5868 Y11.9239
G01 X10.6084 Y11.8943
G01 X10.6197 Y11.8801
G01 X10.6486 Y11.8486
G01 X10.6756 Y11.8238
G01 X10.6895 Y11.8121
G01 X10.7239 Y11.7868
G01 X10.7529 Y11.7691
G01 X10.7530 Y11.1913
G01 X10.7553 Y11.1486
G01 X10.7614 Y11.1063
G01 X10.7637 Y11.0944
G01 X10.7711 Y11.0647
G01 X10.7743 Y11.0530
G01 X10.7781 Y11.0415
G01 X10.7885 Y11.0127
G01 X10.7957 Y10.9960
G01 X10.8116 Y10.9630
G01 X10.8302 Y10.9314
G01 X10.8401 Y10.9161
G01 X10.8620 Y10.8867
G01 X10.8737 Y10.8728
G01 X10.8985 Y10.8458
G01 X12.4002 Y9.3443
G01 X12.4320 Y9.3157
G01 X12.4528 Y9.2999
G01 X12.4711 Y9.2867
G01 X12.5024 Y9.2676
G01 X12.5130 Y9.2616
G01 X12.5515 Y9.2431
G01 X12.5684 Y9.2364
G01 X12.6030 Y9.2243
G01 X12.6385 Y9.2151
G01 X12.6503 Y9.2125
G01 X12.6623 Y9.2104
G01 X12.6986 Y9.2053
G01 X12.7413 Y9.2030
G01 X14.7941 Y9.2029
G01 X15.5029 Y8.4941
G01 X15.5029 Y6.4059
G01 X15.2331 Y6.1361
G01 X14.4050 Y6.1361
G01 X14.4393 Y6.1524
G01 X14.4555 Y6.1607
G01 X14.5255 Y6.2027
G01 X14.5405 Y6.2130
G01 X14.6011 Y6.2580
G01 X14.6150 Y6.2697
G01 X14.6665 Y6.3164
G01 X14.6753 Y6.3247
G01 X14.6836 Y6.3335
G01 X14.7343 Y6.3895
G01 X14.7457 Y6.4037
G01 X14.7870 Y6.4595
G01 X14.7940 Y6.4695
G01 X14.8005 Y6.4797
G01 X14.8362 Y6.5393
G01 X14.8422 Y6.5498
G01 X14.8476 Y6.5607
G01 X14.8774 Y6.6235
G01 X14.8823 Y6.6346
G01 X14.8866 Y6.6459
G01 X14.9100 Y6.7113
G01 X14.9155 Y6.7286
G01 X14.9340 Y6.8019
G01 X14.9366 Y6.8137
G01 X14.9387 Y6.8256
G01 X14.9489 Y6.8944
G01 X14.9504 Y6.9064
G01 X14.9513 Y6.9185
G01 X14.9549 Y6.9939
G01 X14.9547 Y7.0121
G01 X14.9513 Y7.0815
G01 X14.9504 Y7.0936
G01 X14.9489 Y7.1056
G01 X14.9387 Y7.1744
G01 X14.9366 Y7.1863
G01 X14.9340 Y7.1981
G01 X14.9171 Y7.2655
G01 X14.9138 Y7.2772
G01 X14.9100 Y7.2887
G01 X14.8866 Y7.3541
G01 X14.8823 Y7.3654
G01 X14.8774 Y7.3765
G01 X14.8476 Y7.4393
G01 X14.8422 Y7.4502
G01 X14.8362 Y7.4607
G01 X14.7973 Y7.5255
G01 X14.7870 Y7.5405
G01 X14.7457 Y7.5963
G01 X14.7382 Y7.6058
G01 X14.7303 Y7.6150
G01 X14.6836 Y7.6665
G01 X14.6753 Y7.6753
G01 X14.6665 Y7.6836
G01 X14.6150 Y7.7303
G01 X14.6058 Y7.7382
G01 X14.5963 Y7.7457
G01 X14.5405 Y7.7870
G01 X14.5305 Y7.7940
G01 X14.5203 Y7.8005
G01 X14.4607 Y7.8362
G01 X14.4502 Y7.8422
G01 X14.4393 Y7.8476
G01 X14.3765 Y7.8774
G01 X14.3598 Y7.8845
G01 X14.2887 Y7.9100
G01 X14.2772 Y7.9138
G01 X14.2655 Y7.9171
G01 X14.1981 Y7.9340
G01 X14.1863 Y7.9366
G01 X14.1744 Y7.9387
G01 X14.1056 Y7.9489
G01 X14.0876 Y7.9509
G01 X14.0121 Y7.9547
G01 X14.0000 Y7.9550
G01 X13.9879 Y7.9547
G01 X13.9124 Y7.9509
G01 X13.8944 Y7.9489
G01 X13.8197 Y7.9377
G01 X13.8078 Y7.9354
G01 X13.7756 Y7.9274
G01 X12.7472 Y8.9557
G01 X12.7153 Y8.9843
G01 X12.6861 Y9.0063
G01 X12.6711 Y9.0166
G01 X12.6449 Y9.0324
G01 X12.6289 Y9.0412
G01 X12.5958 Y9.0569
G01 X12.5789 Y9.0636
G01 X12.5443 Y9.0757
G01 X12.5088 Y9.0849
G01 X12.4970 Y9.0875
G01 X12.4850 Y9.0896
G01 X12.4487 Y9.0947
G01 X12.4366 Y9.0956
G01 X12.4000 Y9.0971
G01 X8.1828 Y9.0971
G01 X8.1762 Y9.1088
G01 X8.1353 Y9.1770
G01 X8.1288 Y9.1872
G01 X8.1219 Y9.1971
G01 X8.0745 Y9.2610
G01 X8.0670 Y9.2705
G01 X8.0591 Y9.2797
G01 X8.0057 Y9.3386
G01 X7.9974 Y9.3474
G01 X7.9886 Y9.3557
G01 X7.9297 Y9.4091
G01 X7.9205 Y9.4170
G01 X7.9110 Y9.4245
G01 X7.8471 Y9.4719
G01 X7.8372 Y9.4788
G01 X7.8270 Y9.4853
G01 X7.7588 Y9.5262
G01 X7.7471 Y9.5328
G01 X7.7471 Y11.7691
G01 X7.7761 Y11.7868
G01 X7.8105 Y11.8121
G01 X7.8244 Y11.8238
G01 X7.8514 Y11.8486
G01 X7.8803 Y11.8801
G01 X7.8916 Y11.8943
G01 X7.9132 Y11.9239
G01 X7.9323 Y11.9552
G01 X7.9411 Y11.9711
G01 X7.9591 Y12.0098
G01 X7.9718 Y12.0442
G01 X7.9772 Y12.0616
G01 X7.9874 Y12.1030
G01 X7.9931 Y12.1393
G01 X7.9951 Y12.1573
G01 X7.9969 Y12.1939
G01 X7.9970 Y17.2000
G01 X7.9967 Y17.2121
G01 X7.9946 Y17.2487
G01 X7.9885 Y17.2910
G01 X7.9862 Y17.3029
G01 X7.9788 Y17.3326
G01 X7.9737 Y17.3500
G01 X7.9591 Y17.3902
G01 X7.9437 Y17.4234
G01 X7.9354 Y17.4396
G01 X7.9132 Y17.4761
G01 X7.8879 Y17.5105
G01 X7.8762 Y17.5244
G01 X7.8514 Y17.5514
G01 X7.8199 Y17.5803
G01 X7.8057 Y17.5916
G01 X7.7811 Y17.6098
G01 X7.7710 Y17.6165
G01 X7.7343 Y17.6383
G01 X7.7013 Y17.6542
G01 X7.6902 Y17.6591
G01 X7.6789 Y17.6635
G01 X7.6500 Y17.6737
G01 X7.6384 Y17.6772
G01 X7.5970 Y17.6874
G01 X7.5607 Y17.6931
G01 X7.5427 Y17.6951
G01 X7.5061 Y17.6969
G01 X7.0000 Y17.6970
G01 X6.9879 Y17.6967
G01 X6.9573 Y17.6951
G01 X6.9393 Y17.6931
G01 X6.9030 Y17.6874
G01 X6.8674 Y17.6788
G01 X6.8500 Y17.6737
G01 X6.8154 Y17.6614
G01 X6.7987 Y17.6542
G01 X6.7657 Y17.6383
G01 X6.7552 Y17.6323
G01 X6.7239 Y17.6132
G01 X6.6943 Y17.5916
G01 X6.6801 Y17.5803
G01 X6.6486 Y17.5514
G01 X6.6197 Y17.5199
G01 X6.6084 Y17.5057
G01 X6.5868 Y17.4761
G01 X6.5677 Y17.4448
G01 X6.5589 Y17.4289
G01 X6.5409 Y17.3902
G01 X6.5282 Y17.3558
G01 X6.5228 Y17.3384
G01 X6.5126 Y17.2970
G01 X6.5069 Y17.2607
G01 X6.5049 Y17.2427
G01 X6.5030 Y17.2000
G01 X6.5031 Y12.1939
G01 X6.5049 Y12.1573
G01 X6.5069 Y12.1393
G01 X6.5126 Y12.1030
G01 X6.5228 Y12.0616
G01 X6.5282 Y12.0442
G01 X6.5409 Y12.0098
G01 X6.5589 Y11.9711
G01 X6.5677 Y11.9552
G01 X6.5868 Y11.9239
G01 X6.6084 Y11.8943
G01 X6.6197 Y11.8801
G01 X6.6486 Y11.8486
G01 X6.6756 Y11.8238
G01 X6.6895 Y11.8121
G01 X6.7239 Y11.7868
G01 X6.7529 Y11.7691
G01 X6.7529 Y9.5328
G01 X6.7412 Y9.5262
G01 X6.6730 Y9.4853
G01 X6.6628 Y9.4788
G01 X6.6529 Y9.4719
G01 X6.5890 Y9.4245
G01 X6.5795 Y9.4170
G01 X6.5703 Y9.4091
G01 X6.5114 Y9.3557
G01 X6.5026 Y9.3474
G01 X6.4943 Y9.3386
G01 X6.4409 Y9.2797
G01 X6.4330 Y9.2705
G01 X6.4255 Y9.2610
G01 X6.3781 Y9.1971
G01 X6.3712 Y9.1872
G01 X6.3647 Y9.1770
G01 X6.3238 Y9.1088
G01 X6.3178 Y9.0982
G01 X6.3124 Y9.0874
G01 X6.2784 Y9.0156
G01 X6.2735 Y9.0045
G01 X6.2691 Y8.9932
G01 X6.2424 Y8.9183
G01 X6.2386 Y8.9068
G01 X6.2353 Y8.8951
G01 X6.2160 Y8.8180
G01 X6.2133 Y8.8062
G01 X6.2113 Y8.7943
G01 X6.1996 Y8.7156
G01 X6.1981 Y8.7036
G01 X6.1972 Y8.6915
G01 X6.1933 Y8.6121
G01 X6.1930 Y8.6000
G01 X6.1933 Y8.5879
G01 X6.1972 Y8.5085
G01 X6.1981 Y8.4964
G01 X6.1996 Y8.4844
G01 X6.2113 Y8.4057
G01 X6.2133 Y8.3938
G01 X6.2160 Y8.3820
G01 X6.2353 Y8.3049
G01 X6.2386 Y8.2932
G01 X6.2424 Y8.2817
G01 X6.2691 Y8.2068
G01 X6.2735 Y8.1955
G01 X6.2784 Y8.1844
G01 X6.3124 Y8.1126
G01 X6.3178 Y8.1018
G01 X6.3238 Y8.0912
G01 X6.3647 Y8.0230
G01 X6.3712 Y8.0128
G01 X6.3781 Y8.0029
G01 X6.4255 Y7.9390
G01 X6.4330 Y7.9295
G01 X6.4409 Y7.9203
G01 X6.4943 Y7.8614
G01 X6.5026 Y7.8526
G01 X6.5114 Y7.8443
G01 X6.5703 Y7.7909
G01 X6.5795 Y7.7830
G01 X6.5890 Y7.7755
G01 X6.6529 Y7.7281
G01 X6.6628 Y7.7212
G01 X6.6730 Y7.7147
G01 X6.7412 Y7.6738
G01 X6.7518 Y7.6678
G01 X6.7626 Y7.6624
G01 X6.8344 Y7.6284
G01 X6.8455 Y7.6235
G01 X6.8568 Y7.6191
G01 X6.9317 Y7.5924
G01 X6.9432 Y7.5886
G01 X6.9549 Y7.5853
G01 X7.0320 Y7.5660
G01 X7.0438 Y7.5633
G01 X7.0557 Y7.5613
G01 X7.1344 Y7.5496
G01 X7.1464 Y7.5481
G01 X7.1585 Y7.5472
G01 X7.2379 Y7.5433
G01 X7.2500 Y7.5430
G01 X7.2621 Y7.5433
G01 X7.3415 Y7.5472
G01 X7.3536 Y7.5481
G01 X7.3656 Y7.5496
G01 X7.4443 Y7.5613
G01 X7.4562 Y7.5633
G01 X7.4680 Y7.5660
G01 X7.5451 Y7.5853
G01 X7.5568 Y7.5886
G01 X7.5683 Y7.5924
G01 X7.6432 Y7.6191
G01 X7.6545 Y7.6235
G01 X7.6656 Y7.6284
G01 X7.7374 Y7.6624
G01 X7.7482 Y7.6678
G01 X7.7588 Y7.6738
G01 X7.8270 Y7.7147
G01 X7.8372 Y7.7212
G01 X7.8471 Y7.7281
G01 X7.9110 Y7.7755
G01 X7.9205 Y7.7830
G01 X7.9297 Y7.7909
G01 X7.9886 Y7.8443
G01 X7.9974 Y7.8526
G01 X8.0057 Y7.8614
G01 X8.0591 Y7.9203
G01 X8.0670 Y7.9295
G01 X8.0745 Y7.9390
G01 X8.1219 Y8.0029
G01 X8.1288 Y8.0128
G01 X8.1353 Y8.0230
G01 X8.1762 Y8.0912
G01 X8.1828 Y8.1029
G01 X12.1941 Y8.1029
G01 X13.0726 Y7.2244
G01 X13.0646 Y7.1922
G01 X13.0623 Y7.1803
G01 X13.0511 Y7.1056
G01 X13.0491 Y7.0876
G01 X13.0453 Y7.0121
G01 X13.0450 Y7.0000
G01 X13.0453 Y6.9879
G01 X13.0487 Y6.9185
G01 X13.0503 Y6.9004
G01 X13.0613 Y6.8256
G01 X13.0634 Y6.8137
G01 X13.0660 Y6.8019
G01 X13.0829 Y6.7345
G01 X13.0862 Y6.7228
G01 X13.0900 Y6.7113
G01 X13.1134 Y6.6459
G01 X13.1177 Y6.6346
G01 X13.1226 Y6.6235
G01 X13.1524 Y6.5607
G01 X13.1578 Y6.5498
G01 X13.1638 Y6.5393
G01 X13.2027 Y6.4745
G01 X13.2130 Y6.4595
G01 X13.2543 Y6.4037
G01 X13.2618 Y6.3942
G01 X13.2697 Y6.3850
G01 X13.3164 Y6.3335
G01 X13.3291 Y6.3205
G01 X13.3850 Y6.2697
G01 X13.3942 Y6.2618
G01 X13.4037 Y6.2543
G01 X13.4645 Y6.2094
G01 X13.4797 Y6.1995
G01 X13.5445 Y6.1607
G01 X13.5607 Y6.1524
G01 X13.5950 Y6.1361
G01 X13.0669 Y6.1361
G01 X12.4274 Y6.7756
G01 X12.4354 Y6.8078
G01 X12.4377 Y6.8197
G01 X12.4489 Y6.8944
G01 X12.4509 Y6.9124
G01 X12.4547 Y6.9879
G01 X12.4550 Y7.0000
G01 X12.4547 Y7.0121
G01 X12.4509 Y7.0876
G01 X12.4489 Y7.1056
G01 X12.4387 Y7.1744
G01 X12.4366 Y7.1863
G01 X12.4340 Y7.1981
G01 X12.4171 Y7.2655
G01 X12.4138 Y7.2772
G01 X12.4100 Y7.2887
G01 X12.3866 Y7.3541
G01 X12.3799 Y7.3710
G01 X12.3476 Y7.4393
G01 X12.3422 Y7.4502
G01 X12.3362 Y7.4607
G01 X12.3005 Y7.5203
G01 X12.2940 Y7.5305
G01 X12.2870 Y7.5405
G01 X12.2420 Y7.6011
G01 X12.2303 Y7.6150
G01 X12.1836 Y7.6665
G01 X12.1753 Y7.6753
G01 X12.1665 Y7.6836
G01 X12.1150 Y7.7303
G01 X12.1058 Y7.7382
G01 X12.0963 Y7.7457
G01 X12.0405 Y7.7870
G01 X12.0305 Y7.7940
G01 X12.0203 Y7.8005
G01 X11.9607 Y7.8362
G01 X11.9448 Y7.8450
G01 X11.8765 Y7.8774
G01 X11.8654 Y7.8823
G01 X11.8541 Y7.8866
G01 X11.7887 Y7.9100
G01 X11.7772 Y7.9138
G01 X11.7655 Y7.9171
G01 X11.6981 Y7.9340
G01 X11.6863 Y7.9366
G01 X11.6744 Y7.9387
G01 X11.6056 Y7.9489
G01 X11.5936 Y7.9504
G01 X11.5815 Y7.9513
G01 X11.5121 Y7.9547
G01 X11.5000 Y7.9550
G01 X11.4879 Y7.9547
G01 X11.4185 Y7.9513
G01 X11.4064 Y7.9504
G01 X11.3944 Y7.9489
G01 X11.3256 Y7.9387
G01 X11.3137 Y7.9366
G01 X11.3019 Y7.9340
G01 X11.2345 Y7.9171
G01 X11.2228 Y7.9138
G01 X11.2113 Y7.9100
G01 X11.1459 Y7.8866
G01 X11.1346 Y7.8823
G01 X11.1235 Y7.8774
G01 X11.0607 Y7.8476
G01 X11.0498 Y7.8422
G01 X11.0393 Y7.8362
G01 X10.9797 Y7.8005
G01 X10.9695 Y7.7940
G01 X10.9595 Y7.7870
G01 X10.8989 Y7.7420
G01 X10.8850 Y7.7303
G01 X10.8291 Y7.6795
G01 X10.8164 Y7.6665
G01 X10.7697 Y7.6150
G01 X10.7618 Y7.6058
G01 X10.7543 Y7.5963
G01 X10.7130 Y7.5405
G01 X10.7060 Y7.5305
G01 X10.6995 Y7.5203
G01 X10.6638 Y7.4607
G01 X10.6578 Y7.4502
G01 X10.6524 Y7.4393
G01 X10.6201 Y7.3710
G01 X10.6134 Y7.3541
G01 X10.5900 Y7.2887
G01 X10.5862 Y7.2772
G01 X10.5829 Y7.2655
G01 X10.5660 Y7.1981
G01 X10.5634 Y7.1863
G01 X10.5613 Y7.1744
G01 X10.5511 Y7.1056
G01 X10.5496 Y7.0936
G01 X10.5487 Y7.0815
G01 X10.5453 Y7.0121
G01 X10.5450 Y7.0000
G01 X10.5453 Y6.9879
G01 X10.5491 Y6.9124
G01 X10.5511 Y6.8944
G01 X10.5613 Y6.8256
G01 X10.5634 Y6.8137
G01 X10.5660 Y6.8019
G01 X10.5829 Y6.7345
G01 X10.5862 Y6.7228
G01 X10.5900 Y6.7113
G01 X10.6134 Y6.6459
G01 X10.6177 Y6.6346
G01 X10.6226 Y6.6235
G01 X10.6524 Y6.5607
G01 X10.6607 Y6.5445
G01 X10.6995 Y6.4797
G01 X10.7060 Y6.4695
G01 X10.7130 Y6.4595
G01 X10.7543 Y6.4037
G01 X10.7618 Y6.3942
G01 X10.7697 Y6.3850
G01 X10.8205 Y6.3291
G01 X10.8335 Y6.3164
G01 X10.8850 Y6.2697
G01 X10.8989 Y6.2580
G01 X10.9645 Y6.2094
G01 X10.9745 Y6.2027
G01 X11.0029 Y6.1856
G01 X11.0029 Y5.1550
G01 X10.7920 Y5.1550
G01 X10.7738 Y5.1543
G01 X10.7558 Y5.1523
G01 X10.7379 Y5.1490
G01 X10.7261 Y5.1460
G01 X10.7145 Y5.1425
G01 X10.6975 Y5.1362
G01 X10.6810 Y5.1286
G01 X10.6703 Y5.1229
G01 X10.6599 Y5.1166
G01 X10.6449 Y5.1064
G01 X10.6353 Y5.0989
G01 X10.6262 Y5.0910
G01 X10.6174 Y5.0826
G01 X10.6050 Y5.0693
G01 X10.5936 Y5.0551
G01 X10.5867 Y5.0452
G01 X10.5802 Y5.0350
G01 X10.5742 Y5.0244
G01 X10.5662 Y5.0081
G01 X10.5616 Y4.9969
G01 X10.5575 Y4.9855
G01 X10.5524 Y4.9680
G01 X10.5487 Y4.9502
G01 X10.5469 Y4.9382
G01 X10.5457 Y4.9262
G01 X10.5450 Y4.9080
G01 X10.5450 Y3.4920
G01 X10.5453 Y3.4799
G01 X10.5462 Y3.4678
G01 X10.5477 Y3.4558
G01 X10.5498 Y3.4438
G01 X10.5524 Y3.4320
G01 X10.5557 Y3.4203
G01 X10.5595 Y3.4088
G01 X10.5638 Y3.3975
G01 X10.5714 Y3.3810
G01 X10.5802 Y3.3650
G01 X10.5901 Y3.3498
G01 X10.6011 Y3.3353
G01 X10.6131 Y3.3217
G01 X10.6262 Y3.3090
G01 X10.6401 Y3.2973
G01 X10.6548 Y3.2867
G01 X10.6703 Y3.2771
G01 X10.6864 Y3.2688
G01 X10.7031 Y3.2616
G01 X10.7203 Y3.2557
G01 X10.7379 Y3.2510
G01 X10.7498 Y3.2487
G01 X10.7678 Y3.2462
G01 X10.7859 Y3.2451
G01 X12.2080 Y3.2450
G01 X12.2262 Y3.2457
G01 X12.2382 Y3.2469
G01 X12.2562 Y3.2498
G01 X12.2680 Y3.2524
G01 X12.2855 Y3.2575
G01 X12.3025 Y3.2638
G01 X12.3136 Y3.2688
G01 X12.3244 Y3.2742
G01 X12.3401 Y3.2834
G01 X12.3502 Y3.2901
G01 X12.3647 Y3.3011
G01 X12.3783 Y3.3131
G01 X12.3869 Y3.3217
G01 X12.3950 Y3.3307
G01 X12.4027 Y3.3401
G01 X12.4099 Y3.3498
G01 X12.4198 Y3.3650
G01 X12.4286 Y3.3810
G01 X12.4362 Y3.3975
G01 X12.4425 Y3.4145
G01 X12.4460 Y3.4261
G01 X12.4490 Y3.4379
G01 X12.4523 Y3.4558
G01 X12.4543 Y3.4738
G01 X12.4549 Y3.4859
G01 X12.4550 Y4.9080
G01 X12.4547 Y4.9201
G01 X12.4538 Y4.9322
G01 X12.4513 Y4.9502
G01 X12.4490 Y4.9621
G01 X12.4443 Y4.9797
G01 X12.4384 Y4.9969
G01 X12.4338 Y5.0081
G01 X12.4258 Y5.0244
G01 X12.4198 Y5.0350
G01 X12.4133 Y5.0452
G01 X12.4027 Y5.0599
G01 X12.3950 Y5.0693
G01 X12.3826 Y5.0826
G01 X12.3693 Y5.0950
G01 X12.3599 Y5.1027
G01 X12.3452 Y5.1133
G01 X12.3350 Y5.1198
G01 X12.3244 Y5.1258
G01 X12.3081 Y5.1338
G01 X12.2969 Y5.1384
G01 X12.2855 Y5.1425
G01 X12.2680 Y5.1476
G01 X12.2562 Y5.1502
G01 X12.2442 Y5.1523
G01 X12.2262 Y5.1543
G01 X12.2080 Y5.1550
G01 X11.9971 Y5.1550
G01 X11.9971 Y5.7999
G01 X12.5095 Y5.2875
G01 X12.5364 Y5.2627
G01 X12.5504 Y5.2510
G01 X12.5798 Y5.2291
G01 X12.5950 Y5.2192
G01 X12.6213 Y5.2036
G01 X12.6375 Y5.1952
G01 X12.6652 Y5.1822
G01 X12.6764 Y5.1775
G01 X12.7052 Y5.1671
G01 X12.7167 Y5.1633
G01 X12.7284 Y5.1601
G01 X12.7581 Y5.1527
G01 X12.7700 Y5.1504
G01 X12.8122 Y5.1443
G01 X12.8549 Y5.1420
G01 X13.8476 Y5.1419
G01 X13.8197 Y5.1377
G01 X13.8078 Y5.1354
G01 X13.7286 Y5.1155
G01 X13.7113 Y5.1100
G01 X13.6402 Y5.0845
G01 X13.6235 Y5.0774
G01 X13.5607 Y5.0476
G01 X13.5498 Y5.0422
G01 X13.5393 Y5.0362
G01 X13.4745 Y4.9973
G01 X13.4595 Y4.9870
G01 X13.4037 Y4.9457
G01 X13.3942 Y4.9382
G01 X13.3850 Y4.9303
G01 X13.3335 Y4.8836
G01 X13.3247 Y4.8753
G01 X13.3164 Y4.8665
G01 X13.2697 Y4.8150
G01 X13.2618 Y4.8058
G01 X13.2543 Y4.7963
G01 X13.2094 Y4.7355
G01 X13.1995 Y4.7203
G01 X13.1638 Y4.6607
G01 X13.1578 Y4.6502
G01 X13.1524 Y4.6393
G01 X13.1226 Y4.5765
G01 X13.1177 Y4.5654
G01 X13.1134 Y4.5541
G01 X13.0900 Y4.4887
G01 X13.0862 Y4.4772
G01 X13.0829 Y4.4655
G01 X13.0660 Y4.3981
G01 X13.0634 Y4.3863
G01 X13.0613 Y4.3744
G01 X13.0511 Y4.3056
G01 X13.0496 Y4.2936
G01 X13.0487 Y4.2815
G01 X13.0453 Y4.2121
G01 X13.0450 Y4.2000
G01 X13.0453 Y4.1879
G01 X13.0487 Y4.1185
G01 X13.0496 Y4.1064
G01 X13.0511 Y4.0944
G01 X13.0613 Y4.0256
G01 X13.0634 Y4.0137
G01 X13.0660 Y4.0019
G01 X13.0829 Y3.9345
G01 X13.0862 Y3.9228
G01 X13.0900 Y3.9113
G01 X13.1134 Y3.8459
G01 X13.1177 Y3.8346
G01 X13.1226 Y3.8235
G01 X13.1524 Y3.7607
G01 X13.1578 Y3.7498
G01 X13.1638 Y3.7393
G01 X13.1995 Y3.6797
G01 X13.2060 Y3.6695
G01 X13.2130 Y3.6595
G01 X13.2543 Y3.6037
G01 X13.2618 Y3.5942
G01 X13.2697 Y3.5850
G01 X13.3164 Y3.5335
G01 X13.3247 Y3.5247
G01 X13.3335 Y3.5164
G01 X13.3850 Y3.4697
G01 X13.3942 Y3.4618
G01 X13.4037 Y3.4543
G01 X13.4595 Y3.4130
G01 X13.4745 Y3.4027
G01 X13.5393 Y3.3638
G01 X13.5498 Y3.3578
G01 X13.5607 Y3.3524
G01 X13.6235 Y3.3226
G01 X13.6346 Y3.3177
G01 X13.6459 Y3.3134
G01 X13.7113 Y3.2900
G01 X13.7228 Y3.2862
G01 X13.7345 Y3.2829
G01 X13.8019 Y3.2660
G01 X13.8197 Y3.2623
G01 X13.8944 Y3.2511
G01 X13.9064 Y3.2496
G01 X13.9185 Y3.2487
G01 X13.9879 Y3.2453
G01 X14.0061 Y3.2451
G01 X14.0815 Y3.2487
G01 X14.0996 Y3.2503
G01 X14.1803 Y3.2623
G01 X14.1922 Y3.2646
G01 X14.2244 Y3.2726
G00 Z2.0000
G00 X14.6164 Y5.0479
G01 F25.00
G01 Z-0.0499
G01 F100.00
G01 X14.6590 Y5.0161
G01 X14.6782 Y5.0000
G01 X14.7358 Y4.9476
G01 X14.7476 Y4.9358
G01 X14.7707 Y4.9105
G01 X14.7948 Y4.9699
G01 X14.8052 Y4.9931
G01 X14.8131 Y5.0081
G01 X14.8217 Y5.0226
G01 X14.8310 Y5.0368
G01 X14.8392 Y5.0479
G01 X14.6164 Y5.0479
G00 Z2.0000
G00 X14.7115 Y6.2302
G01 F25.00
G01 Z-0.0499
G01 F100.00
G01 X15.1942 Y6.2302
G01 X15.4088 Y6.4449
G01 X15.4088 Y8.4551
G01 X14.7551 Y9.1088
G01 X12.7473 Y9.1088
G01 X12.7306 Y9.1092
G01 X12.6967 Y9.1111
G01 X12.7284 Y9.0915
G01 X12.7618 Y9.0673
G01 X12.7814 Y9.0516
G01 X12.8120 Y9.0239
G01 X13.8053 Y8.0307
G01 X13.8806 Y8.0419
G01 X13.8972 Y8.0440
G01 X13.9139 Y8.0452
G01 X13.9833 Y8.0486
G01 X14.0000 Y8.0490
G01 X14.0167 Y8.0486
G01 X14.0861 Y8.0452
G01 X14.1028 Y8.0440
G01 X14.1194 Y8.0419
G01 X14.1882 Y8.0317
G01 X14.2047 Y8.0289
G01 X14.2210 Y8.0252
G01 X14.2884 Y8.0083
G01 X14.3045 Y8.0039
G01 X14.3204 Y7.9986
G01 X14.3858 Y7.9752
G01 X14.4015 Y7.9692
G01 X14.4168 Y7.9624
G01 X14.4796 Y7.9327
G01 X14.4945 Y7.9252
G01 X14.5091 Y7.9169
G01 X14.5687 Y7.8812
G01 X14.5828 Y7.8722
G01 X14.5965 Y7.8626
G01 X14.6523 Y7.8212
G01 X14.6655 Y7.8109
G01 X14.6782 Y7.8000
G01 X14.7297 Y7.7533
G01 X14.7418 Y7.7418
G01 X14.7533 Y7.7297
G01 X14.8000 Y7.6782
G01 X14.8109 Y7.6655
G01 X14.8212 Y7.6523
G01 X14.8675 Y7.5897
G01 X14.8812 Y7.5687
G01 X14.9169 Y7.5091
G01 X14.9252 Y7.4945
G01 X14.9327 Y7.4796
G01 X14.9624 Y7.4168
G01 X14.9692 Y7.4015
G01 X14.9752 Y7.3858
G01 X14.9986 Y7.3204
G01 X15.0039 Y7.3045
G01 X15.0083 Y7.2884
G01 X15.0252 Y7.2210
G01 X15.0289 Y7.2047
G01 X15.0317 Y7.1882
G01 X15.0431 Y7.1111
G01 X15.0452 Y7.0861
G01 X15.0486 Y7.0167
G01 X15.0490 Y7.0000
G01 X15.0486 Y6.9833
G01 X15.0452 Y6.9139
G01 X15.0431 Y6.8889
G01 X15.0317 Y6.8118
G01 X15.0289 Y6.7953
G01 X15.0252 Y6.7790
G01 X15.0083 Y6.7116
G01 X15.0039 Y6.6955
G01 X14.9986 Y6.6796
G01 X14.9752 Y6.6142
G01 X14.9692 Y6.5985
G01 X14.9624 Y6.5832
G01 X14.9290 Y6.5129
G01 X14.9169 Y6.4909
G01 X14.8812 Y6.4313
G01 X14.8722 Y6.4172
G01 X14.8626 Y6.4035
G01 X14.8161 Y6.3410
G01 X14.8000 Y6.3218
G01 X14.7476 Y6.2642
G01 X14.7358 Y6.2524
G01 X14.7115 Y6.2302
G00 Z2.0000
G00 X14.9210 Y6.3243
G01 F25.00
G01 Z-0.0499
G01 F100.00
G01 X15.1552 Y6.3243
G01 X15.3148 Y6.4838
G01 X15.3148 Y8.4162
G01 X14.7162 Y9.0148
G01 X12.9543 Y9.0148
G01 X13.8383 Y8.1308
G01 X13.8773 Y8.1364
G01 X13.8986 Y8.1385
G01 X13.9893 Y8.1430
G01 X14.0107 Y8.1430
G01 X14.0214 Y8.1426
G01 X14.0907 Y8.1392
G01 X14.1120 Y8.1376
G01 X14.1227 Y8.1364
G01 X14.2020 Y8.1248
G01 X14.2230 Y8.1212
G01 X14.2438 Y8.1165
G01 X14.3112 Y8.0996
G01 X14.3318 Y8.0939
G01 X14.3521 Y8.0872
G01 X14.4175 Y8.0638
G01 X14.4375 Y8.0561
G01 X14.4473 Y8.0519
G01 X14.5198 Y8.0177
G01 X14.5389 Y8.0081
G01 X14.5574 Y7.9976
G01 X14.6170 Y7.9619
G01 X14.6351 Y7.9505
G01 X14.6525 Y7.9382
G01 X14.7084 Y7.8968
G01 X14.7252 Y7.8836
G01 X14.7414 Y7.8697
G01 X14.7928 Y7.8230
G01 X14.8083 Y7.8083
G01 X14.8230 Y7.7928
G01 X14.8697 Y7.7414
G01 X14.8836 Y7.7252
G01 X14.8968 Y7.7084
G01 X14.9382 Y7.6525
G01 X14.9505 Y7.6351
G01 X14.9619 Y7.6170
G01 X15.0030 Y7.5482
G01 X15.0131 Y7.5294
G01 X15.0177 Y7.5198
G01 X15.0475 Y7.4570
G01 X15.0561 Y7.4375
G01 X15.0638 Y7.4175
G01 X15.0872 Y7.3521
G01 X15.0939 Y7.3318
G01 X15.0996 Y7.3112
G01 X15.1165 Y7.2438
G01 X15.1212 Y7.2230
G01 X15.1248 Y7.2020
G01 X15.1350 Y7.1332
G01 X15.1376 Y7.1120
G01 X15.1392 Y7.0907
G01 X15.1426 Y7.0214
G01 X15.1430 Y7.0107
G01 X15.1430 Y6.9893
G01 X15.1392 Y6.9093
G01 X15.1376 Y6.8880
G01 X15.1350 Y6.8668
G01 X15.1248 Y6.7980
G01 X15.1212 Y6.7770
G01 X15.1165 Y6.7562
G01 X15.0996 Y6.6888
G01 X15.0939 Y6.6682
G01 X15.0907 Y6.6580
G01 X15.0638 Y6.5825
G01 X15.0561 Y6.5625
G01 X15.0475 Y6.5430
G01 X15.0131 Y6.4706
G01 X15.0030 Y6.4518
G01 X14.9976 Y6.4426
G01 X14.9563 Y6.3739
G01 X14.9444 Y6.3561
G01 X14.9210 Y6.3243
G00 Z2.0000
G00 X15.0919 Y6.4184
G01 F25.00
G01 Z-0.0499
G01 F100.00
G01 X15.1162 Y6.4184
G01 X15.2207 Y6.5228
G01 X15.2207 Y6.8031
G01 X15.2158 Y6.7714
G01 X15.2107 Y6.7459
G01 X15.1909 Y6.6659
G01 X15.1839 Y6.6409
G01 X15.1800 Y6.6285
G01 X15.1524 Y6.5508
G01 X15.1430 Y6.5265
G01 X15.1325 Y6.5028
G01 X15.1028 Y6.4400
G01 X15.0919 Y6.4184
G00 Z2.0000
G00 X15.2207 Y7.1969
G01 F25.00
G01 Z-0.0499
G01 F100.00
G01 X15.2207 Y8.3772
G01 X14.6772 Y8.9207
G01 X13.1815 Y8.9207
G01 X13.8717 Y8.2305
G01 X13.8917 Y8.2324
G01 X13.9046 Y8.2332
G01 X13.9740 Y8.2366
G01 X14.0000 Y8.2372
G01 X14.0260 Y8.2366
G01 X14.0954 Y8.2332
G01 X14.1213 Y8.2312
G01 X14.1470 Y8.2281
G01 X14.2158 Y8.2179
G01 X14.2414 Y8.2134
G01 X14.2667 Y8.2077
G01 X14.3341 Y8.1909
G01 X14.3591 Y8.1839
G01 X14.3838 Y8.1758
G01 X14.4492 Y8.1524
G01 X14.4735 Y8.1430
G01 X14.4972 Y8.1325
G01 X14.5600 Y8.1028
G01 X14.5832 Y8.0911
G01 X14.6058 Y8.0783
G01 X14.6654 Y8.0426
G01 X14.6874 Y8.0287
G01 X14.7086 Y8.0137
G01 X14.7644 Y7.9723
G01 X14.7747 Y7.9645
G01 X14.7948 Y7.9480
G01 X14.8560 Y7.8927
G01 X14.8748 Y7.8748
G01 X14.8927 Y7.8560
G01 X14.9394 Y7.8045
G01 X14.9564 Y7.7849
G01 X14.9723 Y7.7644
G01 X15.0137 Y7.7086
G01 X15.0287 Y7.6874
G01 X15.0426 Y7.6654
G01 X15.0849 Y7.5946
G01 X15.0911 Y7.5832
G01 X15.1028 Y7.5600
G01 X15.1325 Y7.4972
G01 X15.1430 Y7.4735
G01 X15.1524 Y7.4492
G01 X15.1800 Y7.3715
G01 X15.1875 Y7.3467
G01 X15.1909 Y7.3341
G01 X15.2107 Y7.2541
G01 X15.2158 Y7.2286
G01 X15.2207 Y7.1969
G00 Z2.0000
G00 X16.6760 Y5.6278
G01 F25.00
G01 Z-0.0499
G01 F100.00
G01 X16.6882 Y5.6157
G01 X16.6964 Y5.6065
G01 X16.7041 Y5.5970
G01 X16.7148 Y5.5820
G01 X16.7243 Y5.5663
G01 X16.7299 Y5.5554
G01 X16.7374 Y5.5386
G01 X16.7437 Y5.5220
G01 X16.8912 Y5.5220
G01 X16.9047 Y5.5367
G01 X16.9133 Y5.5453
G01 X16.9415 Y5.5705
G01 X16.9717 Y5.5932
G01 X16.9818 Y5.5999
G01 X17.0029 Y5.6127
G01 X17.0029 Y5.6233
G01 X16.9874 Y5.6173
G01 X16.9762 Y5.6138
G01 X16.9030 Y5.5944
G01 X16.8910 Y5.5916
G01 X16.8729 Y5.5884
G01 X16.8607 Y5.5871
G01 X16.8423 Y5.5862
G01 X16.8301 Y5.5864
G01 X16.8178 Y5.5872
G01 X16.8056 Y5.5886
G01 X16.7935 Y5.5906
G01 X16.7756 Y5.5947
G01 X16.7639 Y5.5982
G01 X16.6974 Y5.6197
G01 X16.6858 Y5.6238
G01 X16.6760 Y5.6278
G00 Z2.0000
G00 X17.8089 Y5.8662
G01 F25.00
G01 Z-0.0499
G01 F100.00
G01 X17.8089 Y5.4814
G01 X17.8255 Y5.4788
G01 X17.8473 Y5.4734
G01 X17.8727 Y5.4646
G01 X17.8970 Y5.4532
G01 X17.9211 Y5.4385
G01 X17.9392 Y5.4251
G01 X17.9559 Y5.4100
G01 X17.9741 Y5.3903
G01 X17.9910 Y5.3676
G01 X18.0025 Y5.3483
G01 X18.0096 Y5.3338
G01 X18.4112 Y5.3338
G01 X18.4106 Y5.3406
G01 X18.3640 Y5.4901
G01 X18.2834 Y5.6233
G01 X18.1733 Y5.7334
G01 X18.0401 Y5.8140
G01 X17.8906 Y5.8606
G01 X17.8289 Y5.8662
G01 X17.8089 Y5.8662
G00 Z2.0000
G00 X17.9030 Y5.7582
G01 F25.00
G01 Z-0.0499
G01 F100.00
G01 X17.9030 Y5.5537
G01 X17.9169 Y5.5480
G01 X17.9380 Y5.5379
G01 X17.9446 Y5.5344
G01 X17.9710 Y5.5184
G01 X17.9959 Y5.5001
G01 X18.0045 Y5.4929
G01 X18.0218 Y5.4771
G01 X18.0271 Y5.4718
G01 X18.0478 Y5.4489
G01 X18.0636 Y5.4279
G01 X18.2848 Y5.4279
G01 X18.2776 Y5.4512
G01 X18.2088 Y5.5649
G01 X18.1149 Y5.6588
G01 X18.0012 Y5.7276
G01 X17.9030 Y5.7582
G00 Z2.0000
G00 X17.9971 Y5.6201
G01 F25.00
G01 Z-0.0499
G01 F100.00
G01 X17.9971 Y5.6127
G01 X18.0182 Y5.5999
G01 X18.0283 Y5.5932
G01 X18.0585 Y5.5705
G01 X18.0867 Y5.5453
G01 X18.0953 Y5.5367
G01 X18.1088 Y5.5220
G01 X18.1187 Y5.5220
G01 X18.0565 Y5.5842
G01 X17.9971 Y5.6201
G00 Z2.0000
G00 X17.0735 Y4.0944
G01 F25.00
G01 Z-0.0499
G01 F100.00
G01 X17.1113 Y4.1039
G01 X17.1359 Y4.1085
G01 X17.1720 Y4.1134
G01 X17.1887 Y4.1147
G01 X17.2166 Y4.1159
G01 X17.7750 Y4.1160
G01 X17.7917 Y4.1156
G01 X17.8197 Y4.1142
G01 X17.8364 Y4.1125
G01 X17.8597 Y4.1092
G01 X17.8562 Y4.1307
G01 X17.8545 Y4.1476
G01 X17.8536 Y4.1645
G01 X17.8535 Y4.1814
G01 X17.8543 Y4.1983
G01 X17.8593 Y4.2680
G01 X17.8618 Y4.2912
G01 X17.8364 Y4.2875
G01 X17.8197 Y4.2858
G01 X17.7917 Y4.2844
G01 X17.7750 Y4.2840
G01 X17.2250 Y4.2840
G01 X17.1887 Y4.2853
G01 X17.1636 Y4.2875
G01 X17.1277 Y4.2928
G01 X17.1113 Y4.2961
G01 X17.0965 Y4.2997
G01 X17.0974 Y4.2769
G01 X17.0970 Y4.2600
G01 X17.0915 Y4.1818
G01 X17.0899 Y4.1650
G01 X17.0875 Y4.1482
G01 X17.0842 Y4.1316
G01 X17.0800 Y4.1152
G01 X17.0735 Y4.0944
G00 Z2.0000
G00 X12.1878 Y5.3431
G01 F25.00
G01 Z-0.0499
G01 F100.00
G01 X12.1852 Y5.3457
G01 X12.1852 Y5.3431
G01 X12.1878 Y5.3431
G00 Z2.0000
G00 X12.7241 Y7.1738
G01 F25.00
G01 Z-0.0499
G01 F100.00
G01 X12.7298 Y7.1342
G01 X12.7324 Y7.1083
G01 X12.7370 Y7.0130
G01 X12.7372 Y7.0000
G01 X12.7366 Y6.9740
G01 X12.7332 Y6.9046
G01 X12.7324 Y6.8917
G01 X12.7305 Y6.8717
G01 X12.7759 Y6.8262
G01 X12.7702 Y6.8658
G01 X12.7676 Y6.8917
G01 X12.7630 Y6.9870
G01 X12.7628 Y7.0000
G01 X12.7634 Y7.0260
G01 X12.7668 Y7.0954
G01 X12.7676 Y7.1083
G01 X12.7695 Y7.1283
G01 X12.7241 Y7.1738
G00 Z2.0000
G00 X12.5237 Y7.5072
G01 F25.00
G01 Z-0.0499
G01 F100.00
G01 X12.5475 Y7.4570
G01 X12.5561 Y7.4375
G01 X12.5638 Y7.4175
G01 X12.5907 Y7.3420
G01 X12.5939 Y7.3318
G01 X12.5996 Y7.3112
G01 X12.6165 Y7.2438
G01 X12.6212 Y7.2230
G01 X12.6248 Y7.2020
G01 X12.6350 Y7.1332
G01 X12.6376 Y7.1120
G01 X12.6392 Y7.0907
G01 X12.6430 Y7.0107
G01 X12.6430 Y6.9893
G01 X12.6426 Y6.9786
G01 X12.6385 Y6.8986
G01 X12.6364 Y6.8773
G01 X12.6308 Y6.8383
G01 X12.9763 Y6.4928
G01 X12.9525 Y6.5430
G01 X12.9439 Y6.5625
G01 X12.9362 Y6.5825
G01 X12.9093 Y6.6580
G01 X12.9061 Y6.6682
G01 X12.9004 Y6.6888
G01 X12.8835 Y6.7562
G01 X12.8788 Y6.7770
G01 X12.8752 Y6.7980
G01 X12.8650 Y6.8668
G01 X12.8624 Y6.8880
G01 X12.8608 Y6.9093
G01 X12.8570 Y6.9893
G01 X12.8570 Y7.0107
G01 X12.8574 Y7.0214
G01 X12.8615 Y7.1014
G01 X12.8636 Y7.1227
G01 X12.8692 Y7.1617
G01 X12.5237 Y7.5072
G00 Z2.0000
G00 X11.7864 Y8.0088
G01 F25.00
G01 Z-0.0499
G01 F100.00
G01 X11.8045 Y8.0039
G01 X11.8204 Y7.9986
G01 X11.8937 Y7.9723
G01 X11.9168 Y7.9624
G01 X11.9796 Y7.9327
G01 X12.0018 Y7.9211
G01 X12.0758 Y7.8768
G01 X12.0965 Y7.8626
G01 X12.1523 Y7.8212
G01 X12.1655 Y7.8109
G01 X12.1782 Y7.8000
G01 X12.2297 Y7.7533
G01 X12.2418 Y7.7418
G01 X12.2533 Y7.7297
G01 X12.3000 Y7.6782
G01 X12.3109 Y7.6655
G01 X12.3212 Y7.6523
G01 X12.3626 Y7.5965
G01 X12.3768 Y7.5758
G01 X12.4169 Y7.5091
G01 X12.4252 Y7.4945
G01 X12.4327 Y7.4796
G01 X12.4624 Y7.4168
G01 X12.4692 Y7.4015
G01 X12.4752 Y7.3858
G01 X12.4986 Y7.3204
G01 X12.5039 Y7.3045
G01 X12.5083 Y7.2884
G01 X12.5252 Y7.2210
G01 X12.5289 Y7.2047
G01 X12.5317 Y7.1882
G01 X12.5419 Y7.1194
G01 X12.5440 Y7.1028
G01 X12.5452 Y7.0861
G01 X12.5486 Y7.0167
G01 X12.5490 Y7.0000
G01 X12.5486 Y6.9833
G01 X12.5452 Y6.9139
G01 X12.5440 Y6.8972
G01 X12.5419 Y6.8806
G01 X12.5307 Y6.8053
G01 X13.1058 Y6.2302
G01 X13.2885 Y6.2302
G01 X13.2642 Y6.2524
G01 X13.2524 Y6.2642
G01 X13.1945 Y6.3281
G01 X13.1788 Y6.3477
G01 X13.1374 Y6.4035
G01 X13.1232 Y6.4242
G01 X13.0831 Y6.4909
G01 X13.0748 Y6.5055
G01 X13.0673 Y6.5204
G01 X13.0376 Y6.5832
G01 X13.0277 Y6.6063
G01 X12.9987 Y6.6875
G01 X12.9917 Y6.7116
G01 X12.9748 Y6.7790
G01 X12.9711 Y6.7953
G01 X12.9683 Y6.8118
G01 X12.9581 Y6.8806
G01 X12.9560 Y6.8972
G01 X12.9548 Y6.9139
G01 X12.9514 Y6.9833
G01 X12.9510 Y7.0000
G01 X12.9514 Y7.0167
G01 X12.9548 Y7.0861
G01 X12.9569 Y7.1111
G01 X12.9693 Y7.1947
G01 X12.1551 Y8.0088
G01 X11.7864 Y8.0088
G00 Z2.0000
G00 X10.7432 Y8.0088
G01 F25.00
G01 Z-0.0499
G01 F100.00
G01 X10.7614 Y7.9873
G01 X10.7763 Y7.9667
G01 X10.7896 Y7.9451
G01 X10.7976 Y7.9301
G01 X10.8048 Y7.9148
G01 X10.8142 Y7.8912
G01 X10.8218 Y7.8670
G01 X10.8276 Y7.8422
G01 X10.8327 Y7.8094
G01 X10.8477 Y7.8212
G01 X10.9035 Y7.8626
G01 X10.9172 Y7.8722
G01 X10.9313 Y7.8812
G01 X10.9909 Y7.9169
G01 X11.0055 Y7.9252
G01 X11.0204 Y7.9327
G01 X11.0832 Y7.9624
G01 X11.0985 Y7.9692
G01 X11.1142 Y7.9752
G01 X11.1796 Y7.9986
G01 X11.1955 Y8.0039
G01 X11.2136 Y8.0088
G01 X10.7432 Y8.0088
G00 Z2.0000
G00 X12.1932 Y9.4180
G01 F25.00
G01 Z-0.0499
G01 F100.00
G01 X12.1908 Y9.3900
G01 X12.1883 Y9.3732
G01 X12.1851 Y9.3566
G01 X12.1786 Y9.3320
G01 X12.1733 Y9.3160
G01 X12.1671 Y9.3002
G01 X12.1565 Y9.2771
G01 X12.1485 Y9.2622
G01 X12.1397 Y9.2477
G01 X12.1303 Y9.2336
G01 X12.0986 Y9.1912
G01 X12.4000 Y9.1912
G01 X12.4167 Y9.1908
G01 X12.4506 Y9.1889
G01 X12.4259 Y9.2039
G01 X12.4120 Y9.2132
G01 X12.3788 Y9.2378
G01 X12.3596 Y9.2540
G01 X12.3293 Y9.2820
G01 X12.1932 Y9.4180
G00 Z2.0000
G00 X12.4598 Y10.9566
G01 F25.00
G01 Z-0.0499
G01 F100.00
G01 X12.4476 Y10.9909
G01 X12.4414 Y11.0114
G01 X12.4327 Y11.0455
G01 X12.4280 Y11.0663
G01 X12.4244 Y11.0874
G01 X12.4208 Y11.1117
G01 X12.4182 Y11.1328
G01 X12.4166 Y11.1541
G01 X12.4150 Y11.1893
G01 X12.4149 Y13.6341
G01 X12.3861 Y13.6313
G01 X12.3753 Y13.6308
G01 X12.3537 Y13.6305
G01 X12.3429 Y13.6308
G01 X12.3213 Y13.6321
G01 X12.2998 Y13.6345
G01 X12.2891 Y13.6361
G01 X12.2679 Y13.6401
G01 X12.2469 Y13.6452
G01 X12.2365 Y13.6481
G01 X12.2262 Y13.6513
G01 X12.2058 Y13.6584
G01 X12.1851 Y13.6668
G01 X12.1851 Y12.2000
G01 X12.1846 Y12.1786
G01 X12.1834 Y12.1541
G01 X12.1818 Y12.1328
G01 X12.1806 Y12.1222
G01 X12.1756 Y12.0874
G01 X12.1720 Y12.0663
G01 X12.1673 Y12.0455
G01 X12.1613 Y12.0217
G01 X12.1556 Y12.0011
G01 X12.1489 Y11.9808
G01 X12.1407 Y11.9577
G01 X12.1330 Y11.9378
G01 X12.1243 Y11.9183
G01 X12.1138 Y11.8961
G01 X12.1042 Y11.8770
G01 X12.0937 Y11.8585
G01 X12.0811 Y11.8374
G01 X12.0697 Y11.8194
G01 X12.0574 Y11.8019
G01 X12.0427 Y11.7822
G01 X12.0296 Y11.7654
G01 X12.0157 Y11.7492
G01 X11.9992 Y11.7310
G01 X11.9845 Y11.7155
G01 X11.9690 Y11.7008
G01 X11.9508 Y11.6843
G01 X11.9352 Y11.6709
G01 X11.9352 Y11.4812
G01 X12.4598 Y10.9566
G00 Z2.0000
G00 X12.3208 Y11.2286
G01 F25.00
G01 Z-0.0499
G01 F100.00
G01 X12.3208 Y13.5378
G01 X12.3000 Y13.5397
G01 X12.2792 Y13.5425
G01 X12.2792 Y12.2000
G01 X12.2790 Y12.1870
G01 X12.2774 Y12.1495
G01 X12.2766 Y12.1366
G01 X12.2740 Y12.1107
G01 X12.2687 Y12.0736
G01 X12.2642 Y12.0480
G01 X12.2585 Y12.0226
G01 X12.2493 Y11.9863
G01 X12.2456 Y11.9738
G01 X12.2417 Y11.9614
G01 X12.2292 Y11.9260
G01 X12.2199 Y11.9018
G01 X12.2094 Y11.8781
G01 X12.1932 Y11.8442
G01 X12.1809 Y11.8213
G01 X12.1550 Y11.7780
G01 X12.1405 Y11.7564
G01 X12.1183 Y11.7262
G01 X12.1023 Y11.7057
G01 X12.0940 Y11.6957
G01 X12.0689 Y11.6678
G01 X12.0510 Y11.6490
G01 X12.0293 Y11.6285
G01 X12.0293 Y11.5201
G01 X12.3208 Y11.2286
G00 Z2.0000
G00 X14.2850 Y10.3852
G01 F25.00
G01 Z-0.0499
G01 F100.00
G01 X14.2780 Y10.4082
G01 X14.2753 Y10.4187
G01 X14.2706 Y10.4398
G01 X14.2670 Y10.4611
G01 X14.2589 Y10.5175
G01 X14.2214 Y10.5154
G01 X14.2000 Y10.5149
G01 X13.0893 Y10.5150
G01 X13.0541 Y10.5166
G01 X13.0328 Y10.5182
G01 X13.0117 Y10.5208
G01 X12.9874 Y10.5244
G01 X12.9663 Y10.5280
G01 X12.9455 Y10.5327
G01 X12.9114 Y10.5414
G01 X12.8909 Y10.5476
G01 X12.8566 Y10.5598
G01 X13.0312 Y10.3852
G01 X14.2850 Y10.3852
G00 Z2.0000
G00 X14.4473 Y10.2912
G01 F25.00
G01 Z-0.0499
G01 F100.00
G01 X14.4345 Y10.3061
G01 X14.4241 Y10.3195
G01 X14.4143 Y10.3333
G01 X14.4010 Y10.3549
G01 X14.3893 Y10.3775
G01 X14.3824 Y10.3930
G01 X14.3764 Y10.4088
G01 X14.3711 Y10.4249
G01 X14.3647 Y10.4495
G01 X14.3615 Y10.4661
G01 X14.3491 Y10.5520
G01 X14.3475 Y10.5689
G01 X14.3468 Y10.5943
G01 X14.3473 Y10.6112
G01 X14.3487 Y10.6282
G01 X14.3153 Y10.6203
G01 X14.2988 Y10.6175
G01 X14.2663 Y10.6127
G01 X14.2412 Y10.6106
G01 X14.2000 Y10.6090
G01 X13.1000 Y10.6090
G01 X13.0833 Y10.6094
G01 X13.0504 Y10.6111
G01 X13.0255 Y10.6139
G01 X12.9847 Y10.6203
G01 X12.9446 Y10.6299
G01 X12.9205 Y10.6369
G01 X12.8894 Y10.6479
G01 X12.8661 Y10.6572
G01 X12.8288 Y10.6749
G01 X12.8141 Y10.6828
G01 X12.7787 Y10.7040
G01 X12.7580 Y10.7182
G01 X12.7250 Y10.7431
G01 X12.6942 Y10.7705
G01 X12.6821 Y10.7821
G01 X12.6705 Y10.7942
G01 X12.6431 Y10.8250
G01 X12.6182 Y10.8580
G01 X12.6086 Y10.8716
G01 X12.5996 Y10.8858
G01 X12.5828 Y10.9141
G01 X12.5749 Y10.9288
G01 X12.5607 Y10.9585
G01 X12.5508 Y10.9816
G01 X12.5397 Y11.0125
G01 X12.5344 Y11.0284
G01 X12.5299 Y11.0446
G01 X12.5221 Y11.0765
G01 X12.5175 Y11.1012
G01 X12.5118 Y11.1421
G01 X12.5106 Y11.1588
G01 X12.5091 Y11.1916
G01 X12.5090 Y13.7000
G01 X12.5094 Y13.7167
G01 X12.5109 Y13.7460
G01 X12.4912 Y13.7417
G01 X12.4139 Y13.7290
G01 X12.3971 Y13.7267
G01 X12.3802 Y13.7252
G01 X12.3633 Y13.7246
G01 X12.3379 Y13.7252
G01 X12.3210 Y13.7267
G01 X12.2959 Y13.7304
G01 X12.2712 Y13.7361
G01 X12.2549 Y13.7409
G01 X12.2389 Y13.7464
G01 X12.2232 Y13.7528
G01 X12.1591 Y13.7806
G01 X12.1362 Y13.7916
G01 X12.1214 Y13.7999
G01 X12.1071 Y13.8089
G01 X12.0910 Y13.8202
G01 X12.0910 Y12.2000
G01 X12.0906 Y12.1833
G01 X12.0882 Y12.1421
G01 X12.0825 Y12.1012
G01 X12.0797 Y12.0847
G01 X12.0760 Y12.0684
G01 X12.0656 Y12.0284
G01 X12.0521 Y11.9894
G01 X12.0460 Y11.9738
G01 X12.0288 Y11.9363
G01 X12.0172 Y11.9141
G01 X11.9960 Y11.8787
G01 X11.9867 Y11.8647
G01 X11.9621 Y11.8316
G01 X11.9459 Y11.8124
G01 X11.9179 Y11.7821
G01 X11.8876 Y11.7541
G01 X11.8684 Y11.7379
G01 X11.8412 Y11.7176
G01 X11.8412 Y11.4422
G01 X12.9922 Y10.2912
G01 X14.4473 Y10.2912
G00 Z2.0000
G00 X14.5088 Y12.7589
G01 F25.00
G01 Z-0.0499
G01 F100.00
G01 X14.8912 Y12.7589
G01 X14.8912 Y13.7470
G01 X14.8817 Y13.8403
G01 X14.8307 Y13.9941
G01 X14.7459 Y14.1316
G01 X14.6316 Y14.2459
G01 X14.4941 Y14.3307
G01 X14.3403 Y14.3817
G01 X14.2470 Y14.3912
G01 X13.9589 Y14.3912
G01 X13.9589 Y14.0088
G01 X14.2000 Y14.0088
G01 X14.2288 Y14.0074
G01 X14.2574 Y14.0034
G01 X14.2631 Y14.0022
G01 X14.2896 Y13.9955
G01 X14.3182 Y13.9853
G01 X14.3456 Y13.9723
G01 X14.3716 Y13.9568
G01 X14.3959 Y13.9387
G01 X14.4203 Y13.9163
G01 X14.4387 Y13.8959
G01 X14.4551 Y13.8739
G01 X14.4709 Y13.8481
G01 X14.4853 Y13.8182
G01 X14.4951 Y13.7910
G01 X14.5022 Y13.7631
G01 X14.5034 Y13.7574
G01 X14.5073 Y13.7303
G01 X14.5088 Y13.7014
G01 X14.5088 Y12.7589
G00 Z2.0000
G00 X14.6029 Y12.8530
G01 F25.00
G01 Z-0.0499
G01 F100.00
G01 X14.7971 Y12.8530
G01 X14.7971 Y13.7422
G01 X14.7891 Y13.8205
G01 X14.7449 Y13.9541
G01 X14.6716 Y14.0729
G01 X14.5729 Y14.1716
G01 X14.4541 Y14.2449
G01 X14.3205 Y14.2891
G01 X14.2422 Y14.2971
G01 X14.0530 Y14.2971
G01 X14.0530 Y14.1029
G01 X14.2038 Y14.1028
G01 X14.2320 Y14.1015
G01 X14.2432 Y14.1005
G01 X14.2786 Y14.0951
G01 X14.3169 Y14.0855
G01 X14.3542 Y14.0722
G01 X14.3832 Y14.0587
G01 X14.3932 Y14.0535
G01 X14.4207 Y14.0370
G01 X14.4300 Y14.0307
G01 X14.4497 Y14.0160
G01 X14.4585 Y14.0090
G01 X14.4794 Y13.9901
G01 X14.4901 Y13.9794
G01 X14.5065 Y13.9613
G01 X14.5138 Y13.9527
G01 X14.5307 Y13.9300
G01 X14.5370 Y13.9207
G01 X14.5553 Y13.8899
G01 X14.5692 Y13.8610
G01 X14.5736 Y13.8507
G01 X14.5855 Y13.8169
G01 X14.5951 Y13.7786
G01 X14.6009 Y13.7395
G01 X14.6028 Y13.7038
G01 X14.6029 Y12.8530
G00 Z2.0000
G00 X14.6970 Y12.9471
G01 F25.00
G01 Z-0.0499
G01 F100.00
G01 X14.7030 Y12.9471
G01 X14.7030 Y13.7374
G01 X14.6966 Y13.8007
G01 X14.6590 Y13.9140
G01 X14.5973 Y14.0141
G01 X14.5141 Y14.0973
G01 X14.4140 Y14.1590
G01 X14.3007 Y14.1966
G01 X14.2374 Y14.2030
G01 X14.1471 Y14.2030
G01 X14.1471 Y14.1970
G01 X14.2061 Y14.1969
G01 X14.2487 Y14.1946
G01 X14.2850 Y14.1895
G01 X14.2970 Y14.1874
G01 X14.3326 Y14.1788
G01 X14.3443 Y14.1756
G01 X14.3558 Y14.1718
G01 X14.3846 Y14.1614
G01 X14.3957 Y14.1567
G01 X14.4343 Y14.1383
G01 X14.4659 Y14.1197
G01 X14.4761 Y14.1132
G01 X14.4860 Y14.1062
G01 X14.5105 Y14.0879
G01 X14.5199 Y14.0803
G01 X14.5514 Y14.0514
G01 X14.5803 Y14.0199
G01 X14.5879 Y14.0105
G01 X14.6062 Y13.9860
G01 X14.6132 Y13.9761
G01 X14.6197 Y13.9659
G01 X14.6383 Y13.9343
G01 X14.6567 Y13.8957
G01 X14.6635 Y13.8789
G01 X14.6756 Y13.8443
G01 X14.6862 Y13.8029
G01 X14.6895 Y13.7850
G01 X14.6939 Y13.7547
G01 X14.6951 Y13.7427
G01 X14.6967 Y13.7121
G01 X14.6970 Y13.7000
G01 X14.6970 Y12.9471
G00 Z2.0000
G00 X10.3149 Y17.0986
G01 F25.00
G01 Z-0.0499
G01 F100.00
G01 X10.2828 Y17.0939
G01 X10.2613 Y17.0921
G01 X10.2505 Y17.0915
G01 X10.2289 Y17.0912
G01 X10.2181 Y17.0915
G01 X10.1965 Y17.0929
G01 X10.1851 Y17.0940
G01 X10.1851 Y12.3036
G01 X10.1999 Y12.3058
G01 X10.2211 Y12.3081
G01 X10.2318 Y12.3088
G01 X10.2532 Y12.3095
G01 X10.2746 Y12.3092
G01 X10.2852 Y12.3086
G01 X10.3149 Y12.3059
G01 X10.3149 Y17.0986
G00 Z2.0000
G00 X10.4092 Y17.2134
G01 F25.00
G01 Z-0.0499
G01 F100.00
G01 X10.3912 Y17.2080
G01 X10.3664 Y17.2024
G01 X10.2891 Y17.1897
G01 X10.2639 Y17.1866
G01 X10.2470 Y17.1855
G01 X10.2301 Y17.1853
G01 X10.2131 Y17.1860
G01 X10.1963 Y17.1874
G01 X10.1795 Y17.1897
G01 X10.1628 Y17.1929
G01 X10.1464 Y17.1968
G01 X10.1301 Y17.2016
G01 X10.1141 Y17.2072
G01 X10.0906 Y17.2169
G01 X10.0910 Y17.2000
G01 X10.0910 Y12.2000
G01 X10.0908 Y12.1868
G01 X10.1082 Y12.1920
G01 X10.1247 Y12.1959
G01 X10.1604 Y12.2022
G01 X10.1874 Y12.2084
G01 X10.2041 Y12.2114
G01 X10.2209 Y12.2136
G01 X10.2378 Y12.2149
G01 X10.2632 Y12.2154
G01 X10.2801 Y12.2147
G01 X10.3032 Y12.2126
G01 X10.3200 Y12.2103
G01 X10.3366 Y12.2071
G01 X10.3531 Y12.2032
G01 X10.3693 Y12.1984
G01 X10.3853 Y12.1928
G01 X10.4094 Y12.1828
G01 X10.4090 Y12.2000
G01 X10.4090 Y17.2000
G01 X10.4092 Y17.2134
G00 Z2.0000
G00 X6.4090 Y13.8256
G01 F25.00
G01 Z-0.0499
G01 F100.00
G01 X6.3939 Y13.8126
G01 X6.3737 Y13.7972
G01 X6.3524 Y13.7833
G01 X6.3301 Y13.7711
G01 X6.3070 Y13.7605
G01 X6.2832 Y13.7517
G01 X6.2588 Y13.7447
G01 X6.2422 Y13.7411
G01 X6.2255 Y13.7383
G01 X6.1480 Y13.7272
G01 X6.1227 Y13.7252
G01 X6.0973 Y13.7250
G01 X6.0719 Y13.7267
G01 X6.0551 Y13.7289
G01 X6.0385 Y13.7320
G01 X6.0138 Y13.7381
G01 X5.9891 Y13.7462
G01 X5.9906 Y13.7167
G01 X5.9910 Y13.7000
G01 X5.9910 Y12.0790
G01 X6.0014 Y12.0873
G01 X6.0151 Y12.0973
G01 X6.0364 Y12.1110
G01 X6.0694 Y12.1288
G01 X6.0925 Y12.1393
G01 X6.1163 Y12.1481
G01 X6.1407 Y12.1551
G01 X6.1572 Y12.1588
G01 X6.1819 Y12.1627
G01 X6.1979 Y12.1669
G01 X6.2144 Y12.1704
G01 X6.2396 Y12.1741
G01 X6.2649 Y12.1760
G01 X6.2903 Y12.1760
G01 X6.3192 Y12.1739
G01 X6.3444 Y12.1709
G01 X6.3693 Y12.1661
G01 X6.3938 Y12.1594
G01 X6.4109 Y12.1535
G01 X6.4094 Y12.1833
G01 X6.4090 Y12.2000
G01 X6.4090 Y13.8256
G00 Z2.0000
G00 X6.3149 Y13.6632
G01 F25.00
G01 Z-0.0499
G01 F100.00
G01 X6.2918 Y13.6561
G01 X6.2708 Y13.6509
G01 X6.2602 Y13.6487
G01 X6.2389 Y13.6451
G01 X6.1698 Y13.6352
G01 X6.1483 Y13.6327
G01 X6.1268 Y13.6312
G01 X6.1052 Y13.6308
G01 X6.0851 Y13.6314
G01 X6.0851 Y12.2369
G01 X6.1077 Y12.2437
G01 X6.1287 Y12.2489
G01 X6.1499 Y12.2530
G01 X6.1631 Y12.2551
G01 X6.1760 Y12.2584
G01 X6.1971 Y12.2629
G01 X6.2184 Y12.2663
G01 X6.2399 Y12.2687
G01 X6.2615 Y12.2700
G01 X6.2831 Y12.2703
G01 X6.2939 Y12.2700
G01 X6.3149 Y12.2687
G01 X6.3149 Y13.6632
G00 Z2.0000
G00 X6.2208 Y13.5475
G01 F25.00
G01 Z-0.0499
G01 F100.00
G01 X6.1792 Y13.5416
G01 X6.1792 Y12.3552
G01 X6.2057 Y12.3595
G01 X6.2208 Y12.3614
G01 X6.2208 Y13.5475
G00 Z2.0000
G00 X8.0908 Y12.1874
G01 F25.00
G01 Z-0.0499
G01 F100.00
G01 X8.1064 Y12.1928
G01 X8.1227 Y12.1975
G01 X8.1392 Y12.2013
G01 X8.1559 Y12.2044
G01 X8.1726 Y12.2066
G01 X8.2003 Y12.2086
G01 X8.2193 Y12.2115
G01 X8.2361 Y12.2134
G01 X8.2530 Y12.2145
G01 X8.2699 Y12.2147
G01 X8.2869 Y12.2140
G01 X8.3037 Y12.2126
G01 X8.3205 Y12.2103
G01 X8.3436 Y12.2061
G01 X8.3601 Y12.2025
G01 X8.3765 Y12.1980
G01 X8.3926 Y12.1928
G01 X8.4093 Y12.1863
G01 X8.4090 Y12.2000
G01 X8.4090 Y17.2000
G01 X8.4092 Y17.2132
G01 X8.3918 Y17.2080
G01 X8.3670 Y17.2024
G01 X8.2897 Y17.1897
G01 X8.2729 Y17.1874
G01 X8.2560 Y17.1859
G01 X8.2306 Y17.1853
G01 X8.2137 Y17.1860
G01 X8.1968 Y17.1874
G01 X8.1717 Y17.1912
G01 X8.1552 Y17.1948
G01 X8.1388 Y17.1991
G01 X8.1227 Y17.2043
G01 X8.1068 Y17.2103
G01 X8.0906 Y17.2172
G01 X8.0910 Y17.2000
G01 X8.0910 Y12.2000
G01 X8.0908 Y12.1874
G00 Z2.0000
G00 X8.1851 Y12.3019
G01 F25.00
G01 Z-0.0499
G01 F100.00
G01 X8.1900 Y12.3022
G01 X8.2172 Y12.3061
G01 X8.2279 Y12.3071
G01 X8.2495 Y12.3085
G01 X8.2711 Y12.3088
G01 X8.2819 Y12.3085
G01 X8.3035 Y12.3071
G01 X8.3149 Y12.3060
G01 X8.3149 Y17.0985
G01 X8.2834 Y17.0939
G01 X8.2619 Y17.0921
G01 X8.2511 Y17.0915
G01 X8.2403 Y17.0912
G01 X8.2187 Y17.0915
G01 X8.1971 Y17.0929
G01 X8.1851 Y17.0941
G01 X8.1851 Y12.3019
G00 Z2.0000
G00 X6.8470 Y9.4735
G01 F25.00
G01 Z-0.0499
G01 F100.00
G01 X6.8028 Y9.4526
G01 X6.7928 Y9.4474
G01 X6.7214 Y9.4046
G01 X6.7120 Y9.3985
G01 X6.6392 Y9.3443
G01 X6.5718 Y9.2835
G01 X6.5640 Y9.2754
G01 X6.5106 Y9.2165
G01 X6.5011 Y9.2049
G01 X6.4494 Y9.1349
G01 X6.4026 Y9.0572
G01 X6.3974 Y9.0472
G01 X6.3635 Y8.9753
G01 X6.3577 Y8.9615
G01 X6.3286 Y8.8795
G01 X6.3056 Y8.7878
G01 X6.2927 Y8.7018
G01 X6.2912 Y8.6869
G01 X6.2871 Y8.6000
G01 X6.2914 Y8.5094
G01 X6.2927 Y8.4982
G01 X6.3043 Y8.4195
G01 X6.3073 Y8.4048
G01 X6.3286 Y8.3205
G01 X6.3604 Y8.2315
G01 X6.4008 Y8.1461
G01 X6.4454 Y8.0714
G01 X6.4537 Y8.0589
G01 X6.5057 Y7.9892
G01 X6.5640 Y7.9246
G01 X6.5746 Y7.9140
G01 X6.6392 Y7.8557
G01 X6.7151 Y7.7994
G01 X6.7896 Y7.7545
G01 X6.8028 Y7.7474
G01 X6.8815 Y7.7104
G01 X6.9669 Y7.6797
G01 X6.9777 Y7.6766
G01 X7.0622 Y7.6556
G01 X7.1482 Y7.6427
G01 X7.1631 Y7.6412
G01 X7.2425 Y7.6373
G01 X7.2575 Y7.6373
G01 X7.3444 Y7.6418
G01 X7.4378 Y7.6556
G01 X7.5295 Y7.6786
G01 X7.6115 Y7.7077
G01 X7.6219 Y7.7119
G01 X7.7039 Y7.7508
G01 X7.7849 Y7.7994
G01 X7.8608 Y7.8557
G01 X7.9282 Y7.9165
G01 X7.9360 Y7.9246
G01 X7.9943 Y7.9892
G01 X8.0485 Y8.0620
G01 X8.0546 Y8.0714
G01 X8.0974 Y8.1428
G01 X8.1026 Y8.1528
G01 X8.1235 Y8.1970
G01 X12.2331 Y8.1970
G01 X13.1771 Y7.2529
G01 X13.1742 Y7.2427
G01 X13.1557 Y7.1679
G01 X13.1442 Y7.0918
G01 X13.1427 Y7.0769
G01 X13.1393 Y7.0075
G01 X13.1393 Y6.9925
G01 X13.1433 Y6.9156
G01 X13.1557 Y6.8321
G01 X13.1762 Y6.7501
G01 X13.2047 Y6.6706
G01 X13.2408 Y6.5942
G01 X13.2802 Y6.5281
G01 X13.2885 Y6.5156
G01 X13.3299 Y6.4598
G01 X13.3394 Y6.4482
G01 X13.3913 Y6.3913
G01 X13.4539 Y6.3345
G01 X13.5217 Y6.2842
G01 X13.5909 Y6.2426
G01 X13.6009 Y6.2374
G01 X13.6706 Y6.2047
G01 X13.7501 Y6.1762
G01 X13.8321 Y6.1557
G01 X13.9082 Y6.1442
G01 X13.9231 Y6.1427
G01 X13.9925 Y6.1393
G01 X14.0075 Y6.1393
G01 X14.0844 Y6.1433
G01 X14.1606 Y6.1544
G01 X14.1753 Y6.1573
G01 X14.2499 Y6.1762
G01 X14.3294 Y6.2047
G01 X14.4058 Y6.2408
G01 X14.4783 Y6.2842
G01 X14.5461 Y6.3345
G01 X14.6033 Y6.3861
G01 X14.6139 Y6.3967
G01 X14.6655 Y6.4539
G01 X14.7115 Y6.5156
G01 X14.7198 Y6.5281
G01 X14.7555 Y6.5877
G01 X14.7626 Y6.6009
G01 X14.7953 Y6.6706
G01 X14.8227 Y6.7465
G01 X14.8258 Y6.7573
G01 X14.8427 Y6.8247
G01 X14.8456 Y6.8394
G01 X14.8567 Y6.9156
G01 X14.8607 Y6.9925
G01 X14.8607 Y7.0075
G01 X14.8567 Y7.0844
G01 X14.8456 Y7.1606
G01 X14.8427 Y7.1753
G01 X14.8238 Y7.2499
G01 X14.7980 Y7.3224
G01 X14.7923 Y7.3363
G01 X14.7592 Y7.4058
G01 X14.7198 Y7.4719
G01 X14.7115 Y7.4844
G01 X14.6655 Y7.5461
G01 X14.6087 Y7.6087
G01 X14.5461 Y7.6655
G01 X14.4844 Y7.7115
G01 X14.4719 Y7.7198
G01 X14.4058 Y7.7592
G01 X14.3363 Y7.7923
G01 X14.3224 Y7.7980
G01 X14.2499 Y7.8238
G01 X14.1753 Y7.8427
G01 X14.1606 Y7.8456
G01 X14.0844 Y7.8567
G01 X14.0075 Y7.8607
G01 X13.9925 Y7.8607
G01 X13.9156 Y7.8567
G01 X13.8394 Y7.8456
G01 X13.8247 Y7.8427
G01 X13.7573 Y7.8258
G01 X13.7471 Y7.8229
G01 X12.6823 Y8.8876
G01 X12.6557 Y8.9115
G01 X12.6239 Y8.9351
G01 X12.5900 Y8.9554
G01 X12.5611 Y8.9693
G01 X12.5507 Y8.9737
G01 X12.5170 Y8.9857
G01 X12.4786 Y8.9953
G01 X12.4395 Y9.0011
G01 X12.4000 Y9.0030
G01 X8.1235 Y9.0030
G01 X8.1026 Y9.0472
G01 X8.0974 Y9.0572
G01 X8.0546 Y9.1286
G01 X8.0485 Y9.1380
G01 X7.9943 Y9.2108
G01 X7.9309 Y9.2809
G01 X7.8608 Y9.3443
G01 X7.7880 Y9.3985
G01 X7.7786 Y9.4046
G01 X7.7072 Y9.4474
G01 X7.6972 Y9.4526
G01 X7.6530 Y9.4735
G01 X7.6530 Y11.8273
G01 X7.6832 Y11.8413
G01 X7.6964 Y11.8484
G01 X7.7238 Y11.8650
G01 X7.7556 Y11.8886
G01 X7.7849 Y11.9151
G01 X7.8065 Y11.9387
G01 X7.8160 Y11.9503
G01 X7.8350 Y11.9762
G01 X7.8553 Y12.0101
G01 X7.8692 Y12.0390
G01 X7.8749 Y12.0528
G01 X7.8855 Y12.0831
G01 X7.8935 Y12.1141
G01 X7.8964 Y12.1288
G01 X7.9009 Y12.1605
G01 X7.9028 Y12.1962
G01 X7.9028 Y17.2038
G01 X7.9009 Y17.2395
G01 X7.8951 Y17.2786
G01 X7.8855 Y17.3169
G01 X7.8722 Y17.3542
G01 X7.8553 Y17.3899
G01 X7.8350 Y17.4238
G01 X7.8114 Y17.4556
G01 X7.7901 Y17.4794
G01 X7.7822 Y17.4875
G01 X7.7613 Y17.5065
G01 X7.7497 Y17.5160
G01 X7.7300 Y17.5307
G01 X7.7207 Y17.5370
G01 X7.6932 Y17.5535
G01 X7.6832 Y17.5587
G01 X7.6610 Y17.5692
G01 X7.6507 Y17.5736
G01 X7.6241 Y17.5832
G01 X7.6133 Y17.5866
G01 X7.5786 Y17.5951
G01 X7.5469 Y17.6000
G01 X7.5358 Y17.6013
G01 X7.5000 Y17.6029
G01 X6.9925 Y17.6027
G01 X6.9605 Y17.6009
G01 X6.9214 Y17.5951
G01 X6.8831 Y17.5855
G01 X6.8493 Y17.5736
G01 X6.8390 Y17.5692
G01 X6.8168 Y17.5587
G01 X6.8068 Y17.5535
G01 X6.7762 Y17.5350
G01 X6.7503 Y17.5160
G01 X6.7387 Y17.5065
G01 X6.7151 Y17.4849
G01 X6.6935 Y17.4613
G01 X6.6840 Y17.4497
G01 X6.6650 Y17.4238
G01 X6.6465 Y17.3932
G01 X6.6413 Y17.3832
G01 X6.6308 Y17.3610
G01 X6.6264 Y17.3507
G01 X6.6145 Y17.3169
G01 X6.6065 Y17.2859
G01 X6.6036 Y17.2712
G01 X6.6000 Y17.2469
G01 X6.5987 Y17.2358
G01 X6.5971 Y17.2000
G01 X6.5972 Y12.1962
G01 X6.5991 Y12.1605
G01 X6.6036 Y12.1288
G01 X6.6065 Y12.1141
G01 X6.6145 Y12.0831
G01 X6.6251 Y12.0528
G01 X6.6308 Y12.0390
G01 X6.6447 Y12.0101
G01 X6.6650 Y11.9762
G01 X6.6886 Y11.9444
G01 X6.7099 Y11.9206
G01 X6.7206 Y11.9099
G01 X6.7444 Y11.8886
G01 X6.7762 Y11.8650
G01 X6.8036 Y11.8484
G01 X6.8168 Y11.8413
G01 X6.8470 Y11.8273
G01 X6.8470 Y9.4735
G00 Z2.0000
G00 X6.9411 Y9.4112
G01 F25.00
G01 Z-0.0499
G01 F100.00
G01 X6.9162 Y9.4021
G01 X6.8392 Y9.3655
G01 X6.7673 Y9.3224
G01 X6.7000 Y9.2725
G01 X6.6378 Y9.2163
G01 X6.6337 Y9.2122
G01 X6.5784 Y9.1512
G01 X6.5284 Y9.0839
G01 X6.4852 Y9.0121
G01 X6.4825 Y9.0070
G01 X6.4473 Y8.9325
G01 X6.4186 Y8.8522
G01 X6.3979 Y8.7695
G01 X6.3857 Y8.6880
G01 X6.3852 Y8.6823
G01 X6.3812 Y8.5986
G01 X6.3854 Y8.5148
G01 X6.3974 Y8.4333
G01 X6.3985 Y8.4277
G01 X6.4186 Y8.3478
G01 X6.4473 Y8.2675
G01 X6.4825 Y8.1930
G01 X6.4852 Y8.1879
G01 X6.5261 Y8.1198
G01 X6.5293 Y8.1150
G01 X6.5784 Y8.0488
G01 X6.6357 Y7.9857
G01 X6.6988 Y7.9284
G01 X6.7650 Y7.8793
G01 X6.7698 Y7.8761
G01 X6.8379 Y7.8352
G01 X6.8430 Y7.8325
G01 X6.9175 Y7.7973
G01 X6.9964 Y7.7690
G01 X7.0805 Y7.7479
G01 X7.1648 Y7.7354
G01 X7.2500 Y7.7312
G01 X7.3352 Y7.7354
G01 X7.4195 Y7.7479
G01 X7.5022 Y7.7686
G01 X7.5825 Y7.7973
G01 X7.6583 Y7.8331
G01 X7.7327 Y7.8776
G01 X7.8012 Y7.9284
G01 X7.8643 Y7.9857
G01 X7.9207 Y8.0477
G01 X7.9724 Y8.1173
G01 X8.0155 Y8.1892
G01 X8.0521 Y8.2662
G01 X8.0612 Y8.2911
G01 X12.2720 Y8.2911
G01 X13.2857 Y7.2774
G01 X13.2662 Y7.2226
G01 X13.2479 Y7.1496
G01 X13.2369 Y7.0752
G01 X13.2333 Y7.0029
G01 X13.2333 Y6.9971
G01 X13.2367 Y6.9277
G01 X13.2372 Y6.9220
G01 X13.2479 Y6.8504
G01 X13.2667 Y6.7760
G01 X13.2916 Y6.7066
G01 X13.3237 Y6.6385
G01 X13.3624 Y6.5740
G01 X13.4055 Y6.5158
G01 X13.4091 Y6.5114
G01 X13.4578 Y6.4578
G01 X13.5114 Y6.4091
G01 X13.5158 Y6.4055
G01 X13.5716 Y6.3641
G01 X13.5764 Y6.3609
G01 X13.6385 Y6.3237
G01 X13.7039 Y6.2927
G01 X13.7093 Y6.2905
G01 X13.7747 Y6.2671
G01 X13.7802 Y6.2654
G01 X13.8504 Y6.2479
G01 X13.9248 Y6.2369
G01 X14.0000 Y6.2332
G01 X14.0723 Y6.2367
G01 X14.0780 Y6.2372
G01 X14.1496 Y6.2479
G01 X14.2198 Y6.2654
G01 X14.2253 Y6.2671
G01 X14.2907 Y6.2905
G01 X14.2961 Y6.2927
G01 X14.3615 Y6.3237
G01 X14.4260 Y6.3624
G01 X14.4865 Y6.4073
G01 X14.5401 Y6.4558
G01 X14.5442 Y6.4599
G01 X14.5927 Y6.5135
G01 X14.6359 Y6.5716
G01 X14.6391 Y6.5764
G01 X14.6748 Y6.6360
G01 X14.6776 Y6.6411
G01 X14.7084 Y6.7066
G01 X14.7333 Y6.7760
G01 X14.7514 Y6.8476
G01 X14.7526 Y6.8532
G01 X14.7631 Y6.9248
G01 X14.7667 Y6.9971
G01 X14.7667 Y7.0029
G01 X14.7631 Y7.0752
G01 X14.7526 Y7.1468
G01 X14.7514 Y7.1524
G01 X14.7338 Y7.2226
G01 X14.7095 Y7.2907
G01 X14.7073 Y7.2961
G01 X14.6763 Y7.3615
G01 X14.6376 Y7.4260
G01 X14.5945 Y7.4842
G01 X14.5909 Y7.4886
G01 X14.5412 Y7.5432
G01 X14.4865 Y7.5927
G01 X14.4284 Y7.6359
G01 X14.4236 Y7.6391
G01 X14.3615 Y7.6763
G01 X14.2934 Y7.7084
G01 X14.2253 Y7.7329
G01 X14.2198 Y7.7346
G01 X14.1496 Y7.7521
G01 X14.0752 Y7.7631
G01 X14.0029 Y7.7667
G01 X13.9971 Y7.7667
G01 X13.9248 Y7.7631
G01 X13.8532 Y7.7526
G01 X13.8476 Y7.7514
G01 X13.7774 Y7.7338
G01 X13.7226 Y7.7143
G01 X12.6174 Y8.8195
G01 X12.5960 Y8.8388
G01 X12.5716 Y8.8569
G01 X12.5456 Y8.8724
G01 X12.5155 Y8.8864
G01 X12.4897 Y8.8956
G01 X12.4603 Y8.9030
G01 X12.4303 Y8.9074
G01 X12.4000 Y8.9089
G01 X8.0612 Y8.9089
G01 X8.0521 Y8.9338
G01 X8.0169 Y9.0083
G01 X7.9732 Y9.0815
G01 X7.9216 Y9.1512
G01 X7.8643 Y9.2143
G01 X7.8012 Y9.2716
G01 X7.7315 Y9.3232
G01 X7.6583 Y9.3669
G01 X7.5838 Y9.4021
G01 X7.5589 Y9.4112
G01 X7.5589 Y11.8969
G01 X7.5896 Y11.9045
G01 X7.6155 Y11.9137
G01 X7.6430 Y11.9264
G01 X7.6481 Y11.9291
G01 X7.6716 Y11.9432
G01 X7.6959 Y11.9613
G01 X7.7184 Y11.9816
G01 X7.7387 Y12.0041
G01 X7.7568 Y12.0284
G01 X7.7709 Y12.0519
G01 X7.7841 Y12.0792
G01 X7.7863 Y12.0845
G01 X7.7955 Y12.1104
G01 X7.8029 Y12.1398
G01 X7.8073 Y12.1697
G01 X7.8088 Y12.1986
G01 X7.8088 Y17.2000
G01 X7.8073 Y17.2303
G01 X7.8029 Y17.2602
G01 X7.7955 Y17.2896
G01 X7.7853 Y17.3182
G01 X7.7723 Y17.3456
G01 X7.7568 Y17.3716
G01 X7.7387 Y17.3959
G01 X7.7203 Y17.4163
G01 X7.6981 Y17.4368
G01 X7.6936 Y17.4405
G01 X7.6716 Y17.4568
G01 X7.6430 Y17.4736
G01 X7.6182 Y17.4853
G01 X7.5896 Y17.4955
G01 X7.5602 Y17.5029
G01 X7.5288 Y17.5074
G01 X7.5000 Y17.5088
G01 X6.9986 Y17.5088
G01 X6.9697 Y17.5073
G01 X6.9426 Y17.5034
G01 X6.9369 Y17.5022
G01 X6.9090 Y17.4951
G01 X6.8818 Y17.4853
G01 X6.8570 Y17.4736
G01 X6.8284 Y17.4568
G01 X6.8019 Y17.4368
G01 X6.7816 Y17.4184
G01 X6.7613 Y17.3959
G01 X6.7432 Y17.3716
G01 X6.7291 Y17.3481
G01 X6.7147 Y17.3182
G01 X6.7045 Y17.2896
G01 X6.6978 Y17.2631
G01 X6.6966 Y17.2574
G01 X6.6926 Y17.2288
G01 X6.6912 Y17.2000
G01 X6.6912 Y12.1986
G01 X6.6927 Y12.1697
G01 X6.6971 Y12.1398
G01 X6.7045 Y12.1104
G01 X6.7137 Y12.0845
G01 X6.7264 Y12.0570
G01 X6.7291 Y12.0519
G01 X6.7432 Y12.0284
G01 X6.7613 Y12.0041
G01 X6.7816 Y11.9816
G01 X6.8041 Y11.9613
G01 X6.8284 Y11.9432
G01 X6.8519 Y11.9291
G01 X6.8792 Y11.9159
G01 X6.8845 Y11.9137
G01 X6.9104 Y11.9045
G01 X6.9411 Y11.8969
G01 X6.9411 Y9.4112
G00 Z2.0000
G00 X5.3470 Y10.7030
G01 F25.00
G01 Z-0.0499
G01 F100.00
G01 X5.3470 Y10.6970
G01 X5.4374 Y10.6970
G01 X5.5007 Y10.7034
G01 X5.6140 Y10.7410
G01 X5.7141 Y10.8027
G01 X5.7973 Y10.8859
G01 X5.8590 Y10.9860
G01 X5.8966 Y11.0993
G01 X5.9030 Y11.1626
G01 X5.9030 Y11.7112
G01 X5.9037 Y11.7289
G01 X5.9056 Y11.7464
G01 X5.9075 Y11.7580
G01 X5.9100 Y11.7695
G01 X5.9169 Y11.7938
G01 X5.9202 Y11.8132
G01 X5.9229 Y11.8251
G01 X5.9280 Y11.8428
G01 X5.9344 Y11.8601
G01 X5.9393 Y11.8713
G01 X5.9449 Y11.8822
G01 X5.9603 Y11.9092
G01 X5.9706 Y11.9244
G01 X5.9781 Y11.9341
G01 X5.9861 Y11.9434
G01 X5.9989 Y11.9567
G01 X6.0182 Y11.9738
G01 X6.0315 Y11.9882
G01 X6.0402 Y11.9969
G01 X6.0540 Y12.0090
G01 X6.0687 Y12.0200
G01 X6.0790 Y12.0268
G01 X6.0895 Y12.0330
G01 X6.1116 Y12.0447
G01 X6.1227 Y12.0499
G01 X6.1398 Y12.0567
G01 X6.1514 Y12.0606
G01 X6.1633 Y12.0638
G01 X6.1813 Y12.0675
G01 X6.2007 Y12.0704
G01 X6.2198 Y12.0754
G01 X6.2318 Y12.0779
G01 X6.2439 Y12.0799
G01 X6.2560 Y12.0812
G01 X6.2683 Y12.0820
G01 X6.2867 Y12.0820
G01 X6.3116 Y12.0801
G01 X6.3238 Y12.0788
G01 X6.3359 Y12.0769
G01 X6.3479 Y12.0744
G01 X6.3656 Y12.0696
G01 X6.3772 Y12.0656
G01 X6.3886 Y12.0611
G01 X6.4065 Y12.0530
G01 X6.4252 Y12.0469
G01 X6.4367 Y12.0426
G01 X6.4479 Y12.0377
G01 X6.4643 Y12.0293
G01 X6.4748 Y12.0231
G01 X6.4900 Y12.0127
G01 X6.5095 Y11.9977
G01 X6.5234 Y11.9858
G01 X6.5467 Y11.9623
G01 X6.5606 Y11.9468
G01 X6.5694 Y11.9360
G01 X6.5793 Y11.9225
G01 X6.6023 Y11.8856
G01 X6.6421 Y11.8458
G01 X6.6544 Y11.8326
G01 X6.6693 Y11.8141
G01 X6.6761 Y11.8045
G01 X6.6824 Y11.7946
G01 X6.6910 Y11.7792
G01 X6.6961 Y11.7686
G01 X6.7052 Y11.7475
G01 X6.7190 Y11.7217
G01 X6.7240 Y11.7107
G01 X6.7284 Y11.6994
G01 X6.7341 Y11.6821
G01 X6.7371 Y11.6704
G01 X6.7406 Y11.6525
G01 X6.7443 Y11.6280
G01 X6.7461 Y11.6010
G01 X6.7465 Y11.5878
G01 X6.7465 Y9.7378
G01 X6.7462 Y9.7260
G01 X6.7453 Y9.7143
G01 X6.7439 Y9.7026
G01 X6.7420 Y9.6910
G01 X6.7380 Y9.6739
G01 X6.7168 Y9.6012
G01 X6.7130 Y9.5895
G01 X6.7063 Y9.5724
G01 X6.6984 Y9.5558
G01 X6.6893 Y9.5399
G01 X6.6825 Y9.5297
G01 X6.6753 Y9.5198
G01 X6.6635 Y9.5057
G01 X6.6199 Y9.4597
G01 X6.6114 Y9.4520
G01 X6.5981 Y9.4411
G01 X6.5572 Y9.4112
G01 X6.4388 Y9.2929
G01 X6.3404 Y9.1574
G01 X6.2644 Y9.0083
G01 X6.2126 Y8.8491
G01 X6.1865 Y8.6837
G01 X6.1865 Y8.5163
G01 X6.2126 Y8.3510
G01 X6.2644 Y8.1917
G01 X6.3404 Y8.0426
G01 X6.4388 Y7.9072
G01 X6.5572 Y7.7888
G01 X6.6926 Y7.6904
G01 X6.8417 Y7.6144
G01 X7.0009 Y7.5626
G01 X7.1663 Y7.5365
G01 X7.3337 Y7.5365
G01 X7.4990 Y7.5626
G01 X7.6583 Y7.6144
G01 X7.8074 Y7.6904
G01 X7.9428 Y7.7888
G01 X8.0612 Y7.9072
G01 X8.0948 Y7.9529
G01 X8.1063 Y7.9662
G01 X8.1145 Y7.9747
G01 X8.1231 Y7.9827
G01 X8.1320 Y7.9903
G01 X8.1920 Y8.0366
G01 X8.2019 Y8.0439
G01 X8.2173 Y8.0538
G01 X8.2280 Y8.0597
G01 X8.2390 Y8.0652
G01 X8.2560 Y8.0722
G01 X8.2734 Y8.0781
G01 X8.2912 Y8.0826
G01 X8.3422 Y8.0922
G01 X8.3592 Y8.0948
G01 X8.3763 Y8.0962
G01 X8.3878 Y8.0965
G01 X10.3800 Y8.0965
G01 X10.3977 Y8.0958
G01 X10.4094 Y8.0947
G01 X10.4210 Y8.0930
G01 X10.4383 Y8.0895
G01 X10.5167 Y8.0668
G01 X10.5283 Y8.0630
G01 X10.5455 Y8.0563
G01 X10.5621 Y8.0484
G01 X10.5728 Y8.0424
G01 X10.5882 Y8.0325
G01 X10.5981 Y8.0252
G01 X10.6076 Y8.0175
G01 X10.6212 Y8.0050
G01 X10.6337 Y7.9915
G01 X10.6795 Y7.9387
G01 X10.6873 Y7.9293
G01 X10.6946 Y7.9194
G01 X10.7014 Y7.9092
G01 X10.7077 Y7.8987
G01 X10.7135 Y7.8879
G01 X10.7187 Y7.8768
G01 X10.7234 Y7.8655
G01 X10.7275 Y7.8539
G01 X10.7311 Y7.8422
G01 X10.7340 Y7.8303
G01 X10.7373 Y7.8122
G01 X10.7486 Y7.7312
G01 X10.7497 Y7.7135
G01 X10.7497 Y7.7016
G01 X10.7491 Y7.6898
G01 X10.7471 Y7.6721
G01 X10.7451 Y7.6604
G01 X10.7426 Y7.6488
G01 X10.7395 Y7.6374
G01 X10.7358 Y7.6261
G01 X10.7092 Y7.5597
G01 X10.7044 Y7.5487
G01 X10.6991 Y7.5380
G01 X10.6933 Y7.5275
G01 X10.6870 Y7.5173
G01 X10.6776 Y7.5040
G01 X10.6089 Y7.3691
G01 X10.5621 Y7.2252
G01 X10.5385 Y7.0757
G01 X10.5385 Y6.9243
G01 X10.5621 Y6.7748
G01 X10.6089 Y6.6309
G01 X10.6776 Y6.4960
G01 X10.7666 Y6.3736
G01 X10.8919 Y6.2482
G01 X10.8998 Y6.2395
G01 X10.9109 Y6.2257
G01 X10.9209 Y6.2113
G01 X10.9271 Y6.2012
G01 X10.9663 Y6.1294
G01 X10.9715 Y6.1185
G01 X10.9763 Y6.1074
G01 X10.9823 Y6.0902
G01 X10.9871 Y6.0727
G01 X10.9906 Y6.0548
G01 X10.9950 Y6.0165
G01 X10.9964 Y5.9967
G01 X10.9965 Y5.5124
G01 X10.9958 Y5.4948
G01 X10.9947 Y5.4831
G01 X10.9930 Y5.4715
G01 X10.9908 Y5.4599
G01 X10.9865 Y5.4428
G01 X10.9668 Y5.3758
G01 X10.9630 Y5.3641
G01 X10.9563 Y5.3470
G01 X10.9512 Y5.3359
G01 X10.9455 Y5.3250
G01 X10.9392 Y5.3145
G01 X10.9325 Y5.3042
G01 X10.9214 Y5.2895
G01 X10.9134 Y5.2802
G01 X10.9050 Y5.2713
G01 X10.8915 Y5.2587
G01 X10.8341 Y5.2091
G01 X10.8245 Y5.2015
G01 X10.8094 Y5.1911
G01 X10.7989 Y5.1849
G01 X10.7882 Y5.1791
G01 X10.7715 Y5.1715
G01 X10.7551 Y5.1649
G01 X10.6692 Y5.1328
G01 X10.6109 Y5.0891
G01 X10.5672 Y5.0308
G01 X10.5401 Y4.9582
G01 X10.5385 Y4.9426
G01 X10.5385 Y3.4574
G01 X10.5401 Y3.4418
G01 X10.5672 Y3.3692
G01 X10.6109 Y3.3109
G01 X10.6692 Y3.2672
G01 X10.7418 Y3.2401
G01 X10.7574 Y3.2385
G01 X12.2426 Y3.2385
G01 X12.2582 Y3.2401
G01 X12.3308 Y3.2672
G01 X12.3891 Y3.3109
G01 X12.4328 Y3.3692
G01 X12.4599 Y3.4418
G01 X12.4615 Y3.4574
G01 X12.4615 Y3.5563
G01 X12.4618 Y3.5680
G01 X12.4633 Y3.5856
G01 X12.4650 Y3.5972
G01 X12.4672 Y3.6088
G01 X12.4700 Y3.6202
G01 X12.4930 Y3.6987
G01 X12.4971 Y3.7103
G01 X12.5017 Y3.7217
G01 X12.5096 Y3.7383
G01 X12.5188 Y3.7542
G01 X12.5255 Y3.7645
G01 X12.5328 Y3.7744
G01 X12.5446 Y3.7885
G01 X12.5530 Y3.7974
G01 X12.5619 Y3.8059
G01 X12.6193 Y3.8557
G01 X12.6287 Y3.8635
G01 X12.6386 Y3.8708
G01 X12.6540 Y3.8809
G01 X12.6647 Y3.8869
G01 X12.6812 Y3.8950
G01 X12.6925 Y3.8996
G01 X12.7099 Y3.9056
G01 X12.7218 Y3.9088
G01 X12.7398 Y3.9126
G01 X12.8150 Y3.9234
G01 X12.8272 Y3.9249
G01 X12.8455 Y3.9259
G01 X12.8639 Y3.9256
G01 X12.8823 Y3.9239
G01 X12.8944 Y3.9220
G01 X12.9064 Y3.9195
G01 X12.9182 Y3.9164
G01 X12.9299 Y3.9127
G01 X12.9471 Y3.9061
G01 X13.0163 Y3.8746
G01 X13.0329 Y3.8662
G01 X13.0437 Y3.8600
G01 X13.0541 Y3.8532
G01 X13.0641 Y3.8458
G01 X13.0738 Y3.8380
G01 X13.0875 Y3.8254
G01 X13.1003 Y3.8118
G01 X13.1082 Y3.8022
G01 X13.1411 Y3.7600
G01 X13.1512 Y3.7453
G01 X13.1574 Y3.7352
G01 X13.1776 Y3.6960
G01 X13.2666 Y3.5736
G01 X13.3736 Y3.4666
G01 X13.4960 Y3.3776
G01 X13.6309 Y3.3089
G01 X13.7748 Y3.2621
G01 X13.9243 Y3.2385
G01 X14.0958 Y3.2385
G01 X14.1075 Y3.2382
G01 X14.1251 Y3.2367
G01 X14.1425 Y3.2340
G01 X14.1540 Y3.2315
G01 X14.1863 Y3.2223
G01 X14.2198 Y3.2147
G01 X14.2317 Y3.2111
G01 X14.2434 Y3.2070
G01 X14.2549 Y3.2023
G01 X14.2662 Y3.1969
G01 X14.2772 Y3.1911
G01 X14.2931 Y3.1816
G01 X14.3032 Y3.1750
G01 X14.3130 Y3.1679
G01 X14.3384 Y3.1475
G01 X14.3485 Y3.1389
G01 X14.3581 Y3.1298
G01 X14.5040 Y2.9839
G01 X14.5865 Y2.9288
G01 X14.6781 Y2.8908
G01 X14.7754 Y2.8715
G01 X16.7470 Y2.8715
G01 X16.7592 Y2.8712
G01 X16.7714 Y2.8703
G01 X16.7835 Y2.8687
G01 X16.7955 Y2.8666
G01 X16.8074 Y2.8640
G01 X16.8775 Y2.8445
G01 X16.8892 Y2.8409
G01 X16.9006 Y2.8368
G01 X16.9174 Y2.8295
G01 X16.9337 Y2.8211
G01 X17.0375 Y2.7584
G01 X17.1463 Y2.7245
G01 X17.1796 Y2.7215
G01 X17.8204 Y2.7215
G01 X17.8537 Y2.7245
G01 X17.9625 Y2.7584
G01 X18.0568 Y2.8154
G01 X18.1346 Y2.8932
G01 X18.1916 Y2.9875
G01 X18.2255 Y3.0963
G01 X18.2285 Y3.1296
G01 X18.2285 Y3.6204
G01 X18.2255 Y3.6537
G01 X18.1916 Y3.7625
G01 X18.1346 Y3.8568
G01 X18.0492 Y3.9423
G01 X18.0413 Y3.9510
G01 X18.0339 Y3.9600
G01 X18.0235 Y3.9743
G01 X18.0141 Y3.9892
G01 X17.9777 Y4.0556
G01 X17.9721 Y4.0665
G01 X17.9648 Y4.0834
G01 X17.9605 Y4.0949
G01 X17.9553 Y4.1125
G01 X17.9525 Y4.1245
G01 X17.9495 Y4.1426
G01 X17.9479 Y4.1610
G01 X17.9475 Y4.1732
G01 X17.9482 Y4.1916
G01 X17.9532 Y4.2613
G01 X17.9543 Y4.2736
G01 X17.9561 Y4.2858
G01 X17.9600 Y4.3039
G01 X17.9652 Y4.3217
G01 X17.9717 Y4.3390
G01 X17.9767 Y4.3503
G01 X17.9853 Y4.3667
G01 X17.9917 Y4.3772
G01 X18.0235 Y4.4265
G01 X18.0339 Y4.4407
G01 X18.0413 Y4.4498
G01 X18.0493 Y4.4585
G01 X18.1187 Y4.5280
G01 X18.1088 Y4.5280
G01 X18.0910 Y4.5090
G01 X18.0632 Y4.4834
G01 X18.0490 Y4.4720
G01 X18.0233 Y4.4534
G01 X17.9962 Y4.4368
G01 X17.9857 Y4.4308
G01 X17.9516 Y4.4145
G01 X17.9347 Y4.4077
G01 X17.9047 Y4.3973
G01 X17.8931 Y4.3941
G01 X17.8622 Y4.3866
G01 X17.8308 Y4.3817
G01 X17.8188 Y4.3802
G01 X17.7871 Y4.3783
G01 X17.7750 Y4.3780
G01 X17.2250 Y4.3780
G01 X17.2129 Y4.3783
G01 X17.1812 Y4.3802
G01 X17.1438 Y4.3855
G01 X17.1319 Y4.3879
G01 X17.1069 Y4.3941
G01 X17.0953 Y4.3973
G01 X17.0837 Y4.4011
G01 X17.0540 Y4.4121
G01 X17.0251 Y4.4254
G01 X17.0143 Y4.4308
G01 X16.9869 Y4.4469
G01 X16.9767 Y4.4534
G01 X16.9462 Y4.4757
G01 X16.9368 Y4.4834
G01 X16.9133 Y4.5047
G01 X16.9047 Y4.5133
G01 X16.8912 Y4.5280
G01 X16.8813 Y4.5280
G01 X16.9016 Y4.5076
G01 X16.9133 Y4.4944
G01 X16.9240 Y4.4804
G01 X16.9337 Y4.4657
G01 X16.9731 Y4.3942
G01 X16.9787 Y4.3833
G01 X16.9861 Y4.3665
G01 X16.9903 Y4.3549
G01 X16.9939 Y4.3432
G01 X16.9983 Y4.3254
G01 X17.0013 Y4.3072
G01 X17.0030 Y4.2889
G01 X17.0033 Y4.2705
G01 X17.0027 Y4.2582
G01 X16.9977 Y4.1885
G01 X16.9965 Y4.1763
G01 X16.9947 Y4.1642
G01 X16.9924 Y4.1522
G01 X16.9877 Y4.1344
G01 X16.9838 Y4.1227
G01 X16.9794 Y4.1113
G01 X16.9717 Y4.0946
G01 X16.9628 Y4.0785
G01 X16.9527 Y4.0631
G01 X16.9072 Y4.0022
G01 X16.8996 Y3.9926
G01 X16.8915 Y3.9834
G01 X16.8830 Y3.9745
G01 X16.8741 Y3.9661
G01 X16.8648 Y3.9582
G01 X16.8500 Y3.9472
G01 X16.8345 Y3.9373
G01 X16.8183 Y3.9285
G01 X16.8015 Y3.9211
G01 X16.7303 Y3.8944
G01 X16.7188 Y3.8904
G01 X16.7012 Y3.8856
G01 X16.6892 Y3.8830
G01 X16.6772 Y3.8811
G01 X16.6589 Y3.8793
G01 X16.6352 Y3.8785
G01 X15.3325 Y3.8785
G01 X15.3207 Y3.8788
G01 X15.3032 Y3.8803
G01 X15.2858 Y3.8830
G01 X15.2686 Y3.8870
G01 X15.1959 Y3.9082
G01 X15.1842 Y3.9120
G01 X15.1671 Y3.9187
G01 X15.1505 Y3.9266
G01 X15.1345 Y3.9358
G01 X15.1243 Y3.9425
G01 X15.1144 Y3.9498
G01 X15.1049 Y3.9575
G01 X15.0958 Y3.9657
G01 X15.0871 Y3.9744
G01 X15.0788 Y3.9835
G01 X15.0291 Y4.0410
G01 X15.0215 Y4.0507
G01 X15.0110 Y4.0660
G01 X15.0017 Y4.0820
G01 X14.9936 Y4.0986
G01 X14.9868 Y4.1158
G01 X14.9813 Y4.1335
G01 X14.9784 Y4.1455
G01 X14.9650 Y4.2085
G01 X14.9627 Y4.2260
G01 X14.9618 Y4.2377
G01 X14.9615 Y4.2757
G01 X14.9379 Y4.4252
G01 X14.8911 Y4.5691
G01 X14.8722 Y4.6067
G01 X14.8656 Y4.6230
G01 X14.8601 Y4.6398
G01 X14.8558 Y4.6569
G01 X14.8418 Y4.7313
G01 X14.8390 Y4.7495
G01 X14.8380 Y4.7617
G01 X14.8375 Y4.7740
G01 X14.8377 Y4.7863
G01 X14.8391 Y4.8046
G01 X14.8408 Y4.8167
G01 X14.8430 Y4.8288
G01 X14.8459 Y4.8407
G01 X14.8494 Y4.8525
G01 X14.8534 Y4.8641
G01 X14.8819 Y4.9345
G01 X14.8868 Y4.9458
G01 X14.8923 Y4.9568
G01 X14.9014 Y4.9727
G01 X14.9118 Y4.9879
G01 X14.9232 Y5.0023
G01 X14.9357 Y5.0158
G01 X14.9491 Y5.0284
G01 X14.9635 Y5.0399
G01 X15.0256 Y5.0837
G01 X15.0411 Y5.0938
G01 X15.0573 Y5.1027
G01 X15.0742 Y5.1104
G01 X15.0915 Y5.1168
G01 X15.1094 Y5.1218
G01 X15.1275 Y5.1255
G01 X15.1675 Y5.1322
G01 X15.1790 Y5.1338
G01 X15.1963 Y5.1352
G01 X15.2079 Y5.1355
G01 X15.4886 Y5.1355
G01 X15.5859 Y5.1548
G01 X15.6775 Y5.1928
G01 X15.7600 Y5.2479
G01 X16.1467 Y5.6346
G01 X16.1596 Y5.6466
G01 X16.1686 Y5.6541
