(G-CODE GENERATED BY FLATCAM v8.994 - www.flatcam.org - Version Date: 2020/11/7)

(Name: Zoetrope Carusel V4 - External Power Switch_V1-Edge_Cuts.gbr_cutout_1_cnc)
(Type: G-code from Geometry)
(Units: MM)

(Created on Saturday, 07 March 2026 at 13:16)

(This preprocessor is the default preprocessor used by FlatCAM.)
(It is made to work with MACH3 compatible motion controllers.)

(TOOL DIAMETER: 1.0 mm)
(Feedrate_XY: 120.0 mm/min)
(Feedrate_Z: 60.0 mm/min)
(Feedrate rapids 1500.0 mm/min)

(Z_Cut: -1.9 mm)
(DepthPerCut: 0.6 mm <=>4 passes)
(Z_Move: 2.0 mm)
(Z Start: None mm)
(Z End: 5.0 mm)
(X,Y End: None mm)
(Steps per circle: 64)
(Preprocessor Geometry: default)

(X range:   -0.3322 ...   20.9179  mm)
(Y range:   -0.1250 ...   30.6250  mm)

(Spindle Speed: 10000.0 RPM)
G21
G90
G94

G01 F120.00

M5
G00 Z15.0000
G00 X0.0000 Y0.0000
T1
M6    
(MSG, Change to Tool Dia = 1.0000)
M0
G00 Z15.0000

M03 S10000.0
G01 F120.00
G00 X8.8929 Y-0.1250
G01 F60.00
G01 Z-0.6000
G01 F120.00
G01 X0.2678 Y-0.1250
G01 X0.2090 Y-0.1221
G01 X0.1508 Y-0.1135
G01 X0.0937 Y-0.0992
G01 X0.0382 Y-0.0793
G01 X-0.0150 Y-0.0542
G01 X-0.0655 Y-0.0239
G01 X-0.1128 Y0.0112
G01 X-0.1564 Y0.0507
G01 X-0.1960 Y0.0944
G01 X-0.2310 Y0.1416
G01 X-0.2613 Y0.1921
G01 X-0.2865 Y0.2454
G01 X-0.3063 Y0.3008
G01 X-0.3206 Y0.3579
G01 X-0.3293 Y0.4162
G01 X-0.3322 Y0.4750
G01 X-0.3322 Y13.8500
G00 X-0.3322 Y13.8500
G01 F60.00
G01 Z-1.2000
G01 F120.00
G01 X-0.3322 Y0.4750
G01 X-0.3293 Y0.4162
G01 X-0.3206 Y0.3579
G01 X-0.3063 Y0.3008
G01 X-0.2865 Y0.2454
G01 X-0.2613 Y0.1921
G01 X-0.2310 Y0.1416
G01 X-0.1960 Y0.0944
G01 X-0.1564 Y0.0507
G01 X-0.1128 Y0.0112
G01 X-0.0655 Y-0.0239
G01 X-0.0150 Y-0.0542
G01 X0.0382 Y-0.0793
G01 X0.0937 Y-0.0992
G01 X0.1508 Y-0.1135
G01 X0.2090 Y-0.1221
G01 X0.2678 Y-0.1250
G01 X8.8929 Y-0.1250
G00 X8.8929 Y-0.1250
G01 F60.00
G01 Z-1.8000
G01 F120.00
G01 X0.2678 Y-0.1250
G01 X0.2090 Y-0.1221
G01 X0.1508 Y-0.1135
G01 X0.0937 Y-0.0992
G01 X0.0382 Y-0.0793
G01 X-0.0150 Y-0.0542
G01 X-0.0655 Y-0.0239
G01 X-0.1128 Y0.0112
G01 X-0.1564 Y0.0507
G01 X-0.1960 Y0.0944
G01 X-0.2310 Y0.1416
G01 X-0.2613 Y0.1921
G01 X-0.2865 Y0.2454
G01 X-0.3063 Y0.3008
G01 X-0.3206 Y0.3579
G01 X-0.3293 Y0.4162
G01 X-0.3322 Y0.4750
G01 X-0.3322 Y13.8500
G00 X-0.3322 Y13.8500
G01 F60.00
G01 Z-1.9000
G01 F120.00
G01 X-0.3322 Y0.4750
G01 X-0.3293 Y0.4162
G01 X-0.3206 Y0.3579
G01 X-0.3063 Y0.3008
G01 X-0.2865 Y0.2454
G01 X-0.2613 Y0.1921
G01 X-0.2310 Y0.1416
G01 X-0.1960 Y0.0944
G01 X-0.1564 Y0.0507
G01 X-0.1128 Y0.0112
G01 X-0.0655 Y-0.0239
G01 X-0.0150 Y-0.0542
G01 X0.0382 Y-0.0793
G01 X0.0937 Y-0.0992
G01 X0.1508 Y-0.1135
G01 X0.2090 Y-0.1221
G01 X0.2678 Y-0.1250
G01 X8.8929 Y-0.1250
G00 Z2.0000
G00 X-0.3322 Y16.8500
G01 F60.00
G01 Z-0.6000
G01 F120.00
G01 X-0.3322 Y30.0250
G01 X-0.3293 Y30.0838
G01 X-0.3206 Y30.1421
G01 X-0.3063 Y30.1992
G01 X-0.2865 Y30.2546
G01 X-0.2613 Y30.3079
G01 X-0.2310 Y30.3584
G01 X-0.1960 Y30.4056
G01 X-0.1564 Y30.4493
G01 X-0.1128 Y30.4888
G01 X-0.0655 Y30.5239
G01 X-0.0150 Y30.5542
G01 X0.0382 Y30.5793
G01 X0.0937 Y30.5992
G01 X0.1508 Y30.6135
G01 X0.2090 Y30.6221
G01 X0.2678 Y30.6250
G01 X8.8929 Y30.6250
G00 X8.8929 Y30.6250
G01 F60.00
G01 Z-1.2000
G01 F120.00
G01 X0.2678 Y30.6250
G01 X0.2090 Y30.6221
G01 X0.1508 Y30.6135
G01 X0.0937 Y30.5992
G01 X0.0382 Y30.5793
G01 X-0.0150 Y30.5542
G01 X-0.0655 Y30.5239
G01 X-0.1128 Y30.4888
G01 X-0.1564 Y30.4493
G01 X-0.1960 Y30.4056
G01 X-0.2310 Y30.3584
G01 X-0.2613 Y30.3079
G01 X-0.2865 Y30.2546
G01 X-0.3063 Y30.1992
G01 X-0.3206 Y30.1421
G01 X-0.3293 Y30.0838
G01 X-0.3322 Y30.0250
G01 X-0.3322 Y16.8500
G00 X-0.3322 Y16.8500
G01 F60.00
G01 Z-1.8000
G01 F120.00
G01 X-0.3322 Y30.0250
G01 X-0.3293 Y30.0838
G01 X-0.3206 Y30.1421
G01 X-0.3063 Y30.1992
G01 X-0.2865 Y30.2546
G01 X-0.2613 Y30.3079
G01 X-0.2310 Y30.3584
G01 X-0.1960 Y30.4056
G01 X-0.1564 Y30.4493
G01 X-0.1128 Y30.4888
G01 X-0.0655 Y30.5239
G01 X-0.0150 Y30.5542
G01 X0.0382 Y30.5793
G01 X0.0937 Y30.5992
G01 X0.1508 Y30.6135
G01 X0.2090 Y30.6221
G01 X0.2678 Y30.6250
G01 X8.8929 Y30.6250
G00 X8.8929 Y30.6250
G01 F60.00
G01 Z-1.9000
G01 F120.00
G01 X0.2678 Y30.6250
G01 X0.2090 Y30.6221
G01 X0.1508 Y30.6135
G01 X0.0937 Y30.5992
G01 X0.0382 Y30.5793
G01 X-0.0150 Y30.5542
G01 X-0.0655 Y30.5239
G01 X-0.1128 Y30.4888
G01 X-0.1564 Y30.4493
G01 X-0.1960 Y30.4056
G01 X-0.2310 Y30.3584
G01 X-0.2613 Y30.3079
G01 X-0.2865 Y30.2546
G01 X-0.3063 Y30.1992
G01 X-0.3206 Y30.1421
G01 X-0.3293 Y30.0838
G01 X-0.3322 Y30.0250
G01 X-0.3322 Y16.8500
G00 Z2.0000
G00 X11.8929 Y30.6250
G01 F60.00
G01 Z-0.6000
G01 F120.00
G01 X20.3179 Y30.6250
G01 X20.3767 Y30.6221
G01 X20.4349 Y30.6135
G01 X20.4920 Y30.5992
G01 X20.5475 Y30.5793
G01 X20.6007 Y30.5542
G01 X20.6512 Y30.5239
G01 X20.6985 Y30.4888
G01 X20.7421 Y30.4493
G01 X20.7817 Y30.4056
G01 X20.8168 Y30.3584
G01 X20.8470 Y30.3079
G01 X20.8722 Y30.2546
G01 X20.8920 Y30.1992
G01 X20.9063 Y30.1421
G01 X20.9150 Y30.0838
G01 X20.9179 Y30.0250
G01 X20.9179 Y16.8500
G00 X20.9179 Y16.8500
G01 F60.00
G01 Z-1.2000
G01 F120.00
G01 X20.9179 Y30.0250
G01 X20.9150 Y30.0838
G01 X20.9063 Y30.1421
G01 X20.8920 Y30.1992
G01 X20.8722 Y30.2546
G01 X20.8470 Y30.3079
G01 X20.8168 Y30.3584
G01 X20.7817 Y30.4056
G01 X20.7421 Y30.4493
G01 X20.6985 Y30.4888
G01 X20.6512 Y30.5239
G01 X20.6007 Y30.5542
G01 X20.5475 Y30.5793
G01 X20.4920 Y30.5992
G01 X20.4349 Y30.6135
G01 X20.3767 Y30.6221
G01 X20.3179 Y30.6250
G01 X11.8929 Y30.6250
G00 X11.8929 Y30.6250
G01 F60.00
G01 Z-1.8000
G01 F120.00
G01 X20.3179 Y30.6250
G01 X20.3767 Y30.6221
G01 X20.4349 Y30.6135
G01 X20.4920 Y30.5992
G01 X20.5475 Y30.5793
G01 X20.6007 Y30.5542
G01 X20.6512 Y30.5239
G01 X20.6985 Y30.4888
G01 X20.7421 Y30.4493
G01 X20.7817 Y30.4056
G01 X20.8168 Y30.3584
G01 X20.8470 Y30.3079
G01 X20.8722 Y30.2546
G01 X20.8920 Y30.1992
G01 X20.9063 Y30.1421
G01 X20.9150 Y30.0838
G01 X20.9179 Y30.0250
G01 X20.9179 Y16.8500
G00 X20.9179 Y16.8500
G01 F60.00
G01 Z-1.9000
G01 F120.00
G01 X20.9179 Y30.0250
G01 X20.9150 Y30.0838
G01 X20.9063 Y30.1421
G01 X20.8920 Y30.1992
G01 X20.8722 Y30.2546
G01 X20.8470 Y30.3079
G01 X20.8168 Y30.3584
G01 X20.7817 Y30.4056
G01 X20.7421 Y30.4493
G01 X20.6985 Y30.4888
G01 X20.6512 Y30.5239
G01 X20.6007 Y30.5542
G01 X20.5475 Y30.5793
G01 X20.4920 Y30.5992
G01 X20.4349 Y30.6135
G01 X20.3767 Y30.6221
G01 X20.3179 Y30.6250
G01 X11.8929 Y30.6250
G00 Z2.0000
G00 X20.9179 Y13.8500
G01 F60.00
G01 Z-0.6000
G01 F120.00
G01 X20.9179 Y0.4750
G01 X20.9150 Y0.4162
G01 X20.9063 Y0.3579
G01 X20.8920 Y0.3008
G01 X20.8722 Y0.2454
G01 X20.8470 Y0.1921
G01 X20.8168 Y0.1416
G01 X20.7817 Y0.0944
G01 X20.7421 Y0.0507
G01 X20.6985 Y0.0112
G01 X20.6512 Y-0.0239
G01 X20.6007 Y-0.0542
G01 X20.5475 Y-0.0793
G01 X20.4920 Y-0.0992
G01 X20.4349 Y-0.1135
G01 X20.3767 Y-0.1221
G01 X20.3179 Y-0.1250
G01 X11.8929 Y-0.1250
G00 X11.8929 Y-0.1250
G01 F60.00
G01 Z-1.2000
G01 F120.00
G01 X20.3179 Y-0.1250
G01 X20.3767 Y-0.1221
G01 X20.4349 Y-0.1135
G01 X20.4920 Y-0.0992
G01 X20.5475 Y-0.0793
G01 X20.6007 Y-0.0542
G01 X20.6512 Y-0.0239
G01 X20.6985 Y0.0112
G01 X20.7421 Y0.0507
G01 X20.7817 Y0.0944
G01 X20.8168 Y0.1416
G01 X20.8470 Y0.1921
G01 X20.8722 Y0.2454
G01 X20.8920 Y0.3008
G01 X20.9063 Y0.3579
G01 X20.9150 Y0.4162
G01 X20.9179 Y0.4750
G01 X20.9179 Y13.8500
G00 X20.9179 Y13.8500
G01 F60.00
G01 Z-1.8000
G01 F120.00
G01 X20.9179 Y0.4750
G01 X20.9150 Y0.4162
G01 X20.9063 Y0.3579
G01 X20.8920 Y0.3008
G01 X20.8722 Y0.2454
G01 X20.8470 Y0.1921
G01 X20.8168 Y0.1416
G01 X20.7817 Y0.0944
G01 X20.7421 Y0.0507
G01 X20.6985 Y0.0112
G01 X20.6512 Y-0.0239
G01 X20.6007 Y-0.0542
G01 X20.5475 Y-0.0793
G01 X20.4920 Y-0.0992
G01 X20.4349 Y-0.1135
G01 X20.3767 Y-0.1221
G01 X20.3179 Y-0.1250
G01 X11.8929 Y-0.1250
G00 X11.8929 Y-0.1250
G01 F60.00
G01 Z-1.9000
G01 F120.00
G01 X20.3179 Y-0.1250
G01 X20.3767 Y-0.1221
G01 X20.4349 Y-0.1135
G01 X20.4920 Y-0.0992
G01 X20.5475 Y-0.0793
G01 X20.6007 Y-0.0542
G01 X20.6512 Y-0.0239
G01 X20.6985 Y0.0112
G01 X20.7421 Y0.0507
G01 X20.7817 Y0.0944
G01 X20.8168 Y0.1416
G01 X20.8470 Y0.1921
G01 X20.8722 Y0.2454
G01 X20.8920 Y0.3008
G01 X20.9063 Y0.3579
G01 X20.9150 Y0.4162
G01 X20.9179 Y0.4750
G01 X20.9179 Y13.8500
G00 Z2.0000
M05
G00 Z2.0000
G00 Z5.00


