(G-CODE GENERATED BY FLATCAM v8.994 - www.flatcam.org - Version Date: 2020/11/7)

(Name: Zoetrope Carusel V4 - External Power Switch_V1-F_Cu.gbr_iso_combined_cnc)
(Type: G-code from Geometry)
(Units: MM)

(Created on Saturday, 07 March 2026 at 13:05)

(This preprocessor is the default preprocessor used by FlatCAM.)
(It is made to work with MACH3 compatible motion controllers.)

(TOOL DIAMETER: 0.1282 mm)
(Feedrate_XY: 120.0 mm/min)
(Feedrate_Z: 60.0 mm/min)
(Feedrate rapids 1500.0 mm/min)

(Z_Cut: 0.0 mm)
(Z_Move: 2.0 mm)
(Z Start: None mm)
(Z End: 5.0 mm)
(X,Y End: None mm)
(Steps per circle: 64)
(Preprocessor Geometry: default)

(X range:    0.3767 ...   20.2090  mm)
(Y range:    0.5839 ...   29.9161  mm)

(Spindle Speed: 10000.0 RPM)
G21
G90
G94

G01 F120.00

M5
G00 Z15.0000
G00 X0.0000 Y0.0000
T1
M6    
(MSG, Change to Tool Dia = 0.1282)
M0
G00 Z15.0000

M03 S10000.0
G01 F120.00
G00 X9.8582 Y3.6241
G01 F60.00
G01 Z0.0000
G01 F120.00
G01 X10.0108 Y3.5735
G01 X10.1033 Y3.5641
G01 X10.3859 Y3.5641
G01 X10.3859 Y3.9359
G01 X10.1469 Y3.9360
G01 X10.1192 Y3.9374
G01 X10.0918 Y3.9414
G01 X10.0857 Y3.9426
G01 X10.0603 Y3.9490
G01 X10.0298 Y3.9598
G01 X10.0047 Y3.9716
G01 X9.9782 Y3.9872
G01 X9.9729 Y3.9906
G01 X9.9507 Y4.0072
G01 X9.9279 Y4.0279
G01 X9.9072 Y4.0507
G01 X9.8906 Y4.0729
G01 X9.8872 Y4.0782
G01 X9.8716 Y4.1047
G01 X9.8598 Y4.1298
G01 X9.8504 Y4.1558
G01 X9.8486 Y4.1619
G01 X9.8419 Y4.1887
G01 X9.8378 Y4.2161
G01 X9.8372 Y4.2224
G01 X9.8359 Y4.2500
G01 X9.8359 Y5.1859
G01 X9.4641 Y5.1859
G01 X9.4641 Y4.2033
G01 X9.4735 Y4.1108
G01 X9.5241 Y3.9582
G01 X9.6083 Y3.8217
G01 X9.7217 Y3.7083
G01 X9.8582 Y3.6241
G00 Z2.0000
G00 X9.8882 Y3.6885
G01 F60.00
G01 Z0.0000
G01 F120.00
G01 X10.0256 Y3.6429
G01 X10.1069 Y3.6346
G01 X10.3154 Y3.6346
G01 X10.3154 Y3.8654
G01 X10.1500 Y3.8654
G01 X10.1156 Y3.8670
G01 X10.1057 Y3.8681
G01 X10.0750 Y3.8728
G01 X10.0447 Y3.8802
G01 X10.0321 Y3.8840
G01 X10.0028 Y3.8947
G01 X9.9687 Y3.9108
G01 X9.9363 Y3.9302
G01 X9.9086 Y3.9506
G01 X9.9010 Y3.9570
G01 X9.8828 Y3.9735
G01 X9.8735 Y3.9828
G01 X9.8527 Y4.0060
G01 X9.8340 Y4.0309
G01 X9.8284 Y4.0391
G01 X9.8108 Y4.0687
G01 X9.7973 Y4.0968
G01 X9.7934 Y4.1059
G01 X9.7829 Y4.1352
G01 X9.7802 Y4.1447
G01 X9.7728 Y4.1750
G01 X9.7681 Y4.2057
G01 X9.7668 Y4.2189
G01 X9.7654 Y4.2500
G01 X9.7654 Y5.1154
G01 X9.5346 Y5.1154
G01 X9.5346 Y4.2069
G01 X9.5429 Y4.1256
G01 X9.5885 Y3.9882
G01 X9.6640 Y3.8657
G01 X9.7657 Y3.7640
G01 X9.8882 Y3.6885
G00 Z2.0000
G00 X9.9182 Y3.7528
G01 F60.00
G01 Z0.0000
G01 F120.00
G01 X10.0405 Y3.7123
G01 X10.1105 Y3.7051
G01 X10.2449 Y3.7051
G01 X10.2449 Y3.7949
G01 X10.1399 Y3.7951
G01 X10.1054 Y3.7971
G01 X10.0662 Y3.8027
G01 X10.0563 Y3.8047
G01 X10.0276 Y3.8118
G01 X10.0083 Y3.8176
G01 X9.9758 Y3.8295
G01 X9.9399 Y3.8463
G01 X9.9310 Y3.8510
G01 X9.9057 Y3.8662
G01 X9.8889 Y3.8774
G01 X9.8613 Y3.8982
G01 X9.8282 Y3.9282
G01 X9.7982 Y3.9613
G01 X9.7774 Y3.9889
G01 X9.7662 Y4.0057
G01 X9.7510 Y4.0310
G01 X9.7441 Y4.0445
G01 X9.7315 Y4.0712
G01 X9.7277 Y4.0805
G01 X9.7176 Y4.1083
G01 X9.7131 Y4.1227
G01 X9.7058 Y4.1514
G01 X9.7027 Y4.1662
G01 X9.6976 Y4.2004
G01 X9.6963 Y4.2154
G01 X9.6949 Y4.2500
G01 X9.6949 Y5.0449
G01 X9.6051 Y5.0449
G01 X9.6051 Y4.2105
G01 X9.6123 Y4.1405
G01 X9.6528 Y4.0182
G01 X9.7197 Y3.9097
G01 X9.8097 Y3.8197
G01 X9.9182 Y3.7528
G00 Z2.0000
G00 X11.0141 Y3.9359
G01 F60.00
G01 Z0.0000
G01 F120.00
G01 X11.0141 Y3.5641
G01 X11.2967 Y3.5641
G01 X11.3892 Y3.5735
G01 X11.5418 Y3.6241
G01 X11.6783 Y3.7083
G01 X11.7917 Y3.8217
G01 X11.8759 Y3.9582
G01 X11.9265 Y4.1108
G01 X11.9359 Y4.2033
G01 X11.9359 Y4.7612
G01 X11.9368 Y4.7719
G01 X11.9385 Y4.7793
G01 X11.9586 Y4.8479
G01 X11.9630 Y4.8581
G01 X11.9680 Y4.8662
G01 X11.9720 Y4.8711
G01 X11.9765 Y4.8757
G01 X12.0330 Y4.9245
G01 X12.0395 Y4.9290
G01 X12.0466 Y4.9327
G01 X12.0525 Y4.9349
G01 X12.0602 Y4.9369
G01 X12.1341 Y4.9476
G01 X12.1420 Y4.9481
G01 X12.1516 Y4.9473
G01 X12.1593 Y4.9456
G01 X12.1668 Y4.9429
G01 X12.2360 Y4.9112
G01 X12.2439 Y4.9061
G01 X12.2509 Y4.8999
G01 X12.2794 Y4.8666
G01 X12.2841 Y4.8600
G01 X12.3079 Y4.8214
G01 X12.4214 Y4.7079
G01 X12.5579 Y4.6237
G01 X12.7107 Y4.5731
G01 X12.8033 Y4.5636
G01 X13.3967 Y4.5636
G01 X13.4893 Y4.5731
G01 X13.6421 Y4.6237
G01 X13.7786 Y4.7079
G01 X13.8921 Y4.8214
G01 X13.9399 Y4.8989
G01 X13.9443 Y4.9051
G01 X13.9516 Y4.9129
G01 X14.0060 Y4.9617
G01 X14.0124 Y4.9663
G01 X14.0180 Y4.9694
G01 X14.0253 Y4.9725
G01 X14.0314 Y4.9743
G01 X14.1051 Y4.9865
G01 X14.1162 Y4.9873
G01 X14.1225 Y4.9869
G01 X14.1288 Y4.9859
G01 X14.1394 Y4.9826
G01 X14.2064 Y4.9535
G01 X14.2148 Y4.9488
G01 X14.2223 Y4.9430
G01 X14.2279 Y4.9373
G01 X14.2576 Y4.9026
G01 X14.3079 Y4.8214
G01 X14.4214 Y4.7079
G01 X14.5579 Y4.6237
G01 X14.7107 Y4.5731
G01 X14.8033 Y4.5636
G01 X15.3967 Y4.5636
G01 X15.4893 Y4.5731
G01 X15.6421 Y4.6237
G01 X15.7786 Y4.7079
G01 X15.8921 Y4.8214
G01 X15.9167 Y4.8613
G01 X15.9203 Y4.8662
G01 X15.9243 Y4.8708
G01 X15.9795 Y4.9207
G01 X15.9845 Y4.9247
G01 X15.9898 Y4.9282
G01 X15.9954 Y4.9312
G01 X16.0028 Y4.9341
G01 X16.0090 Y4.9357
G01 X16.0826 Y4.9478
G01 X16.0890 Y4.9483
G01 X16.0954 Y4.9483
G01 X16.1064 Y4.9466
G01 X16.1154 Y4.9437
G01 X16.1824 Y4.9146
G01 X16.1894 Y4.9108
G01 X16.1959 Y4.9062
G01 X16.2018 Y4.9008
G01 X16.2078 Y4.8934
G01 X16.2476 Y4.8340
G01 X16.2529 Y4.8245
G01 X16.2560 Y4.8157
G01 X16.2577 Y4.8081
G01 X16.2634 Y4.7709
G01 X16.2641 Y4.7629
G01 X16.2641 Y4.2033
G01 X16.2735 Y4.1108
G01 X16.3241 Y3.9582
G01 X16.4083 Y3.8217
G01 X16.5217 Y3.7083
G01 X16.6581 Y3.6241
G01 X16.8108 Y3.5735
G01 X16.9033 Y3.5641
G01 X17.1859 Y3.5641
G01 X17.1859 Y3.9359
G01 X16.9500 Y3.9359
G01 X16.9208 Y3.9373
G01 X16.8887 Y3.9419
G01 X16.8619 Y3.9486
G01 X16.8327 Y3.9587
G01 X16.8269 Y3.9611
G01 X16.8019 Y3.9730
G01 X16.7782 Y3.9872
G01 X16.7532 Y4.0053
G01 X16.7484 Y4.0093
G01 X16.7279 Y4.0279
G01 X16.7072 Y4.0507
G01 X16.6906 Y4.0729
G01 X16.6872 Y4.0782
G01 X16.6730 Y4.1019
G01 X16.6611 Y4.1269
G01 X16.6587 Y4.1327
G01 X16.6494 Y4.1588
G01 X16.6416 Y4.1903
G01 X16.6374 Y4.2192
G01 X16.6359 Y4.2500
G01 X16.6359 Y6.7500
G01 X16.6372 Y6.7776
G01 X16.6378 Y6.7839
G01 X16.6419 Y6.8113
G01 X16.6486 Y6.8381
G01 X16.6504 Y6.8442
G01 X16.6598 Y6.8702
G01 X16.6716 Y6.8953
G01 X16.6745 Y6.9008
G01 X16.6888 Y6.9245
G01 X16.7053 Y6.9468
G01 X16.7093 Y6.9516
G01 X16.7279 Y6.9721
G01 X16.7484 Y6.9907
G01 X16.7532 Y6.9947
G01 X16.7755 Y7.0112
G01 X16.8006 Y7.0263
G01 X16.8298 Y7.0402
G01 X16.8588 Y7.0506
G01 X16.8887 Y7.0581
G01 X16.9192 Y7.0626
G01 X16.9500 Y7.0641
G01 X17.1859 Y7.0641
G01 X17.1859 Y7.4359
G01 X16.9033 Y7.4359
G01 X16.8108 Y7.4265
G01 X16.6582 Y7.3759
G01 X16.5217 Y7.2917
G01 X16.4083 Y7.1783
G01 X16.3838 Y7.1386
G01 X16.3792 Y7.1325
G01 X16.3751 Y7.1280
G01 X16.3173 Y7.0761
G01 X16.3107 Y7.0716
G01 X16.3051 Y7.0687
G01 X16.2992 Y7.0663
G01 X16.2915 Y7.0641
G01 X16.2178 Y7.0521
G01 X16.2099 Y7.0515
G01 X16.2020 Y7.0519
G01 X16.1941 Y7.0533
G01 X16.1850 Y7.0562
G01 X16.1180 Y7.0853
G01 X16.1124 Y7.0882
G01 X16.1058 Y7.0927
G01 X16.0999 Y7.0980
G01 X16.0946 Y7.1039
G01 X16.0521 Y7.1672
G01 X16.0490 Y7.1726
G01 X16.0464 Y7.1783
G01 X16.0445 Y7.1842
G01 X16.0431 Y7.1902
G01 X16.0369 Y7.2305
G01 X16.0364 Y7.2386
G01 X16.0364 Y10.2967
G01 X16.0268 Y10.3910
G01 X16.0246 Y10.4053
G01 X16.0249 Y10.4164
G01 X16.0229 Y10.4738
G01 X16.0237 Y10.4845
G01 X16.0263 Y10.4950
G01 X16.0306 Y10.5048
G01 X16.0645 Y10.5644
G01 X16.0689 Y10.5708
G01 X16.0741 Y10.5766
G01 X18.7303 Y13.2328
G01 X18.8191 Y13.3657
G01 X18.8802 Y13.5133
G01 X18.9114 Y13.6701
G01 X18.9114 Y21.7299
G01 X18.8802 Y21.8867
G01 X18.8191 Y22.0343
G01 X18.7303 Y22.1672
G01 X15.9085 Y24.9890
G01 X15.9044 Y24.9935
G01 X15.9007 Y24.9984
G01 X15.8976 Y25.0036
G01 X15.8619 Y25.0692
G01 X15.8591 Y25.0767
G01 X15.8575 Y25.0829
G01 X15.8566 Y25.0892
G01 X15.8562 Y25.0956
G01 X15.8576 Y25.1556
G01 X15.8583 Y25.1632
G01 X15.8598 Y25.1707
G01 X15.8927 Y25.2934
G01 X15.9239 Y25.5305
G01 X15.9239 Y25.7695
G01 X15.8927 Y26.0066
G01 X15.8308 Y26.2375
G01 X15.7393 Y26.4584
G01 X15.6198 Y26.6655
G01 X15.4742 Y26.8552
G01 X15.3052 Y27.0242
G01 X15.1155 Y27.1698
G01 X14.9084 Y27.2893
G01 X14.6875 Y27.3808
G01 X14.4566 Y27.4427
G01 X14.2196 Y27.4739
G01 X13.9805 Y27.4739
G01 X13.7434 Y27.4427
G01 X13.5125 Y27.3808
G01 X13.2916 Y27.2893
G01 X13.0845 Y27.1698
G01 X12.8948 Y27.0242
G01 X12.7258 Y26.8552
G01 X12.5802 Y26.6655
G01 X12.4607 Y26.4584
G01 X12.3692 Y26.2375
G01 X12.3073 Y26.0066
G01 X12.2761 Y25.7696
G01 X12.2761 Y25.5305
G01 X12.3073 Y25.2934
G01 X12.3692 Y25.0625
G01 X12.4607 Y24.8416
G01 X12.5802 Y24.6345
G01 X12.7258 Y24.4448
G01 X12.8948 Y24.2758
G01 X13.0845 Y24.1302
G01 X13.2916 Y24.0107
G01 X13.5125 Y23.9192
G01 X13.7434 Y23.8573
G01 X13.9805 Y23.8261
G01 X14.2195 Y23.8261
G01 X14.4566 Y23.8573
G01 X14.5808 Y23.8906
G01 X14.5883 Y23.8919
G01 X14.5959 Y23.8924
G01 X14.6689 Y23.8906
G01 X14.6752 Y23.8900
G01 X14.6830 Y23.8883
G01 X14.6906 Y23.8857
G01 X14.6977 Y23.8822
G01 X14.7516 Y23.8493
G01 X14.7565 Y23.8456
G01 X14.7610 Y23.8415
G01 X17.2335 Y21.3690
G01 X17.2395 Y21.3621
G01 X17.2437 Y21.3557
G01 X17.2800 Y21.2889
G01 X17.2828 Y21.2815
G01 X17.2850 Y21.2723
G01 X17.2882 Y21.2428
G01 X17.2886 Y21.2360
G01 X17.2886 Y14.1640
G01 X17.2879 Y14.1549
G01 X17.2860 Y14.1459
G01 X17.2663 Y14.0789
G01 X17.2636 Y14.0715
G01 X17.2609 Y14.0659
G01 X17.2566 Y14.0592
G01 X17.2381 Y14.0361
G01 X17.2335 Y14.0310
G01 X14.4697 Y11.2672
G01 X14.3809 Y11.1343
G01 X14.3198 Y10.9867
G01 X14.2886 Y10.8299
G01 X14.2886 Y10.6991
G01 X14.2873 Y10.6879
G01 X14.2841 Y10.6757
G01 X14.2842 Y10.6658
G01 X14.2834 Y10.6578
G01 X14.2821 Y10.6515
G01 X14.2795 Y10.6438
G01 X14.2628 Y10.6058
G01 X14.2566 Y10.5960
G01 X14.2495 Y10.5881
G01 X14.1952 Y10.5393
G01 X14.1888 Y10.5345
G01 X14.1820 Y10.5305
G01 X14.1731 Y10.5270
G01 X14.1638 Y10.5247
G01 X14.0933 Y10.5133
G01 X14.0854 Y10.5127
G01 X14.0790 Y10.5130
G01 X14.0696 Y10.5145
G01 X14.0605 Y10.5174
G01 X13.9935 Y10.5466
G01 X13.9879 Y10.5495
G01 X13.9826 Y10.5530
G01 X13.9742 Y10.5604
G01 X13.9442 Y10.5950
G01 X13.9399 Y10.6011
G01 X13.9363 Y10.6075
G01 X13.9333 Y10.6150
G01 X13.9307 Y10.6236
G01 X13.9244 Y10.6340
G01 X13.9203 Y10.6444
G01 X13.9180 Y10.6552
G01 X13.9174 Y10.6705
G01 X13.9134 Y10.6847
G01 X13.9121 Y10.6910
G01 X13.9114 Y10.7007
G01 X13.9114 Y11.8299
G01 X13.8802 Y11.9867
G01 X13.8191 Y12.1343
G01 X13.7303 Y12.2672
G01 X11.4665 Y14.5310
G01 X11.4614 Y14.5367
G01 X11.4563 Y14.5443
G01 X11.4206 Y14.6097
G01 X11.4172 Y14.6185
G01 X11.4153 Y14.6261
G01 X11.4118 Y14.6572
G01 X11.4114 Y14.6640
G01 X11.4114 Y17.3360
G01 X11.4121 Y17.3451
G01 X11.4136 Y17.3526
G01 X11.4341 Y17.4226
G01 X11.4384 Y17.4327
G01 X11.4443 Y17.4420
G01 X11.4619 Y17.4639
G01 X11.4665 Y17.4690
G01 X12.7271 Y18.7296
G01 X12.7333 Y18.7350
G01 X12.7386 Y18.7388
G01 X12.7956 Y18.7721
G01 X12.8030 Y18.7756
G01 X12.8092 Y18.7777
G01 X14.0274 Y19.1198
G01 X14.0667 Y19.1255
G01 X14.0739 Y19.1261
G01 X14.2195 Y19.1261
G01 X14.4566 Y19.1573
G01 X14.6875 Y19.2192
G01 X14.9084 Y19.3107
G01 X15.1155 Y19.4302
G01 X15.3052 Y19.5758
G01 X15.4742 Y19.7448
G01 X15.6198 Y19.9345
G01 X15.7393 Y20.1416
G01 X15.8308 Y20.3625
G01 X15.8927 Y20.5934
G01 X15.9239 Y20.8305
G01 X15.9239 Y21.0695
G01 X15.8927 Y21.3066
G01 X15.8308 Y21.5375
G01 X15.7393 Y21.7584
G01 X15.6198 Y21.9655
G01 X15.5736 Y22.0257
G01 X15.4742 Y22.1552
G01 X15.3052 Y22.3242
G01 X15.1155 Y22.4698
G01 X14.9084 Y22.5893
G01 X14.6875 Y22.6808
G01 X14.4566 Y22.7427
G01 X14.2196 Y22.7739
G01 X13.9805 Y22.7739
G01 X13.7434 Y22.7427
G01 X13.5125 Y22.6808
G01 X13.2916 Y22.5893
G01 X13.0845 Y22.4698
G01 X12.8948 Y22.3242
G01 X12.7258 Y22.1552
G01 X12.5802 Y21.9655
G01 X12.4607 Y21.7584
G01 X12.3692 Y21.5375
G01 X12.3073 Y21.3066
G01 X12.3027 Y21.2714
G01 X12.3012 Y21.2638
G01 X12.2881 Y21.2212
G01 X12.2848 Y21.2126
G01 X11.6551 Y19.9659
G01 X11.6508 Y19.9586
G01 X11.6268 Y19.9255
G01 X11.6202 Y19.9177
G01 X9.9697 Y18.2672
G01 X9.8809 Y18.1343
G01 X9.8198 Y17.9867
G01 X9.7886 Y17.8299
G01 X9.7886 Y14.1701
G01 X9.8198 Y14.0133
G01 X9.8809 Y13.8657
G01 X9.9697 Y13.7328
G01 X12.2346 Y11.4679
G01 X12.2395 Y11.4621
G01 X12.2437 Y11.4557
G01 X12.2779 Y11.3931
G01 X12.2807 Y11.3874
G01 X12.2833 Y11.3800
G01 X12.2850 Y11.3723
G01 X12.2884 Y11.3411
G01 X12.2886 Y10.7007
G01 X12.2881 Y10.6926
G01 X12.2862 Y10.6832
G01 X12.2662 Y10.6135
G01 X12.2614 Y10.6033
G01 X12.2237 Y10.5421
G01 X12.1731 Y10.3893
G01 X12.1636 Y10.2968
G01 X12.1636 Y7.2386
G01 X12.1629 Y7.2295
G01 X12.1614 Y7.2220
G01 X12.1409 Y7.1520
G01 X12.1380 Y7.1446
G01 X12.1342 Y7.1376
G01 X12.1295 Y7.1311
G01 X12.1241 Y7.1253
G01 X12.0678 Y7.0764
G01 X12.0627 Y7.0726
G01 X12.0558 Y7.0686
G01 X12.0470 Y7.0649
G01 X12.0377 Y7.0626
G01 X11.9654 Y7.0522
G01 X11.9543 Y7.0519
G01 X11.9479 Y7.0526
G01 X11.9417 Y7.0538
G01 X11.9312 Y7.0576
G01 X11.8677 Y7.0866
G01 X11.8608 Y7.0903
G01 X11.8544 Y7.0947
G01 X11.8465 Y7.1022
G01 X11.8191 Y7.1345
G01 X11.8154 Y7.1399
G01 X11.7917 Y7.1783
G01 X11.6783 Y7.2917
G01 X11.5418 Y7.3759
G01 X11.3892 Y7.4265
G01 X11.2967 Y7.4359
G01 X11.0141 Y7.4359
G01 X11.0141 Y7.0641
G01 X11.2500 Y7.0641
G01 X11.2792 Y7.0627
G01 X11.3113 Y7.0581
G01 X11.3381 Y7.0514
G01 X11.3673 Y7.0413
G01 X11.3731 Y7.0389
G01 X11.3981 Y7.0270
G01 X11.4218 Y7.0128
G01 X11.4468 Y6.9947
G01 X11.4516 Y6.9907
G01 X11.4721 Y6.9721
G01 X11.4928 Y6.9493
G01 X11.5094 Y6.9271
G01 X11.5128 Y6.9218
G01 X11.5270 Y6.8981
G01 X11.5389 Y6.8731
G01 X11.5413 Y6.8673
G01 X11.5506 Y6.8412
G01 X11.5584 Y6.8097
G01 X11.5626 Y6.7808
G01 X11.5641 Y6.7500
G01 X11.5641 Y4.2500
G01 X11.5628 Y4.2224
G01 X11.5622 Y4.2161
G01 X11.5581 Y4.1887
G01 X11.5514 Y4.1619
G01 X11.5496 Y4.1558
G01 X11.5402 Y4.1298
G01 X11.5284 Y4.1047
G01 X11.5255 Y4.0992
G01 X11.5112 Y4.0755
G01 X11.4947 Y4.0532
G01 X11.4907 Y4.0484
G01 X11.4721 Y4.0279
G01 X11.4516 Y4.0093
G01 X11.4468 Y4.0053
G01 X11.4245 Y3.9888
G01 X11.3994 Y3.9737
G01 X11.3702 Y3.9598
G01 X11.3412 Y3.9494
G01 X11.3113 Y3.9419
G01 X11.2808 Y3.9374
G01 X11.2500 Y3.9359
G01 X11.0141 Y3.9359
G00 Z2.0000
G00 X11.0846 Y3.8654
G01 F60.00
G01 Z0.0000
G01 F120.00
G01 X11.0846 Y3.6346
G01 X11.2931 Y3.6346
G01 X11.3744 Y3.6429
G01 X11.5118 Y3.6885
G01 X11.6343 Y3.7640
G01 X11.7360 Y3.8657
G01 X11.8115 Y3.9882
G01 X11.8571 Y4.1257
G01 X11.8654 Y4.2069
G01 X11.8654 Y4.7612
G01 X11.8657 Y4.7708
G01 X11.8668 Y4.7804
G01 X11.8700 Y4.7961
G01 X11.8905 Y4.8662
G01 X11.8937 Y4.8757
G01 X11.8990 Y4.8880
G01 X11.9038 Y4.8968
G01 X11.9092 Y4.9052
G01 X11.9153 Y4.9132
G01 X11.9219 Y4.9208
G01 X11.9290 Y4.9278
G01 X11.9843 Y4.9758
G01 X11.9949 Y4.9840
G01 X12.0061 Y4.9912
G01 X12.0181 Y4.9972
G01 X12.0306 Y5.0019
G01 X12.0435 Y5.0055
G01 X12.0533 Y5.0073
G01 X12.1291 Y5.0180
G01 X12.1458 Y5.0185
G01 X12.1591 Y5.0174
G01 X12.1755 Y5.0142
G01 X12.1914 Y5.0090
G01 X12.2670 Y4.9745
G01 X12.2783 Y4.9680
G01 X12.2864 Y4.9623
G01 X12.2940 Y4.9561
G01 X12.3034 Y4.9470
G01 X12.3321 Y4.9135
G01 X12.3384 Y4.9055
G01 X12.3441 Y4.8970
G01 X12.3636 Y4.8654
G01 X12.4654 Y4.7636
G01 X12.5879 Y4.6880
G01 X12.7256 Y4.6424
G01 X12.8068 Y4.6341
G01 X13.3931 Y4.6341
G01 X13.4745 Y4.6424
G01 X13.6121 Y4.6880
G01 X13.7346 Y4.7636
G01 X13.8364 Y4.8654
G01 X13.8816 Y4.9386
G01 X13.8871 Y4.9465
G01 X13.8953 Y4.9563
G01 X13.9044 Y4.9653
G01 X13.9564 Y5.0121
G01 X13.9641 Y5.0185
G01 X13.9722 Y5.0243
G01 X13.9838 Y5.0311
G01 X13.9928 Y5.0354
G01 X14.0053 Y5.0401
G01 X14.0150 Y5.0429
G01 X14.0248 Y5.0448
G01 X14.0971 Y5.0565
G01 X14.1070 Y5.0575
G01 X14.1171 Y5.0578
G01 X14.1271 Y5.0573
G01 X14.1403 Y5.0555
G01 X14.1501 Y5.0532
G01 X14.1628 Y5.0492
G01 X14.2361 Y5.0174
G01 X14.2480 Y5.0112
G01 X14.2618 Y5.0018
G01 X14.2719 Y4.9931
G01 X14.2790 Y4.9860
G01 X14.3073 Y4.9534
G01 X14.3131 Y4.9462
G01 X14.3201 Y4.9359
G01 X14.3636 Y4.8654
G01 X14.4654 Y4.7636
G01 X14.5879 Y4.6880
G01 X14.7256 Y4.6424
G01 X14.8068 Y4.6341
G01 X15.3931 Y4.6341
G01 X15.4745 Y4.6424
G01 X15.6121 Y4.6880
G01 X15.7346 Y4.7636
G01 X15.8364 Y4.8654
G01 X15.8594 Y4.9024
G01 X15.8671 Y4.9126
G01 X15.8735 Y4.9197
G01 X15.8804 Y4.9264
G01 X15.9324 Y4.9731
G01 X15.9455 Y4.9835
G01 X15.9568 Y4.9906
G01 X15.9688 Y4.9965
G01 X15.9813 Y5.0012
G01 X15.9910 Y5.0039
G01 X16.0008 Y5.0059
G01 X16.0731 Y5.0176
G01 X16.0864 Y5.0188
G01 X16.0964 Y5.0188
G01 X16.1064 Y5.0181
G01 X16.1196 Y5.0159
G01 X16.1325 Y5.0125
G01 X16.1419 Y5.0090
G01 X16.2152 Y4.9771
G01 X16.2296 Y4.9688
G01 X16.2404 Y4.9608
G01 X16.2479 Y4.9542
G01 X16.2550 Y4.9471
G01 X16.2614 Y4.9394
G01 X16.2673 Y4.9313
G01 X16.3097 Y4.8677
G01 X16.3172 Y4.8532
G01 X16.3230 Y4.8379
G01 X16.3255 Y4.8284
G01 X16.3274 Y4.8188
G01 X16.3335 Y4.7783
G01 X16.3346 Y4.7646
G01 X16.3346 Y4.2069
G01 X16.3429 Y4.1256
G01 X16.3885 Y3.9882
G01 X16.4640 Y3.8657
G01 X16.5657 Y3.7640
G01 X16.6882 Y3.6885
G01 X16.8256 Y3.6429
G01 X16.9069 Y3.6346
G01 X17.1154 Y3.6346
G01 X17.1154 Y3.8654
G01 X16.9500 Y3.8654
G01 X16.9189 Y3.8668
G01 X16.9090 Y3.8676
G01 X16.8750 Y3.8728
G01 X16.8384 Y3.8820
G01 X16.8028 Y3.8947
G01 X16.7746 Y3.9078
G01 X16.7658 Y3.9124
G01 X16.7419 Y3.9267
G01 X16.7336 Y3.9321
G01 X16.7086 Y3.9506
G01 X16.7010 Y3.9570
G01 X16.6804 Y3.9757
G01 X16.6735 Y3.9828
G01 X16.6527 Y4.0060
G01 X16.6340 Y4.0309
G01 X16.6267 Y4.0419
G01 X16.6108 Y4.0687
G01 X16.5947 Y4.1028
G01 X16.5820 Y4.1384
G01 X16.5742 Y4.1685
G01 X16.5722 Y4.1782
G01 X16.5672 Y4.2123
G01 X16.5654 Y4.2500
G01 X16.5654 Y6.7500
G01 X16.5672 Y6.7877
G01 X16.5717 Y6.8185
G01 X16.5742 Y6.8315
G01 X16.5820 Y6.8616
G01 X16.5923 Y6.8910
G01 X16.5973 Y6.9032
G01 X16.6108 Y6.9313
G01 X16.6302 Y6.9637
G01 X16.6486 Y6.9888
G01 X16.6570 Y6.9990
G01 X16.6780 Y7.0220
G01 X16.7010 Y7.0430
G01 X16.7086 Y7.0494
G01 X16.7336 Y7.0679
G01 X16.7419 Y7.0733
G01 X16.7687 Y7.0892
G01 X16.8028 Y7.1053
G01 X16.8384 Y7.1180
G01 X16.8685 Y7.1258
G01 X16.8782 Y7.1278
G01 X16.9123 Y7.1328
G01 X16.9467 Y7.1346
G01 X17.1154 Y7.1346
G01 X17.1154 Y7.3654
G01 X16.9069 Y7.3654
G01 X16.8256 Y7.3571
G01 X16.6882 Y7.3115
G01 X16.5657 Y7.2360
G01 X16.4640 Y7.1343
G01 X16.4446 Y7.1029
G01 X16.4393 Y7.0949
G01 X16.4313 Y7.0848
G01 X16.4201 Y7.0734
G01 X16.3656 Y7.0245
G01 X16.3522 Y7.0145
G01 X16.3407 Y7.0077
G01 X16.3286 Y7.0020
G01 X16.3160 Y6.9976
G01 X16.3030 Y6.9945
G01 X16.2241 Y6.9818
G01 X16.2074 Y6.9810
G01 X16.1908 Y6.9822
G01 X16.1776 Y6.9847
G01 X16.1617 Y6.9896
G01 X16.0853 Y7.0228
G01 X16.0737 Y7.0293
G01 X16.0601 Y7.0390
G01 X16.0478 Y7.0503
G01 X16.0391 Y7.0604
G01 X16.0332 Y7.0686
G01 X15.9925 Y7.1294
G01 X15.9861 Y7.1408
G01 X15.9796 Y7.1558
G01 X15.9757 Y7.1683
G01 X15.9731 Y7.1811
G01 X15.9670 Y7.2216
G01 X15.9661 Y7.2318
G01 X15.9659 Y7.2386
G01 X15.9659 Y10.2932
G01 X15.9570 Y10.3806
G01 X15.9549 Y10.3932
G01 X15.9541 Y10.4029
G01 X15.9524 Y10.4745
G01 X15.9528 Y10.4844
G01 X15.9544 Y10.4976
G01 X15.9565 Y10.5073
G01 X15.9593 Y10.5169
G01 X15.9628 Y10.5262
G01 X15.9685 Y10.5382
G01 X16.0059 Y10.6036
G01 X16.0134 Y10.6142
G01 X16.0242 Y10.6265
G01 X18.6755 Y13.2777
G01 X18.7566 Y13.3991
G01 X18.8124 Y13.5339
G01 X18.8409 Y13.6770
G01 X18.8409 Y21.7230
G01 X18.8124 Y21.8661
G01 X18.7566 Y22.0009
G01 X18.6755 Y22.1223
G01 X15.8586 Y24.9391
G01 X15.8500 Y24.9486
G01 X15.8423 Y24.9589
G01 X15.8357 Y24.9698
G01 X15.8022 Y25.0311
G01 X15.7964 Y25.0432
G01 X15.7917 Y25.0558
G01 X15.7884 Y25.0688
G01 X15.7864 Y25.0821
G01 X15.7858 Y25.0921
G01 X15.7872 Y25.1573
G01 X15.7885 Y25.1733
G01 X15.7917 Y25.1889
G01 X15.8234 Y25.3072
G01 X15.8534 Y25.5351
G01 X15.8534 Y25.7649
G01 X15.8234 Y25.9928
G01 X15.7639 Y26.2148
G01 X15.6759 Y26.4272
G01 X15.5610 Y26.6262
G01 X15.4211 Y26.8086
G01 X15.2586 Y26.9711
G01 X15.0762 Y27.1110
G01 X14.8772 Y27.2259
G01 X14.6648 Y27.3139
G01 X14.4428 Y27.3734
G01 X14.2149 Y27.4034
G01 X13.9851 Y27.4034
G01 X13.7572 Y27.3734
G01 X13.5352 Y27.3139
G01 X13.3228 Y27.2259
G01 X13.1238 Y27.1110
G01 X12.9414 Y26.9711
G01 X12.7789 Y26.8086
G01 X12.6390 Y26.6262
G01 X12.5241 Y26.4272
G01 X12.4361 Y26.2148
G01 X12.3766 Y25.9928
G01 X12.3466 Y25.7649
G01 X12.3466 Y25.5351
G01 X12.3766 Y25.3072
G01 X12.4361 Y25.0852
G01 X12.5241 Y24.8728
G01 X12.6390 Y24.6738
G01 X12.7789 Y24.4914
G01 X12.9414 Y24.3289
G01 X13.1238 Y24.1890
G01 X13.3228 Y24.0741
G01 X13.5352 Y23.9861
G01 X13.7572 Y23.9266
G01 X13.9851 Y23.8966
G01 X14.2149 Y23.8966
G01 X14.4428 Y23.9266
G01 X14.5642 Y23.9591
G01 X14.5799 Y23.9619
G01 X14.5895 Y23.9627
G01 X14.5991 Y23.9628
G01 X14.6757 Y23.9609
G01 X14.6857 Y23.9597
G01 X14.6923 Y23.9586
G01 X14.7053 Y23.9553
G01 X14.7116 Y23.9532
G01 X14.7210 Y23.9494
G01 X14.7329 Y23.9433
G01 X14.7857 Y23.9111
G01 X14.7989 Y23.9020
G01 X14.8109 Y23.8914
G01 X17.2834 Y21.4189
G01 X17.2940 Y21.4069
G01 X17.3031 Y21.3937
G01 X17.3398 Y21.3269
G01 X17.3442 Y21.3180
G01 X17.3501 Y21.3026
G01 X17.3541 Y21.2865
G01 X17.3555 Y21.2767
G01 X17.3583 Y21.2504
G01 X17.3591 Y21.2360
G01 X17.3591 Y14.1640
G01 X17.3588 Y14.1544
G01 X17.3577 Y14.1448
G01 X17.3560 Y14.1354
G01 X17.3537 Y14.1261
G01 X17.3340 Y14.0590
G01 X17.3284 Y14.0435
G01 X17.3225 Y14.0317
G01 X17.3136 Y14.0177
G01 X17.2930 Y13.9919
G01 X17.2859 Y13.9837
G01 X14.5245 Y11.2223
G01 X14.4434 Y11.1009
G01 X14.3876 Y10.9661
G01 X14.3591 Y10.8230
G01 X14.3591 Y10.6973
G01 X14.3584 Y10.6871
G01 X14.3576 Y10.6804
G01 X14.3547 Y10.6665
G01 X14.3542 Y10.6568
G01 X14.3530 Y10.6467
G01 X14.3502 Y10.6334
G01 X14.3461 Y10.6205
G01 X14.3281 Y10.5789
G01 X14.3222 Y10.5676
G01 X14.3166 Y10.5586
G01 X14.3109 Y10.5509
G01 X14.3024 Y10.5413
G01 X14.2955 Y10.5346
G01 X14.2385 Y10.4836
G01 X14.2277 Y10.4757
G01 X14.2132 Y10.4673
G01 X14.2040 Y10.4632
G01 X14.1946 Y10.4598
G01 X14.1784 Y10.4557
G01 X14.1029 Y10.4435
G01 X14.0895 Y10.4423
G01 X14.0762 Y10.4425
G01 X14.0629 Y10.4440
G01 X14.0531 Y10.4459
G01 X14.0434 Y10.4487
G01 X14.0340 Y10.4521
G01 X13.9608 Y10.4841
G01 X13.9463 Y10.4924
G01 X13.9330 Y10.5024
G01 X13.9210 Y10.5140
G01 X13.8928 Y10.5466
G01 X13.8869 Y10.5538
G01 X13.8799 Y10.5640
G01 X13.8729 Y10.5767
G01 X13.8688 Y10.5860
G01 X13.8659 Y10.5940
G01 X13.8614 Y10.6024
G01 X13.8572 Y10.6115
G01 X13.8527 Y10.6241
G01 X13.8495 Y10.6371
G01 X13.8480 Y10.6470
G01 X13.8471 Y10.6601
G01 X13.8436 Y10.6738
G01 X13.8420 Y10.6838
G01 X13.8411 Y10.6939
G01 X13.8409 Y10.7007
G01 X13.8409 Y11.8230
G01 X13.8124 Y11.9661
G01 X13.7566 Y12.1009
G01 X13.6755 Y12.2223
G01 X11.4166 Y14.4811
G01 X11.4060 Y14.4931
G01 X11.3969 Y14.5063
G01 X11.3572 Y14.5790
G01 X11.3509 Y14.5943
G01 X11.3481 Y14.6038
G01 X11.3459 Y14.6135
G01 X11.3445 Y14.6233
G01 X11.3417 Y14.6496
G01 X11.3409 Y14.6640
G01 X11.3409 Y17.3360
G01 X11.3418 Y17.3520
G01 X11.3447 Y17.3677
G01 X11.3670 Y17.4441
G01 X11.3704 Y17.4534
G01 X11.3759 Y17.4654
G01 X11.3808 Y17.4740
G01 X11.3864 Y17.4822
G01 X11.4070 Y17.5081
G01 X11.4166 Y17.5189
G01 X12.6772 Y18.7795
G01 X12.6875 Y18.7887
G01 X12.6986 Y18.7968
G01 X12.7616 Y18.8339
G01 X12.7708 Y18.8385
G01 X12.7771 Y18.8412
G01 X12.7902 Y18.8456
G01 X14.0114 Y19.1885
G01 X14.0235 Y19.1907
G01 X14.0601 Y19.1957
G01 X14.0693 Y19.1965
G01 X14.2149 Y19.1966
G01 X14.4428 Y19.2266
G01 X14.6648 Y19.2861
G01 X14.8772 Y19.3741
G01 X15.0762 Y19.4890
G01 X15.2586 Y19.6289
G01 X15.4211 Y19.7914
G01 X15.5610 Y19.9738
G01 X15.6759 Y20.1728
G01 X15.7639 Y20.3852
G01 X15.8234 Y20.6072
G01 X15.8534 Y20.8351
G01 X15.8534 Y21.0649
G01 X15.8234 Y21.2928
G01 X15.7639 Y21.5148
G01 X15.6759 Y21.7272
G01 X15.5610 Y21.9262
G01 X15.5176 Y21.9828
G01 X15.4211 Y22.1086
G01 X15.2586 Y22.2711
G01 X15.0762 Y22.4110
G01 X14.8772 Y22.5259
G01 X14.6648 Y22.6139
G01 X14.4428 Y22.6734
G01 X14.2149 Y22.7034
G01 X13.9851 Y22.7034
G01 X13.7572 Y22.6734
G01 X13.5352 Y22.6139
G01 X13.3228 Y22.5259
G01 X13.1238 Y22.4110
G01 X12.9414 Y22.2711
G01 X12.7789 Y22.1086
G01 X12.6390 Y21.9262
G01 X12.5241 Y21.7272
G01 X12.4361 Y21.5148
G01 X12.3766 Y21.2928
G01 X12.3721 Y21.2590
G01 X12.3695 Y21.2463
G01 X12.3545 Y21.1973
G01 X12.3484 Y21.1823
G01 X11.7181 Y19.9342
G01 X11.7129 Y19.9248
G01 X11.7090 Y19.9188
G01 X11.6840 Y19.8841
G01 X11.6774 Y19.8757
G01 X11.6701 Y19.8679
G01 X10.0245 Y18.2223
G01 X9.9434 Y18.1009
G01 X9.8876 Y17.9661
G01 X9.8591 Y17.8230
G01 X9.8591 Y14.1770
G01 X9.8876 Y14.0339
G01 X9.9434 Y13.8991
G01 X10.0245 Y13.7777
G01 X12.2856 Y11.5166
G01 X12.2959 Y11.5043
G01 X12.3048 Y11.4910
G01 X12.3398 Y11.4269
G01 X12.3456 Y11.4150
G01 X12.3511 Y11.3994
G01 X12.3541 Y11.3865
G01 X12.3555 Y11.3767
G01 X12.3587 Y11.3468
G01 X12.3591 Y11.3360
G01 X12.3591 Y10.7007
G01 X12.3589 Y10.6939
G01 X12.3580 Y10.6838
G01 X12.3564 Y10.6738
G01 X12.3540 Y10.6639
G01 X12.3355 Y10.5988
G01 X12.3324 Y10.5892
G01 X12.3271 Y10.5768
G01 X12.3223 Y10.5678
G01 X12.2880 Y10.5121
G01 X12.2424 Y10.3744
G01 X12.2341 Y10.2932
G01 X12.2341 Y7.2386
G01 X12.2332 Y7.2226
G01 X12.2303 Y7.2069
G01 X12.2080 Y7.1305
G01 X12.2019 Y7.1149
G01 X12.1957 Y7.1031
G01 X12.1863 Y7.0893
G01 X12.1776 Y7.0791
G01 X12.1680 Y7.0699
G01 X12.1126 Y7.0219
G01 X12.1019 Y7.0140
G01 X12.0904 Y7.0071
G01 X12.0752 Y7.0001
G01 X12.0657 Y6.9969
G01 X12.0560 Y6.9944
G01 X12.0462 Y6.9926
G01 X11.9770 Y6.9826
G01 X11.9637 Y6.9814
G01 X11.9537 Y6.9813
G01 X11.9404 Y6.9824
G01 X11.9305 Y6.9841
G01 X11.9175 Y6.9875
G01 X11.9050 Y6.9921
G01 X11.8384 Y7.0225
G01 X11.8239 Y7.0301
G01 X11.8105 Y7.0395
G01 X11.8031 Y7.0459
G01 X11.7939 Y7.0552
G01 X11.7631 Y7.0916
G01 X11.7572 Y7.1000
G01 X11.7360 Y7.1343
G01 X11.6343 Y7.2360
G01 X11.5118 Y7.3115
G01 X11.3743 Y7.3571
G01 X11.2931 Y7.3654
G01 X11.0846 Y7.3654
G01 X11.0846 Y7.1346
G01 X11.2500 Y7.1346
G01 X11.2811 Y7.1332
G01 X11.2910 Y7.1324
G01 X11.3250 Y7.1272
G01 X11.3616 Y7.1180
G01 X11.3972 Y7.1053
G01 X11.4254 Y7.0922
G01 X11.4342 Y7.0876
G01 X11.4581 Y7.0733
G01 X11.4664 Y7.0679
G01 X11.4914 Y7.0494
G01 X11.4990 Y7.0430
G01 X11.5196 Y7.0243
G01 X11.5265 Y7.0172
G01 X11.5473 Y6.9940
G01 X11.5660 Y6.9691
G01 X11.5733 Y6.9581
G01 X11.5892 Y6.9313
G01 X11.6053 Y6.8972
G01 X11.6180 Y6.8616
G01 X11.6258 Y6.8315
G01 X11.6278 Y6.8218
G01 X11.6328 Y6.7877
G01 X11.6346 Y6.7500
G01 X11.6346 Y4.2500
G01 X11.6328 Y4.2123
G01 X11.6283 Y4.1815
G01 X11.6258 Y4.1685
G01 X11.6180 Y4.1384
G01 X11.6077 Y4.1090
G01 X11.6027 Y4.0968
G01 X11.5892 Y4.0687
G01 X11.5698 Y4.0363
G01 X11.5514 Y4.0112
G01 X11.5430 Y4.0010
G01 X11.5220 Y3.9780
G01 X11.4990 Y3.9570
G01 X11.4914 Y3.9506
G01 X11.4664 Y3.9321
G01 X11.4581 Y3.9267
G01 X11.4313 Y3.9108
G01 X11.3972 Y3.8947
G01 X11.3616 Y3.8820
G01 X11.3315 Y3.8742
G01 X11.3218 Y3.8722
G01 X11.2877 Y3.8672
G01 X11.2533 Y3.8654
G01 X11.0846 Y3.8654
G00 Z2.0000
G00 X11.1551 Y3.7949
G01 F60.00
G01 Z0.0000
G01 F120.00
G01 X11.1551 Y3.7051
G01 X11.2895 Y3.7051
G01 X11.3595 Y3.7123
G01 X11.4818 Y3.7528
G01 X11.5903 Y3.8197
G01 X11.6803 Y3.9097
G01 X11.7472 Y4.0182
G01 X11.7877 Y4.1405
G01 X11.7949 Y4.2105
G01 X11.7949 Y4.7661
G01 X11.7958 Y4.7807
G01 X11.7970 Y4.7904
G01 X11.7986 Y4.8001
G01 X11.8019 Y4.8143
G01 X11.8229 Y4.8861
G01 X11.8260 Y4.8958
G01 X11.8296 Y4.9053
G01 X11.8358 Y4.9192
G01 X11.8406 Y4.9283
G01 X11.8485 Y4.9413
G01 X11.8574 Y4.9537
G01 X11.8638 Y4.9616
G01 X11.8706 Y4.9692
G01 X11.8815 Y4.9799
G01 X11.9421 Y5.0323
G01 X11.9542 Y5.0416
G01 X11.9670 Y5.0499
G01 X11.9804 Y5.0573
G01 X11.9896 Y5.0617
G01 X12.0038 Y5.0673
G01 X12.0135 Y5.0705
G01 X12.0233 Y5.0732
G01 X12.0383 Y5.0763
G01 X12.1175 Y5.0877
G01 X12.1276 Y5.0886
G01 X12.1378 Y5.0891
G01 X12.1531 Y5.0888
G01 X12.1633 Y5.0880
G01 X12.1784 Y5.0858
G01 X12.1933 Y5.0825
G01 X12.2079 Y5.0781
G01 X12.2175 Y5.0746
G01 X12.2269 Y5.0706
G01 X12.2904 Y5.0415
G01 X12.3081 Y5.0324
G01 X12.3249 Y5.0215
G01 X12.3405 Y5.0091
G01 X12.3514 Y4.9989
G01 X12.3615 Y4.9878
G01 X12.3923 Y4.9511
G01 X12.4013 Y4.9384
G01 X12.4193 Y4.9094
G01 X12.5094 Y4.8193
G01 X12.6179 Y4.7524
G01 X12.7404 Y4.7118
G01 X12.8104 Y4.7046
G01 X13.3896 Y4.7046
G01 X13.4596 Y4.7118
G01 X13.5821 Y4.7524
G01 X13.6906 Y4.8193
G01 X13.7807 Y4.9094
G01 X13.8225 Y4.9770
G01 X13.8309 Y4.9890
G01 X13.8434 Y5.0040
G01 X13.8573 Y5.0178
G01 X13.9092 Y5.0645
G01 X13.9210 Y5.0743
G01 X13.9292 Y5.0803
G01 X13.9420 Y5.0885
G01 X13.9509 Y5.0935
G01 X13.9601 Y5.0980
G01 X13.9694 Y5.1021
G01 X13.9789 Y5.1057
G01 X13.9935 Y5.1102
G01 X14.0035 Y5.1125
G01 X14.0135 Y5.1144
G01 X14.0875 Y5.1264
G01 X14.1027 Y5.1279
G01 X14.1179 Y5.1283
G01 X14.1281 Y5.1279
G01 X14.1383 Y5.1270
G01 X14.1534 Y5.1248
G01 X14.1683 Y5.1214
G01 X14.1781 Y5.1185
G01 X14.1877 Y5.1151
G01 X14.1971 Y5.1113
G01 X14.2704 Y5.0792
G01 X14.2794 Y5.0744
G01 X14.2882 Y5.0693
G01 X14.3009 Y5.0607
G01 X14.3128 Y5.0512
G01 X14.3204 Y5.0444
G01 X14.3276 Y5.0372
G01 X14.3666 Y4.9923
G01 X14.3776 Y4.9769
G01 X14.4193 Y4.9094
G01 X14.5094 Y4.8193
G01 X14.6179 Y4.7524
G01 X14.7404 Y4.7118
G01 X14.8104 Y4.7046
G01 X15.3896 Y4.7046
G01 X15.4596 Y4.7118
G01 X15.5821 Y4.7524
G01 X15.6906 Y4.8193
G01 X15.7807 Y4.9094
G01 X15.7985 Y4.9381
G01 X15.8069 Y4.9501
G01 X15.8162 Y4.9615
G01 X15.8297 Y4.9755
G01 X15.8852 Y5.0256
G01 X15.8970 Y5.0354
G01 X15.9052 Y5.0414
G01 X15.9180 Y5.0496
G01 X15.9315 Y5.0569
G01 X15.9454 Y5.0632
G01 X15.9549 Y5.0668
G01 X15.9646 Y5.0699
G01 X15.9794 Y5.0736
G01 X16.0584 Y5.0867
G01 X16.0736 Y5.0886
G01 X16.0838 Y5.0893
G01 X16.0939 Y5.0894
G01 X16.1092 Y5.0886
G01 X16.1193 Y5.0875
G01 X16.1344 Y5.0848
G01 X16.1443 Y5.0825
G01 X16.1589 Y5.0780
G01 X16.1731 Y5.0724
G01 X16.2464 Y5.0403
G01 X16.2599 Y5.0330
G01 X16.2685 Y5.0276
G01 X16.2809 Y5.0187
G01 X16.2888 Y5.0123
G01 X16.2964 Y5.0055
G01 X16.3036 Y4.9983
G01 X16.3138 Y4.9869
G01 X16.3201 Y4.9788
G01 X16.3648 Y4.9124
G01 X16.3751 Y4.8954
G01 X16.3816 Y4.8819
G01 X16.3872 Y4.8680
G01 X16.3918 Y4.8538
G01 X16.3953 Y4.8393
G01 X16.4035 Y4.7872
G01 X16.4045 Y4.7768
G01 X16.4051 Y4.7664
G01 X16.4051 Y4.2105
G01 X16.4123 Y4.1405
G01 X16.4528 Y4.0182
G01 X16.5197 Y3.9097
G01 X16.6097 Y3.8197
G01 X16.7182 Y3.7528
G01 X16.8405 Y3.7123
G01 X16.9105 Y3.7051
G01 X17.0449 Y3.7051
G01 X17.0449 Y3.7949
G01 X16.9450 Y3.7949
G01 X16.9104 Y3.7966
G01 X16.8954 Y3.7983
G01 X16.8612 Y3.8036
G01 X16.8227 Y3.8131
G01 X16.8083 Y3.8176
G01 X16.7758 Y3.8295
G01 X16.7355 Y3.8486
G01 X16.6971 Y3.8716
G01 X16.6692 Y3.8920
G01 X16.6574 Y3.9014
G01 X16.6282 Y3.9282
G01 X16.5982 Y3.9613
G01 X16.5716 Y3.9971
G01 X16.5536 Y4.0267
G01 X16.5463 Y4.0399
G01 X16.5336 Y4.0666
G01 X16.5259 Y4.0852
G01 X16.5160 Y4.1131
G01 X16.5131 Y4.1227
G01 X16.5058 Y4.1514
G01 X16.5027 Y4.1662
G01 X16.4971 Y4.2054
G01 X16.4949 Y4.2500
G01 X16.4949 Y6.7500
G01 X16.4971 Y6.7946
G01 X16.5036 Y6.8388
G01 X16.5145 Y6.8821
G01 X16.5295 Y6.9242
G01 X16.5486 Y6.9645
G01 X16.5716 Y7.0029
G01 X16.5982 Y7.0387
G01 X16.6282 Y7.0718
G01 X16.6537 Y7.0952
G01 X16.6652 Y7.1050
G01 X16.6930 Y7.1256
G01 X16.7057 Y7.1338
G01 X16.7355 Y7.1514
G01 X16.7666 Y7.1664
G01 X16.7805 Y7.1723
G01 X16.8131 Y7.1840
G01 X16.8276 Y7.1882
G01 X16.8612 Y7.1964
G01 X16.9054 Y7.2029
G01 X16.9450 Y7.2051
G01 X17.0449 Y7.2051
G01 X17.0449 Y7.2949
G01 X16.9105 Y7.2949
G01 X16.8405 Y7.2877
G01 X16.7182 Y7.2472
G01 X16.6097 Y7.1803
G01 X16.5197 Y7.0903
G01 X16.5020 Y7.0617
G01 X16.4965 Y7.0537
G01 X16.4875 Y7.0421
G01 X16.4777 Y7.0312
G01 X16.4672 Y7.0210
G01 X16.4153 Y6.9743
G01 X16.4035 Y6.9645
G01 X16.3953 Y6.9585
G01 X16.3825 Y6.9502
G01 X16.3736 Y6.9453
G01 X16.3644 Y6.9407
G01 X16.3503 Y6.9348
G01 X16.3359 Y6.9300
G01 X16.3260 Y6.9274
G01 X16.3160 Y6.9252
G01 X16.2370 Y6.9124
G01 X16.2218 Y6.9109
G01 X16.2116 Y6.9105
G01 X16.2015 Y6.9106
G01 X16.1913 Y6.9112
G01 X16.1812 Y6.9124
G01 X16.1711 Y6.9140
G01 X16.1612 Y6.9161
G01 X16.1513 Y6.9188
G01 X16.1416 Y6.9219
G01 X16.1321 Y6.9255
G01 X16.0633 Y6.9553
G01 X16.0541 Y6.9596
G01 X16.0450 Y6.9643
G01 X16.0320 Y6.9723
G01 X16.0236 Y6.9781
G01 X16.0156 Y6.9843
G01 X16.0041 Y6.9944
G01 X15.9969 Y7.0016
G01 X15.9900 Y7.0091
G01 X15.9804 Y7.0210
G01 X15.9746 Y7.0294
G01 X15.9304 Y7.0958
G01 X15.9209 Y7.1134
G01 X15.9133 Y7.1318
G01 X15.9074 Y7.1509
G01 X15.9043 Y7.1655
G01 X15.8970 Y7.2127
G01 X15.8956 Y7.2282
G01 X15.8954 Y7.2386
G01 X15.8954 Y10.2896
G01 X15.8871 Y10.3709
G01 X15.8844 Y10.3897
G01 X15.8837 Y10.3995
G01 X15.8819 Y10.4745
G01 X15.8829 Y10.4947
G01 X15.8849 Y10.5097
G01 X15.8881 Y10.5246
G01 X15.8924 Y10.5391
G01 X15.8997 Y10.5580
G01 X15.9064 Y10.5716
G01 X15.9464 Y10.6414
G01 X15.9579 Y10.6577
G01 X15.9709 Y10.6728
G01 X18.6207 Y13.3227
G01 X18.6941 Y13.4325
G01 X18.7446 Y13.5545
G01 X18.7704 Y13.6840
G01 X18.7704 Y21.7160
G01 X18.7446 Y21.8455
G01 X18.6941 Y21.9675
G01 X18.6207 Y22.0773
G01 X15.8088 Y24.8893
G01 X15.7988 Y24.9000
G01 X15.7926 Y24.9075
G01 X15.7839 Y24.9194
G01 X15.7762 Y24.9318
G01 X15.7403 Y24.9973
G01 X15.7356 Y25.0064
G01 X15.7314 Y25.0158
G01 X15.7277 Y25.0253
G01 X15.7244 Y25.0350
G01 X15.7216 Y25.0448
G01 X15.7193 Y25.0548
G01 X15.7175 Y25.0648
G01 X15.7163 Y25.0750
G01 X15.7155 Y25.0852
G01 X15.7152 Y25.0954
G01 X15.7168 Y25.1639
G01 X15.7187 Y25.1833
G01 X15.7203 Y25.1929
G01 X15.7236 Y25.2072
G01 X15.7541 Y25.3210
G01 X15.7829 Y25.5397
G01 X15.7829 Y25.7603
G01 X15.7541 Y25.9790
G01 X15.6970 Y26.1921
G01 X15.6126 Y26.3959
G01 X15.5023 Y26.5870
G01 X15.3680 Y26.7620
G01 X15.2120 Y26.9180
G01 X15.0370 Y27.0523
G01 X14.8459 Y27.1626
G01 X14.6421 Y27.2470
G01 X14.4290 Y27.3041
G01 X14.2103 Y27.3329
G01 X13.9897 Y27.3329
G01 X13.7710 Y27.3041
G01 X13.5579 Y27.2470
G01 X13.3541 Y27.1626
G01 X13.1630 Y27.0523
G01 X12.9880 Y26.9180
G01 X12.8320 Y26.7620
G01 X12.6977 Y26.5870
G01 X12.5874 Y26.3959
G01 X12.5030 Y26.1921
G01 X12.4459 Y25.9790
G01 X12.4171 Y25.7603
G01 X12.4171 Y25.5397
G01 X12.4459 Y25.3210
G01 X12.5030 Y25.1079
G01 X12.5874 Y24.9041
G01 X12.6977 Y24.7130
G01 X12.8320 Y24.5380
G01 X12.9880 Y24.3820
G01 X13.1630 Y24.2477
G01 X13.3541 Y24.1374
G01 X13.5579 Y24.0530
G01 X13.7710 Y23.9959
G01 X13.9897 Y23.9671
G01 X14.2103 Y23.9671
G01 X14.4290 Y23.9959
G01 X14.5523 Y24.0287
G01 X14.5715 Y24.0319
G01 X14.5861 Y24.0332
G01 X14.5959 Y24.0334
G01 X14.6808 Y24.0312
G01 X14.6910 Y24.0302
G01 X14.7011 Y24.0287
G01 X14.7112 Y24.0266
G01 X14.7260 Y24.0227
G01 X14.7357 Y24.0194
G01 X14.7452 Y24.0157
G01 X14.7545 Y24.0115
G01 X14.7681 Y24.0044
G01 X14.8266 Y23.9687
G01 X14.8425 Y23.9574
G01 X14.8500 Y23.9512
G01 X14.8607 Y23.9412
G01 X17.3332 Y21.4687
G01 X17.3400 Y21.4617
G01 X17.3494 Y21.4505
G01 X17.3553 Y21.4427
G01 X17.3633 Y21.4304
G01 X17.4017 Y21.3607
G01 X17.4084 Y21.3471
G01 X17.4142 Y21.3332
G01 X17.4174 Y21.3236
G01 X17.4202 Y21.3140
G01 X17.4234 Y21.2992
G01 X17.4250 Y21.2893
G01 X17.4284 Y21.2579
G01 X17.4293 Y21.2470
G01 X17.4296 Y21.2360
G01 X17.4296 Y14.1640
G01 X17.4291 Y14.1494
G01 X17.4275 Y14.1348
G01 X17.4259 Y14.1252
G01 X17.4226 Y14.1109
G01 X17.4016 Y14.0392
G01 X17.3968 Y14.0249
G01 X17.3910 Y14.0109
G01 X17.3817 Y13.9931
G01 X17.3707 Y13.9763
G01 X17.3479 Y13.9476
G01 X17.3371 Y13.9352
G01 X14.5793 Y11.1773
G01 X14.5059 Y11.0676
G01 X14.4554 Y10.9455
G01 X14.4296 Y10.8160
G01 X14.4294 Y10.6904
G01 X14.4280 Y10.6749
G01 X14.4249 Y10.6571
G01 X14.4240 Y10.6458
G01 X14.4218 Y10.6305
G01 X14.4196 Y10.6204
G01 X14.4170 Y10.6104
G01 X14.4138 Y10.6005
G01 X14.4102 Y10.5909
G01 X14.3921 Y10.5493
G01 X14.3855 Y10.5362
G01 X14.3801 Y10.5270
G01 X14.3719 Y10.5148
G01 X14.3630 Y10.5032
G01 X14.3532 Y10.4923
G01 X14.3426 Y10.4822
G01 X14.2829 Y10.4288
G01 X14.2707 Y10.4197
G01 X14.2622 Y10.4140
G01 X14.2534 Y10.4089
G01 X14.2444 Y10.4041
G01 X14.2305 Y10.3979
G01 X14.2161 Y10.3927
G01 X14.2014 Y10.3886
G01 X14.1914 Y10.3864
G01 X14.1074 Y10.3730
G01 X14.0972 Y10.3721
G01 X14.0870 Y10.3717
G01 X14.0718 Y10.3721
G01 X14.0566 Y10.3736
G01 X14.0415 Y10.3763
G01 X14.0316 Y10.3787
G01 X14.0218 Y10.3815
G01 X14.0075 Y10.3867
G01 X13.9387 Y10.4166
G01 X13.9249 Y10.4232
G01 X13.9117 Y10.4308
G01 X13.9032 Y10.4364
G01 X13.8950 Y10.4424
G01 X13.8871 Y10.4489
G01 X13.8759 Y10.4592
G01 X13.8689 Y10.4666
G01 X13.8395 Y10.5004
G01 X13.8278 Y10.5152
G01 X13.8199 Y10.5270
G01 X13.8142 Y10.5367
G01 X13.8095 Y10.5458
G01 X13.8052 Y10.5552
G01 X13.8014 Y10.5650
G01 X13.7961 Y10.5753
G01 X13.7920 Y10.5847
G01 X13.7867 Y10.5990
G01 X13.7838 Y10.6087
G01 X13.7814 Y10.6186
G01 X13.7786 Y10.6337
G01 X13.7770 Y10.6489
G01 X13.7745 Y10.6597
G01 X13.7720 Y10.6750
G01 X13.7706 Y10.6904
G01 X13.7704 Y10.7007
G01 X13.7704 Y11.8160
G01 X13.7446 Y11.9455
G01 X13.6941 Y12.0675
G01 X13.6207 Y12.1773
G01 X11.3634 Y14.4348
G01 X11.3568 Y14.4420
G01 X11.3476 Y14.4534
G01 X11.3367 Y14.4696
G01 X11.2937 Y14.5483
G01 X11.2876 Y14.5621
G01 X11.2841 Y14.5716
G01 X11.2811 Y14.5812
G01 X11.2775 Y14.5958
G01 X11.2750 Y14.6107
G01 X11.2716 Y14.6421
G01 X11.2707 Y14.6530
G01 X11.2704 Y14.6640
G01 X11.2704 Y17.3409
G01 X11.2709 Y17.3506
G01 X11.2725 Y17.3652
G01 X11.2762 Y17.3844
G01 X11.2999 Y17.4656
G01 X11.3050 Y17.4798
G01 X11.3111 Y17.4936
G01 X11.3183 Y17.5069
G01 X11.3293 Y17.5237
G01 X11.3556 Y17.5566
G01 X11.3668 Y17.5687
G01 X12.6274 Y18.8293
G01 X12.6350 Y18.8366
G01 X12.6430 Y18.8434
G01 X12.6513 Y18.8498
G01 X12.6599 Y18.8558
G01 X12.7275 Y18.8956
G01 X12.7368 Y18.9004
G01 X12.7464 Y18.9048
G01 X12.7561 Y18.9086
G01 X12.7711 Y18.9135
G01 X13.9955 Y19.2572
G01 X14.0139 Y19.2606
G01 X14.0521 Y19.2658
G01 X14.0660 Y19.2669
G01 X14.2103 Y19.2671
G01 X14.4290 Y19.2959
G01 X14.6421 Y19.3530
G01 X14.8459 Y19.4374
G01 X15.0370 Y19.5477
G01 X15.2120 Y19.6820
G01 X15.3680 Y19.8380
G01 X15.5023 Y20.0130
G01 X15.6126 Y20.2041
G01 X15.6970 Y20.4079
G01 X15.7541 Y20.6210
G01 X15.7829 Y20.8397
G01 X15.7829 Y21.0603
G01 X15.7541 Y21.2790
G01 X15.6970 Y21.4921
G01 X15.6126 Y21.6959
G01 X15.5023 Y21.8870
G01 X15.4617 Y21.9398
G01 X15.3680 Y22.0620
G01 X15.2120 Y22.2180
G01 X15.0370 Y22.3523
G01 X14.8459 Y22.4626
G01 X14.6421 Y22.5470
G01 X14.4290 Y22.6041
G01 X14.2103 Y22.6329
G01 X13.9897 Y22.6329
G01 X13.7710 Y22.6041
G01 X13.5579 Y22.5470
G01 X13.3541 Y22.4626
G01 X13.1630 Y22.3523
G01 X12.9880 Y22.2180
G01 X12.8320 Y22.0620
G01 X12.6977 Y21.8870
G01 X12.5874 Y21.6959
G01 X12.5030 Y21.4921
G01 X12.4459 Y21.2790
G01 X12.4418 Y21.2481
G01 X12.4378 Y21.2288
G01 X12.4214 Y21.1749
G01 X12.4161 Y21.1610
G01 X12.4121 Y21.1520
G01 X11.7810 Y19.9024
G01 X11.7731 Y19.8881
G01 X11.7672 Y19.8790
G01 X11.7411 Y19.8428
G01 X11.7310 Y19.8300
G01 X11.7200 Y19.8180
G01 X10.0793 Y18.1773
G01 X10.0059 Y18.0676
G01 X9.9554 Y17.9455
G01 X9.9296 Y17.8160
G01 X9.9296 Y14.1840
G01 X9.9554 Y14.0545
G01 X10.0059 Y13.9325
G01 X10.0793 Y13.8227
G01 X12.3400 Y11.5617
G01 X12.3464 Y11.5543
G01 X12.3553 Y11.5427
G01 X12.3658 Y11.5262
G01 X12.4017 Y11.4607
G01 X12.4105 Y11.4425
G01 X12.4174 Y11.4236
G01 X12.4225 Y11.4042
G01 X12.4250 Y11.3893
G01 X12.4290 Y11.3525
G01 X12.4296 Y11.3360
G01 X12.4296 Y10.7007
G01 X12.4290 Y10.6852
G01 X12.4280 Y10.6750
G01 X12.4265 Y10.6648
G01 X12.4232 Y10.6497
G01 X12.4034 Y10.5796
G01 X12.3986 Y10.5649
G01 X12.3927 Y10.5506
G01 X12.3858 Y10.5368
G01 X12.3524 Y10.4821
G01 X12.3118 Y10.3596
G01 X12.3046 Y10.2896
G01 X12.3046 Y7.2386
G01 X12.3037 Y7.2191
G01 X12.3025 Y7.2094
G01 X12.2999 Y7.1950
G01 X12.2963 Y7.1808
G01 X12.2751 Y7.1089
G01 X12.2718 Y7.0993
G01 X12.2680 Y7.0899
G01 X12.2613 Y7.0761
G01 X12.2564 Y7.0672
G01 X12.2510 Y7.0586
G01 X12.2452 Y7.0502
G01 X12.2389 Y7.0421
G01 X12.2323 Y7.0344
G01 X12.2253 Y7.0270
G01 X12.2179 Y7.0199
G01 X12.1574 Y6.9675
G01 X12.1453 Y6.9583
G01 X12.1368 Y6.9526
G01 X12.1281 Y6.9473
G01 X12.1145 Y6.9403
G01 X12.1052 Y6.9362
G01 X12.0957 Y6.9326
G01 X12.0860 Y6.9294
G01 X12.0762 Y6.9267
G01 X12.0612 Y6.9236
G01 X11.9870 Y6.9129
G01 X11.9719 Y6.9112
G01 X11.9617 Y6.9108
G01 X11.9515 Y6.9109
G01 X11.9413 Y6.9114
G01 X11.9261 Y6.9132
G01 X11.9161 Y6.9151
G01 X11.9013 Y6.9187
G01 X11.8868 Y6.9235
G01 X11.8773 Y6.9272
G01 X11.8001 Y6.9627
G01 X11.7871 Y6.9700
G01 X11.7706 Y6.9813
G01 X11.7553 Y6.9941
G01 X11.7447 Y7.0046
G01 X11.7104 Y7.0446
G01 X11.7041 Y7.0529
G01 X11.6982 Y7.0615
G01 X11.6803 Y7.0903
G01 X11.5903 Y7.1803
G01 X11.4818 Y7.2472
G01 X11.3595 Y7.2877
G01 X11.2895 Y7.2949
G01 X11.1551 Y7.2949
G01 X11.1551 Y7.2051
G01 X11.2550 Y7.2051
G01 X11.2896 Y7.2034
G01 X11.3046 Y7.2017
G01 X11.3388 Y7.1964
G01 X11.3773 Y7.1869
G01 X11.3917 Y7.1824
G01 X11.4242 Y7.1705
G01 X11.4645 Y7.1514
G01 X11.5029 Y7.1284
G01 X11.5308 Y7.1080
G01 X11.5426 Y7.0986
G01 X11.5718 Y7.0718
G01 X11.6018 Y7.0387
G01 X11.6284 Y7.0029
G01 X11.6464 Y6.9733
G01 X11.6537 Y6.9601
G01 X11.6664 Y6.9334
G01 X11.6741 Y6.9148
G01 X11.6840 Y6.8869
G01 X11.6869 Y6.8773
G01 X11.6942 Y6.8486
G01 X11.6973 Y6.8338
G01 X11.7029 Y6.7946
G01 X11.7051 Y6.7500
G01 X11.7051 Y4.2500
G01 X11.7029 Y4.2054
G01 X11.6964 Y4.1612
G01 X11.6882 Y4.1276
G01 X11.6840 Y4.1131
G01 X11.6723 Y4.0805
G01 X11.6664 Y4.0666
G01 X11.6537 Y4.0399
G01 X11.6464 Y4.0267
G01 X11.6284 Y3.9971
G01 X11.6080 Y3.9692
G01 X11.5986 Y3.9574
G01 X11.5753 Y3.9318
G01 X11.5645 Y3.9212
G01 X11.5387 Y3.8982
G01 X11.5029 Y3.8716
G01 X11.4645 Y3.8486
G01 X11.4242 Y3.8295
G01 X11.3917 Y3.8176
G01 X11.3773 Y3.8131
G01 X11.3388 Y3.8036
G01 X11.3046 Y3.7983
G01 X11.2896 Y3.7966
G01 X11.2550 Y3.7949
G01 X11.1551 Y3.7949
G00 Z2.0000
G00 X12.3494 Y5.0898
G01 F60.00
G01 Z0.0000
G01 F120.00
G01 X12.3434 Y5.1105
G01 X12.3359 Y5.1408
G01 X12.3332 Y5.1541
G01 X12.3286 Y5.1851
G01 X12.3269 Y5.1985
G01 X12.3259 Y5.2120
G01 X12.3245 Y5.2432
G01 X12.3244 Y7.0445
G01 X12.3171 Y7.0313
G01 X12.3060 Y7.0140
G01 X12.2936 Y6.9976
G01 X12.2801 Y6.9822
G01 X12.2704 Y6.9725
G01 X12.2603 Y6.9633
G01 X12.2023 Y6.9131
G01 X12.1915 Y6.9047
G01 X12.1803 Y6.8968
G01 X12.1688 Y6.8894
G01 X12.1508 Y6.8795
G01 X12.1384 Y6.8737
G01 X12.1257 Y6.8685
G01 X12.1063 Y6.8619
G01 X12.0931 Y6.8582
G01 X12.0797 Y6.8553
G01 X12.0662 Y6.8530
G01 X11.9971 Y6.8431
G01 X11.9835 Y6.8414
G01 X11.9698 Y6.8405
G01 X11.9493 Y6.8404
G01 X11.9288 Y6.8418
G01 X11.9152 Y6.8436
G01 X11.8951 Y6.8475
G01 X11.8818 Y6.8509
G01 X11.8688 Y6.8550
G01 X11.8559 Y6.8598
G01 X11.8434 Y6.8652
G01 X11.7737 Y6.8970
G01 X11.7618 Y6.9032
G01 X11.7508 Y6.9096
G01 X11.7566 Y6.8895
G01 X11.7641 Y6.8592
G01 X11.7668 Y6.8459
G01 X11.7714 Y6.8149
G01 X11.7731 Y6.8015
G01 X11.7741 Y6.7880
G01 X11.7755 Y6.7568
G01 X11.7756 Y4.9564
G01 X11.7824 Y4.9686
G01 X11.7935 Y4.9858
G01 X11.8059 Y5.0022
G01 X11.8194 Y5.0177
G01 X11.8291 Y5.0274
G01 X11.8392 Y5.0366
G01 X11.8920 Y5.0823
G01 X11.9026 Y5.0910
G01 X11.9135 Y5.0992
G01 X11.9249 Y5.1068
G01 X11.9426 Y5.1172
G01 X11.9549 Y5.1233
G01 X11.9738 Y5.1314
G01 X11.9867 Y5.1360
G01 X11.9998 Y5.1399
G01 X12.0131 Y5.1432
G01 X12.0333 Y5.1469
G01 X12.1024 Y5.1568
G01 X12.1228 Y5.1590
G01 X12.1434 Y5.1596
G01 X12.1570 Y5.1592
G01 X12.1707 Y5.1581
G01 X12.1843 Y5.1563
G01 X12.1977 Y5.1538
G01 X12.2177 Y5.1489
G01 X12.2307 Y5.1448
G01 X12.2436 Y5.1401
G01 X12.2561 Y5.1347
G01 X12.3258 Y5.1028
G01 X12.3377 Y5.0967
G01 X12.3494 Y5.0898
G00 Z2.0000
G00 X12.2554 Y5.2109
G01 F60.00
G01 Z0.0000
G01 F120.00
G01 X12.2539 Y5.2500
G01 X12.2539 Y6.8644
G01 X12.2404 Y6.8533
G01 X12.2195 Y6.8382
G01 X12.2050 Y6.8290
G01 X12.1824 Y6.8165
G01 X12.1590 Y6.8058
G01 X12.1348 Y6.7969
G01 X12.1100 Y6.7898
G01 X12.0932 Y6.7861
G01 X12.0763 Y6.7832
G01 X11.9986 Y6.7722
G01 X11.9729 Y6.7701
G01 X11.9557 Y6.7698
G01 X11.9299 Y6.7709
G01 X11.9129 Y6.7727
G01 X11.8959 Y6.7753
G01 X11.8707 Y6.7809
G01 X11.8542 Y6.7856
G01 X11.8447 Y6.7888
G01 X11.8461 Y6.7500
G01 X11.8461 Y5.1359
G01 X11.8659 Y5.1518
G01 X11.8872 Y5.1664
G01 X11.9019 Y5.1752
G01 X11.9248 Y5.1871
G01 X11.9405 Y5.1940
G01 X11.9647 Y5.2030
G01 X11.9812 Y5.2079
G01 X12.0063 Y5.2138
G01 X12.0232 Y5.2166
G01 X12.1009 Y5.2277
G01 X12.1180 Y5.2293
G01 X12.1438 Y5.2301
G01 X12.1610 Y5.2296
G01 X12.1781 Y5.2282
G01 X12.2036 Y5.2245
G01 X12.2288 Y5.2190
G01 X12.2453 Y5.2142
G01 X12.2554 Y5.2109
G00 Z2.0000
G00 X12.1834 Y5.2985
G01 F60.00
G01 Z0.0000
G01 F120.00
G01 X12.1834 Y6.7396
G01 X12.1665 Y6.7332
G01 X12.1469 Y6.7268
G01 X12.1269 Y6.7213
G01 X12.1168 Y6.7190
G01 X12.0965 Y6.7150
G01 X12.0863 Y6.7134
G01 X12.0172 Y6.7035
G01 X11.9966 Y6.7010
G01 X11.9760 Y6.6996
G01 X11.9656 Y6.6993
G01 X11.9449 Y6.6994
G01 X11.9166 Y6.7013
G01 X11.9166 Y5.2604
G01 X11.9330 Y5.2666
G01 X11.9526 Y5.2731
G01 X11.9626 Y5.2759
G01 X11.9827 Y5.2809
G01 X12.0030 Y5.2848
G01 X12.0132 Y5.2864
G01 X12.0823 Y5.2964
G01 X12.0926 Y5.2977
G01 X12.1132 Y5.2997
G01 X12.1339 Y5.3006
G01 X12.1546 Y5.3004
G01 X12.1834 Y5.2985
G00 Z2.0000
G00 X9.6051 Y6.7895
G01 F60.00
G01 Z0.0000
G01 F120.00
G01 X9.6051 Y5.9551
G01 X9.6949 Y5.9551
G01 X9.6949 Y6.7550
G01 X9.6971 Y6.7946
G01 X9.7036 Y6.8388
G01 X9.7145 Y6.8821
G01 X9.7295 Y6.9242
G01 X9.7486 Y6.9645
G01 X9.7716 Y7.0029
G01 X9.7982 Y7.0387
G01 X9.8212 Y7.0645
G01 X9.8355 Y7.0788
G01 X9.8574 Y7.0986
G01 X9.8692 Y7.1080
G01 X9.8971 Y7.1284
G01 X9.9355 Y7.1514
G01 X9.9758 Y7.1705
G01 X10.0083 Y7.1824
G01 X10.0276 Y7.1882
G01 X10.0563 Y7.1953
G01 X10.0662 Y7.1973
G01 X10.1054 Y7.2029
G01 X10.1399 Y7.2049
G01 X10.2449 Y7.2051
G01 X10.2449 Y7.2949
G01 X10.1105 Y7.2949
G01 X10.0405 Y7.2877
G01 X9.9182 Y7.2472
G01 X9.8097 Y7.1803
G01 X9.7197 Y7.0903
G01 X9.6528 Y6.9818
G01 X9.6123 Y6.8595
G01 X9.6051 Y6.7895
G00 Z2.0000
G00 X9.5346 Y6.7931
G01 F60.00
G01 Z0.0000
G01 F120.00
G01 X9.5346 Y5.8846
G01 X9.7654 Y5.8846
G01 X9.7654 Y6.7533
G01 X9.7672 Y6.7877
G01 X9.7728 Y6.8250
G01 X9.7820 Y6.8616
G01 X9.7923 Y6.8910
G01 X9.7960 Y6.9002
G01 X9.8093 Y6.9284
G01 X9.8141 Y6.9371
G01 X9.8284 Y6.9609
G01 X9.8340 Y6.9691
G01 X9.8527 Y6.9940
G01 X9.8757 Y7.0196
G01 X9.8828 Y7.0265
G01 X9.9060 Y7.0473
G01 X9.9336 Y7.0679
G01 X9.9419 Y7.0733
G01 X9.9687 Y7.0892
G01 X9.9968 Y7.1027
G01 X10.0059 Y7.1066
G01 X10.0321 Y7.1160
G01 X10.0447 Y7.1198
G01 X10.0750 Y7.1272
G01 X10.1123 Y7.1328
G01 X10.1500 Y7.1346
G01 X10.3154 Y7.1346
G01 X10.3154 Y7.3654
G01 X10.1069 Y7.3654
G01 X10.0256 Y7.3571
G01 X9.8882 Y7.3115
G01 X9.7657 Y7.2360
G01 X9.6640 Y7.1343
G01 X9.5885 Y7.0118
G01 X9.5429 Y6.8744
G01 X9.5346 Y6.7931
G00 Z2.0000
G00 X9.4641 Y6.7967
G01 F60.00
G01 Z0.0000
G01 F120.00
G01 X9.4641 Y5.8141
G01 X9.8359 Y5.8141
G01 X9.8359 Y6.7516
G01 X9.8374 Y6.7808
G01 X9.8414 Y6.8082
G01 X9.8426 Y6.8143
G01 X9.8499 Y6.8427
G01 X9.8598 Y6.8702
G01 X9.8716 Y6.8953
G01 X9.8745 Y6.9008
G01 X9.8888 Y6.9245
G01 X9.9053 Y6.9468
G01 X9.9257 Y6.9698
G01 X9.9302 Y6.9743
G01 X9.9507 Y6.9928
G01 X9.9755 Y7.0112
G01 X10.0019 Y7.0270
G01 X10.0298 Y7.0402
G01 X10.0588 Y7.0506
G01 X10.0857 Y7.0574
G01 X10.0918 Y7.0586
G01 X10.1208 Y7.0627
G01 X10.1500 Y7.0641
G01 X10.3859 Y7.0641
G01 X10.3859 Y7.4359
G01 X10.1033 Y7.4359
G01 X10.0108 Y7.4265
G01 X9.8582 Y7.3759
G01 X9.7217 Y7.2917
G01 X9.6083 Y7.1783
G01 X9.5241 Y7.0419
G01 X9.4735 Y6.8892
G01 X9.4641 Y6.7967
G00 Z2.0000
G00 X14.0166 Y10.1658
G01 F60.00
G01 Z0.0000
G01 F120.00
G01 X14.0166 Y5.3293
G01 X14.0484 Y5.3344
G01 X14.0689 Y5.3372
G01 X14.0792 Y5.3383
G01 X14.0999 Y5.3396
G01 X14.1206 Y5.3398
G01 X14.1413 Y5.3390
G01 X14.1619 Y5.3372
G01 X14.1834 Y5.3342
G01 X14.1834 Y10.1707
G01 X14.1514 Y10.1656
G01 X14.1309 Y10.1627
G01 X14.1206 Y10.1617
G01 X14.0999 Y10.1604
G01 X14.0792 Y10.1602
G01 X14.0585 Y10.1610
G01 X14.0379 Y10.1628
G01 X14.0166 Y10.1658
G00 Z2.0000
G00 X13.9460 Y10.2596
G01 F60.00
G01 Z0.0000
G01 F120.00
G01 X13.9461 Y5.2432
G01 X13.9655 Y5.2485
G01 X13.9823 Y5.2521
G01 X14.0598 Y5.2648
G01 X14.0768 Y5.2672
G01 X14.0939 Y5.2687
G01 X14.1197 Y5.2693
G01 X14.1369 Y5.2687
G01 X14.1540 Y5.2672
G01 X14.1710 Y5.2648
G01 X14.1879 Y5.2616
G01 X14.2046 Y5.2576
G01 X14.2211 Y5.2528
G01 X14.2374 Y5.2471
G01 X14.2540 Y5.2404
G01 X14.2539 Y10.2568
G01 X14.2343 Y10.2514
G01 X14.2175 Y10.2478
G01 X14.1401 Y10.2352
G01 X14.1230 Y10.2328
G01 X14.1059 Y10.2313
G01 X14.0801 Y10.2307
G01 X14.0630 Y10.2314
G01 X14.0458 Y10.2329
G01 X14.0288 Y10.2352
G01 X14.0119 Y10.2384
G01 X13.9952 Y10.2424
G01 X13.9787 Y10.2473
G01 X13.9625 Y10.2529
G01 X13.9460 Y10.2596
G00 Z2.0000
G00 X13.8586 Y10.3817
G01 F60.00
G01 Z0.0000
G01 F120.00
G01 X13.8655 Y10.3525
G01 X13.8678 Y10.3392
G01 X13.8724 Y10.3082
G01 X13.8741 Y10.2880
G01 X13.8756 Y10.2500
G01 X13.8756 Y5.2500
G01 X13.8741 Y5.2120
G01 X13.8724 Y5.1918
G01 X13.8678 Y5.1608
G01 X13.8655 Y5.1475
G01 X13.8571 Y5.1124
G01 X13.8725 Y5.1258
G01 X13.8833 Y5.1342
G01 X13.8946 Y5.1420
G01 X13.9062 Y5.1492
G01 X13.9181 Y5.1559
G01 X13.9304 Y5.1620
G01 X13.9429 Y5.1674
G01 X13.9557 Y5.1723
G01 X13.9688 Y5.1764
G01 X13.9820 Y5.1800
G01 X14.0021 Y5.1840
G01 X14.0779 Y5.1963
G01 X14.0983 Y5.1983
G01 X14.1120 Y5.1988
G01 X14.1325 Y5.1983
G01 X14.1461 Y5.1971
G01 X14.1597 Y5.1952
G01 X14.1732 Y5.1927
G01 X14.1865 Y5.1895
G01 X14.2061 Y5.1835
G01 X14.2252 Y5.1760
G01 X14.2893 Y5.1481
G01 X14.3017 Y5.1424
G01 X14.3198 Y5.1326
G01 X14.3314 Y5.1253
G01 X14.3414 Y5.1184
G01 X14.3345 Y5.1475
G01 X14.3322 Y5.1608
G01 X14.3276 Y5.1918
G01 X14.3259 Y5.2120
G01 X14.3244 Y5.2500
G01 X14.3244 Y10.2500
G01 X14.3259 Y10.2880
G01 X14.3276 Y10.3082
G01 X14.3322 Y10.3392
G01 X14.3345 Y10.3525
G01 X14.3429 Y10.3876
G01 X14.3274 Y10.3741
G01 X14.3166 Y10.3658
G01 X14.3053 Y10.3579
G01 X14.2937 Y10.3507
G01 X14.2818 Y10.3440
G01 X14.2695 Y10.3380
G01 X14.2569 Y10.3325
G01 X14.2441 Y10.3277
G01 X14.2311 Y10.3235
G01 X14.2179 Y10.3200
G01 X14.1977 Y10.3159
G01 X14.1220 Y10.3037
G01 X14.1084 Y10.3022
G01 X14.0879 Y10.3012
G01 X14.0674 Y10.3017
G01 X14.0537 Y10.3029
G01 X14.0402 Y10.3048
G01 X14.0200 Y10.3089
G01 X14.0068 Y10.3124
G01 X13.9938 Y10.3166
G01 X13.9747 Y10.3241
G01 X13.9106 Y10.3519
G01 X13.8982 Y10.3577
G01 X13.8802 Y10.3675
G01 X13.8686 Y10.3747
G01 X13.8586 Y10.3817
G00 Z2.0000
G00 X15.8125 Y10.4996
G01 F60.00
G01 Z0.0000
G01 F120.00
G01 X15.8144 Y10.5152
G01 X15.8167 Y10.5286
G01 X15.8197 Y10.5418
G01 X15.8226 Y10.5522
G01 X15.7968 Y10.5264
G01 X15.8125 Y10.4996
G00 Z2.0000
G00 X17.9551 Y7.2051
G01 F60.00
G01 Z0.0000
G01 F120.00
G01 X18.0601 Y7.2049
G01 X18.0946 Y7.2029
G01 X18.1338 Y7.1973
G01 X18.1437 Y7.1953
G01 X18.1724 Y7.1882
G01 X18.1917 Y7.1824
G01 X18.2242 Y7.1705
G01 X18.2601 Y7.1537
G01 X18.2690 Y7.1490
G01 X18.2943 Y7.1338
G01 X18.3111 Y7.1226
G01 X18.3387 Y7.1018
G01 X18.3718 Y7.0718
G01 X18.4018 Y7.0387
G01 X18.4226 Y7.0111
G01 X18.4338 Y6.9943
G01 X18.4490 Y6.9690
G01 X18.4537 Y6.9601
G01 X18.4705 Y6.9242
G01 X18.4824 Y6.8917
G01 X18.4869 Y6.8773
G01 X18.4942 Y6.8486
G01 X18.4973 Y6.8338
G01 X18.5024 Y6.7996
G01 X18.5037 Y6.7846
G01 X18.5051 Y6.7500
G01 X18.5051 Y5.9551
G01 X18.5949 Y5.9551
G01 X18.5949 Y6.7895
G01 X18.5877 Y6.8595
G01 X18.5472 Y6.9818
G01 X18.4803 Y7.0903
G01 X18.3903 Y7.1803
G01 X18.2818 Y7.2472
G01 X18.1595 Y7.2877
G01 X18.0895 Y7.2949
G01 X17.9551 Y7.2949
G01 X17.9551 Y7.2051
G00 Z2.0000
G00 X17.8846 Y7.1346
G01 F60.00
G01 Z0.0000
G01 F120.00
G01 X18.0500 Y7.1346
G01 X18.0844 Y7.1330
G01 X18.0943 Y7.1319
G01 X18.1250 Y7.1272
G01 X18.1553 Y7.1198
G01 X18.1679 Y7.1160
G01 X18.1972 Y7.1053
G01 X18.2313 Y7.0892
G01 X18.2637 Y7.0698
G01 X18.2914 Y7.0494
G01 X18.2990 Y7.0430
G01 X18.3172 Y7.0265
G01 X18.3265 Y7.0172
G01 X18.3473 Y6.9940
G01 X18.3660 Y6.9691
G01 X18.3716 Y6.9609
G01 X18.3892 Y6.9313
G01 X18.4027 Y6.9032
G01 X18.4066 Y6.8941
G01 X18.4171 Y6.8648
G01 X18.4198 Y6.8553
G01 X18.4272 Y6.8250
G01 X18.4319 Y6.7943
G01 X18.4332 Y6.7811
G01 X18.4346 Y6.7500
G01 X18.4346 Y5.8846
G01 X18.6654 Y5.8846
G01 X18.6654 Y6.7931
G01 X18.6571 Y6.8744
G01 X18.6115 Y7.0118
G01 X18.5360 Y7.1343
G01 X18.4343 Y7.2360
G01 X18.3118 Y7.3115
G01 X18.1743 Y7.3571
G01 X18.0931 Y7.3654
G01 X17.8846 Y7.3654
G01 X17.8846 Y7.1346
G00 Z2.0000
G00 X17.8141 Y7.0641
G01 F60.00
G01 Z0.0000
G01 F120.00
G01 X18.0531 Y7.0640
G01 X18.0808 Y7.0626
G01 X18.1082 Y7.0586
G01 X18.1143 Y7.0574
G01 X18.1397 Y7.0510
G01 X18.1702 Y7.0402
G01 X18.1953 Y7.0284
G01 X18.2218 Y7.0128
G01 X18.2271 Y7.0094
G01 X18.2493 Y6.9928
G01 X18.2721 Y6.9721
G01 X18.2928 Y6.9493
G01 X18.3094 Y6.9271
G01 X18.3128 Y6.9218
G01 X18.3284 Y6.8953
G01 X18.3402 Y6.8702
G01 X18.3496 Y6.8442
G01 X18.3514 Y6.8381
G01 X18.3581 Y6.8113
G01 X18.3622 Y6.7839
G01 X18.3628 Y6.7776
G01 X18.3641 Y6.7500
G01 X18.3641 Y5.8141
G01 X18.7359 Y5.8141
G01 X18.7359 Y6.7967
G01 X18.7265 Y6.8892
G01 X18.6759 Y7.0418
G01 X18.5917 Y7.1783
G01 X18.4783 Y7.2917
G01 X18.3418 Y7.3759
G01 X18.1892 Y7.4265
G01 X18.0967 Y7.4359
G01 X17.8141 Y7.4359
G01 X17.8141 Y7.0641
G00 Z2.0000
G00 X16.0166 Y5.2943
G01 F60.00
G01 Z0.0000
G01 F120.00
G01 X16.0347 Y5.2971
G01 X16.0552 Y5.2994
G01 X16.0759 Y5.3006
G01 X16.0862 Y5.3009
G01 X16.0966 Y5.3009
G01 X16.1173 Y5.3001
G01 X16.1276 Y5.2994
G01 X16.1481 Y5.2970
G01 X16.1686 Y5.2937
G01 X16.1787 Y5.2917
G01 X16.1988 Y5.2868
G01 X16.2187 Y5.2810
G01 X16.2285 Y5.2777
G01 X16.2479 Y5.2704
G01 X16.2834 Y5.2551
G01 X16.2834 Y6.7055
G01 X16.2658 Y6.7028
G01 X16.2452 Y6.7005
G01 X16.2349 Y6.6997
G01 X16.2142 Y6.6990
G01 X16.2039 Y6.6990
G01 X16.1832 Y6.6997
G01 X16.1626 Y6.7015
G01 X16.1523 Y6.7028
G01 X16.1319 Y6.7061
G01 X16.1117 Y6.7105
G01 X16.1017 Y6.7130
G01 X16.0818 Y6.7189
G01 X16.0720 Y6.7221
G01 X16.0526 Y6.7294
G01 X16.0166 Y6.7449
G01 X16.0166 Y5.2943
G00 Z2.0000
G00 X15.9446 Y5.2103
G01 F60.00
G01 Z0.0000
G01 F120.00
G01 X15.9668 Y5.2147
G01 X16.0358 Y5.2259
G01 X16.0614 Y5.2291
G01 X16.0785 Y5.2302
G01 X16.1043 Y5.2302
G01 X16.1215 Y5.2291
G01 X16.1470 Y5.2259
G01 X16.1639 Y5.2227
G01 X16.1889 Y5.2164
G01 X16.2053 Y5.2111
G01 X16.2214 Y5.2051
G01 X16.2934 Y5.1739
G01 X16.3090 Y5.1667
G01 X16.3316 Y5.1544
G01 X16.3539 Y5.1401
G01 X16.3539 Y6.7500
G01 X16.3554 Y6.7894
G01 X16.3337 Y6.7852
G01 X16.2647 Y6.7739
G01 X16.2391 Y6.7707
G01 X16.2134 Y6.7695
G01 X16.1962 Y6.7697
G01 X16.1705 Y6.7716
G01 X16.1535 Y6.7739
G01 X16.1282 Y6.7790
G01 X16.1116 Y6.7835
G01 X16.0952 Y6.7887
G01 X16.0791 Y6.7948
G01 X16.0071 Y6.8260
G01 X15.9915 Y6.8332
G01 X15.9688 Y6.8455
G01 X15.9543 Y6.8546
G01 X15.9461 Y6.8602
G01 X15.9461 Y5.2500
G01 X15.9446 Y5.2103
G00 Z2.0000
G00 X15.8499 Y5.0880
G01 F60.00
G01 Z0.0000
G01 F120.00
G01 X15.8649 Y5.0992
G01 X15.8763 Y5.1068
G01 X15.8881 Y5.1137
G01 X15.9064 Y5.1231
G01 X15.9189 Y5.1285
G01 X15.9382 Y5.1355
G01 X15.9514 Y5.1394
G01 X15.9647 Y5.1426
G01 X15.9781 Y5.1451
G01 X16.0471 Y5.1563
G01 X16.0607 Y5.1582
G01 X16.0743 Y5.1594
G01 X16.0948 Y5.1599
G01 X16.1153 Y5.1589
G01 X16.1357 Y5.1563
G01 X16.1558 Y5.1523
G01 X16.1756 Y5.1467
G01 X16.1949 Y5.1397
G01 X16.2715 Y5.1064
G01 X16.2838 Y5.1004
G01 X16.2958 Y5.0937
G01 X16.3074 Y5.0864
G01 X16.3186 Y5.0786
G01 X16.3347 Y5.0658
G01 X16.3449 Y5.0567
G01 X16.3592 Y5.0420
G01 X16.3682 Y5.0317
G01 X16.3806 Y5.0154
G01 X16.4244 Y4.9501
G01 X16.4245 Y6.7568
G01 X16.4259 Y6.7880
G01 X16.4269 Y6.8015
G01 X16.4286 Y6.8149
G01 X16.4332 Y6.8459
G01 X16.4359 Y6.8592
G01 X16.4434 Y6.8895
G01 X16.4498 Y6.9112
G01 X16.4356 Y6.9006
G01 X16.4242 Y6.8931
G01 X16.4064 Y6.8828
G01 X16.3941 Y6.8768
G01 X16.3752 Y6.8688
G01 X16.3623 Y6.8643
G01 X16.3491 Y6.8605
G01 X16.3358 Y6.8573
G01 X16.3224 Y6.8547
G01 X16.2534 Y6.8435
G01 X16.2398 Y6.8417
G01 X16.2262 Y6.8405
G01 X16.2057 Y6.8400
G01 X16.1852 Y6.8410
G01 X16.1648 Y6.8435
G01 X16.1447 Y6.8476
G01 X16.1249 Y6.8531
G01 X16.1056 Y6.8601
G01 X16.0290 Y6.8934
G01 X16.0107 Y6.9028
G01 X15.9989 Y6.9097
G01 X15.9875 Y6.9173
G01 X15.9764 Y6.9254
G01 X15.9658 Y6.9340
G01 X15.9507 Y6.9479
G01 X15.9413 Y6.9578
G01 X15.9323 Y6.9682
G01 X15.9198 Y6.9845
G01 X15.8756 Y7.0505
G01 X15.8755 Y5.2432
G01 X15.8741 Y5.2120
G01 X15.8731 Y5.1985
G01 X15.8714 Y5.1851
G01 X15.8668 Y5.1541
G01 X15.8641 Y5.1408
G01 X15.8566 Y5.1105
G01 X15.8530 Y5.0974
G01 X15.8499 Y5.0880
G00 Z2.0000
G00 X18.1442 Y3.9504
G01 F60.00
G01 Z0.0000
G01 F120.00
G01 X18.1381 Y3.9486
G01 X18.1082 Y3.9414
G01 X18.0808 Y3.9374
G01 X18.0531 Y3.9360
G01 X17.8141 Y3.9359
G01 X17.8141 Y3.5641
G01 X18.0967 Y3.5641
G01 X18.1892 Y3.5735
G01 X18.3418 Y3.6241
G01 X18.4783 Y3.7083
G01 X18.5917 Y3.8217
G01 X18.6759 Y3.9582
G01 X18.7265 Y4.1108
G01 X18.7359 Y4.2033
G01 X18.7359 Y5.1859
G01 X18.3641 Y5.1859
G01 X18.3641 Y4.2500
G01 X18.3626 Y4.2192
G01 X18.3584 Y4.1903
G01 X18.3514 Y4.1619
G01 X18.3496 Y4.1558
G01 X18.3402 Y4.1298
G01 X18.3284 Y4.1047
G01 X18.3255 Y4.0992
G01 X18.3112 Y4.0755
G01 X18.2947 Y4.0532
G01 X18.2907 Y4.0484
G01 X18.2721 Y4.0279
G01 X18.2516 Y4.0093
G01 X18.2468 Y4.0053
G01 X18.2245 Y3.9888
G01 X18.2008 Y3.9745
G01 X18.1953 Y3.9716
G01 X18.1702 Y3.9598
G01 X18.1442 Y3.9504
G00 Z2.0000
G00 X18.1679 Y3.8840
G01 F60.00
G01 Z0.0000
G01 F120.00
G01 X18.1553 Y3.8802
G01 X18.1250 Y3.8728
G01 X18.0943 Y3.8681
G01 X18.0844 Y3.8670
G01 X18.0500 Y3.8654
G01 X17.8846 Y3.8654
G01 X17.8846 Y3.6346
G01 X18.0931 Y3.6346
G01 X18.1744 Y3.6429
G01 X18.3118 Y3.6885
G01 X18.4343 Y3.7640
G01 X18.5360 Y3.8657
G01 X18.6115 Y3.9882
G01 X18.6571 Y4.1257
G01 X18.6654 Y4.2069
G01 X18.6654 Y5.1154
G01 X18.4346 Y5.1154
G01 X18.4346 Y4.2500
G01 X18.4328 Y4.2123
G01 X18.4283 Y4.1815
G01 X18.4265 Y4.1717
G01 X18.4180 Y4.1384
G01 X18.4077 Y4.1090
G01 X18.4040 Y4.0998
G01 X18.3907 Y4.0716
G01 X18.3859 Y4.0629
G01 X18.3698 Y4.0363
G01 X18.3514 Y4.0112
G01 X18.3430 Y4.0010
G01 X18.3220 Y3.9780
G01 X18.2990 Y3.9570
G01 X18.2888 Y3.9486
G01 X18.2637 Y3.9302
G01 X18.2371 Y3.9141
G01 X18.2254 Y3.9078
G01 X18.1972 Y3.8947
G01 X18.1679 Y3.8840
G00 Z2.0000
G00 X18.1917 Y3.8176
G01 F60.00
G01 Z0.0000
G01 F120.00
G01 X18.1773 Y3.8131
G01 X18.1437 Y3.8047
G01 X18.1289 Y3.8019
G01 X18.0946 Y3.7971
G01 X18.0550 Y3.7949
G01 X17.9551 Y3.7949
G01 X17.9551 Y3.7051
G01 X18.0895 Y3.7051
G01 X18.1595 Y3.7123
G01 X18.2818 Y3.7528
G01 X18.3903 Y3.8197
G01 X18.4803 Y3.9097
G01 X18.5472 Y4.0182
G01 X18.5877 Y4.1405
G01 X18.5949 Y4.2105
G01 X18.5949 Y5.0449
G01 X18.5051 Y5.0449
G01 X18.5051 Y4.2450
G01 X18.5029 Y4.2054
G01 X18.4981 Y4.1711
G01 X18.4942 Y4.1514
G01 X18.4869 Y4.1227
G01 X18.4840 Y4.1131
G01 X18.4723 Y4.0805
G01 X18.4664 Y4.0666
G01 X18.4514 Y4.0355
G01 X18.4338 Y4.0057
G01 X18.4256 Y3.9930
G01 X18.4050 Y3.9652
G01 X18.3952 Y3.9537
G01 X18.3718 Y3.9282
G01 X18.3463 Y3.9048
G01 X18.3348 Y3.8950
G01 X18.3070 Y3.8744
G01 X18.2943 Y3.8662
G01 X18.2645 Y3.8486
G01 X18.2334 Y3.8336
G01 X18.2195 Y3.8277
G01 X18.1917 Y3.8176
G00 Z2.0000
G00 X13.4999 Y14.7750
G01 F60.00
G01 Z0.0000
G01 F120.00
G01 X13.6377 Y14.7260
G01 X13.7893 Y14.6880
G01 X13.9439 Y14.6650
G01 X14.1000 Y14.6574
G01 X14.2561 Y14.6650
G01 X14.4107 Y14.6880
G01 X14.5623 Y14.7260
G01 X14.7095 Y14.7786
G01 X14.8508 Y14.8454
G01 X14.9848 Y14.9258
G01 X15.1103 Y15.0189
G01 X15.2262 Y15.1238
G01 X15.3311 Y15.2397
G01 X15.4242 Y15.3652
G01 X15.5046 Y15.4992
G01 X15.5714 Y15.6405
G01 X15.6240 Y15.7877
G01 X15.6620 Y15.9393
G01 X15.6850 Y16.0939
G01 X15.6926 Y16.2500
G01 X15.6850 Y16.4061
G01 X15.6620 Y16.5607
G01 X15.6240 Y16.7123
G01 X15.5714 Y16.8595
G01 X15.5046 Y17.0008
G01 X15.4242 Y17.1348
G01 X15.3311 Y17.2603
G01 X15.2262 Y17.3762
G01 X15.1103 Y17.4811
G01 X14.9848 Y17.5742
G01 X14.8508 Y17.6546
G01 X14.7095 Y17.7214
G01 X14.5623 Y17.7740
G01 X14.4107 Y17.8120
G01 X14.2561 Y17.8350
G01 X14.1000 Y17.8426
G01 X13.9439 Y17.8350
G01 X13.7893 Y17.8120
G01 X13.6377 Y17.7740
G01 X13.4905 Y17.7214
G01 X13.3492 Y17.6546
G01 X13.2152 Y17.5742
G01 X13.0897 Y17.4811
G01 X12.9738 Y17.3762
G01 X12.8689 Y17.2603
G01 X12.7758 Y17.1348
G01 X12.6954 Y17.0008
G01 X12.6286 Y16.8595
G01 X12.5760 Y16.7123
G01 X12.5380 Y16.5607
G01 X12.5150 Y16.4061
G01 X12.5074 Y16.2500
G01 X12.5150 Y16.0939
G01 X12.5380 Y15.9393
G01 X12.5760 Y15.7877
G01 X12.6286 Y15.6405
G01 X12.6954 Y15.4992
G01 X12.7758 Y15.3652
G01 X12.8689 Y15.2397
G01 X12.9738 Y15.1238
G01 X13.0897 Y15.0189
G01 X13.2152 Y14.9258
G01 X13.3492 Y14.8454
G01 X13.4813 Y14.7827
G01 X13.4999 Y14.7750
G00 Z2.0000
G00 X13.5237 Y14.8414
G01 F60.00
G01 Z0.0000
G01 F120.00
G01 X13.6582 Y14.7934
G01 X13.8031 Y14.7571
G01 X13.9508 Y14.7352
G01 X14.1000 Y14.7279
G01 X14.2492 Y14.7352
G01 X14.3969 Y14.7571
G01 X14.5418 Y14.7934
G01 X14.6825 Y14.8438
G01 X14.8175 Y14.9076
G01 X14.9456 Y14.9844
G01 X15.0656 Y15.0734
G01 X15.1763 Y15.1737
G01 X15.2766 Y15.2844
G01 X15.3656 Y15.4044
G01 X15.4424 Y15.5325
G01 X15.5062 Y15.6675
G01 X15.5566 Y15.8082
G01 X15.5929 Y15.9531
G01 X15.6148 Y16.1008
G01 X15.6221 Y16.2500
G01 X15.6148 Y16.3992
G01 X15.5929 Y16.5469
G01 X15.5566 Y16.6918
G01 X15.5062 Y16.8325
G01 X15.4424 Y16.9675
G01 X15.3656 Y17.0956
G01 X15.2766 Y17.2156
G01 X15.1763 Y17.3263
G01 X15.0656 Y17.4266
G01 X14.9456 Y17.5156
G01 X14.8175 Y17.5924
G01 X14.6825 Y17.6562
G01 X14.5418 Y17.7066
G01 X14.3969 Y17.7429
G01 X14.2492 Y17.7648
G01 X14.1000 Y17.7721
G01 X13.9508 Y17.7648
G01 X13.8031 Y17.7429
G01 X13.6582 Y17.7066
G01 X13.5175 Y17.6562
G01 X13.3825 Y17.5924
G01 X13.2544 Y17.5156
G01 X13.1344 Y17.4266
G01 X13.0237 Y17.3263
G01 X12.9234 Y17.2156
G01 X12.8344 Y17.0956
G01 X12.7576 Y16.9675
G01 X12.6938 Y16.8325
G01 X12.6434 Y16.6918
G01 X12.6071 Y16.5469
G01 X12.5852 Y16.3992
G01 X12.5779 Y16.2500
G01 X12.5852 Y16.1008
G01 X12.6071 Y15.9531
G01 X12.6434 Y15.8082
G01 X12.6938 Y15.6675
G01 X12.7576 Y15.5325
G01 X12.8344 Y15.4044
G01 X12.9234 Y15.2844
G01 X13.0237 Y15.1737
G01 X13.1344 Y15.0734
G01 X13.2544 Y14.9844
G01 X13.3825 Y14.9076
G01 X13.5115 Y14.8464
G01 X13.5237 Y14.8414
G00 Z2.0000
G00 X13.5474 Y14.9078
G01 F60.00
G01 Z0.0000
G01 F120.00
G01 X13.6786 Y14.8609
G01 X13.8168 Y14.8263
G01 X13.9577 Y14.8054
G01 X14.1000 Y14.7984
G01 X14.2423 Y14.8054
G01 X14.3832 Y14.8263
G01 X14.5214 Y14.8609
G01 X14.6555 Y14.9089
G01 X14.7843 Y14.9698
G01 X14.9065 Y15.0430
G01 X15.0209 Y15.1279
G01 X15.1264 Y15.2236
G01 X15.2221 Y15.3291
G01 X15.3070 Y15.4435
G01 X15.3802 Y15.5657
G01 X15.4411 Y15.6945
G01 X15.4891 Y15.8286
G01 X15.5237 Y15.9668
G01 X15.5446 Y16.1077
G01 X15.5516 Y16.2500
G01 X15.5446 Y16.3923
G01 X15.5237 Y16.5332
G01 X15.4891 Y16.6714
G01 X15.4411 Y16.8055
G01 X15.3802 Y16.9343
G01 X15.3070 Y17.0565
G01 X15.2221 Y17.1709
G01 X15.1264 Y17.2764
G01 X15.0209 Y17.3721
G01 X14.9065 Y17.4570
G01 X14.7843 Y17.5302
G01 X14.6555 Y17.5911
G01 X14.5214 Y17.6391
G01 X14.3832 Y17.6737
G01 X14.2423 Y17.6946
G01 X14.1000 Y17.7016
G01 X13.9577 Y17.6946
G01 X13.8168 Y17.6737
G01 X13.6786 Y17.6391
G01 X13.5445 Y17.5911
G01 X13.4157 Y17.5302
G01 X13.2935 Y17.4570
G01 X13.1791 Y17.3721
G01 X13.0736 Y17.2764
G01 X12.9779 Y17.1709
G01 X12.8930 Y17.0565
G01 X12.8198 Y16.9343
G01 X12.7589 Y16.8055
G01 X12.7109 Y16.6714
G01 X12.6763 Y16.5332
G01 X12.6554 Y16.3923
G01 X12.6484 Y16.2500
G01 X12.6554 Y16.1077
G01 X12.6763 Y15.9668
G01 X12.7109 Y15.8286
G01 X12.7589 Y15.6945
G01 X12.8198 Y15.5657
G01 X12.8930 Y15.4435
G01 X12.9779 Y15.3291
G01 X13.0736 Y15.2236
G01 X13.1791 Y15.1279
G01 X13.2935 Y15.0430
G01 X13.4157 Y14.9698
G01 X13.5416 Y14.9102
G01 X13.5474 Y14.9078
G00 Z2.0000
G00 X12.4171 Y16.3603
G01 F60.00
G01 Z0.0000
G01 F120.00
G01 X12.4171 Y16.1397
G01 X12.4459 Y15.9210
G01 X12.5030 Y15.7079
G01 X12.5874 Y15.5041
G01 X12.6977 Y15.3130
G01 X12.8320 Y15.1380
G01 X12.9880 Y14.9820
G01 X13.1630 Y14.8477
G01 X13.3541 Y14.7374
G01 X13.5579 Y14.6530
G01 X13.7710 Y14.5959
G01 X13.9897 Y14.5671
G01 X14.2103 Y14.5671
G01 X14.4290 Y14.5959
G01 X14.6421 Y14.6530
G01 X14.8459 Y14.7374
G01 X15.0370 Y14.8477
G01 X15.2120 Y14.9820
G01 X15.3680 Y15.1380
G01 X15.5023 Y15.3130
G01 X15.6126 Y15.5041
G01 X15.6970 Y15.7079
G01 X15.7541 Y15.9210
G01 X15.7829 Y16.1397
G01 X15.7829 Y16.3603
G01 X15.7541 Y16.5790
G01 X15.6970 Y16.7921
G01 X15.6126 Y16.9959
G01 X15.5023 Y17.1870
G01 X15.3680 Y17.3620
G01 X15.2120 Y17.5180
G01 X15.0370 Y17.6523
G01 X14.8459 Y17.7626
G01 X14.6421 Y17.8470
G01 X14.4290 Y17.9041
G01 X14.2103 Y17.9329
G01 X13.9897 Y17.9329
G01 X13.7710 Y17.9041
G01 X13.5579 Y17.8470
G01 X13.3541 Y17.7626
G01 X13.1630 Y17.6523
G01 X12.9880 Y17.5180
G01 X12.8320 Y17.3620
G01 X12.6977 Y17.1870
G01 X12.5874 Y16.9959
G01 X12.5030 Y16.7921
G01 X12.4459 Y16.5790
G01 X12.4171 Y16.3603
G00 Z2.0000
G00 X12.3466 Y16.3649
G01 F60.00
G01 Z0.0000
G01 F120.00
G01 X12.3466 Y16.1351
G01 X12.3766 Y15.9072
G01 X12.4361 Y15.6852
G01 X12.5241 Y15.4728
G01 X12.6390 Y15.2738
G01 X12.7789 Y15.0914
G01 X12.9414 Y14.9289
G01 X13.1238 Y14.7890
G01 X13.3228 Y14.6741
G01 X13.5352 Y14.5861
G01 X13.7572 Y14.5266
G01 X13.9851 Y14.4966
G01 X14.2149 Y14.4966
G01 X14.4428 Y14.5266
G01 X14.6648 Y14.5861
G01 X14.8772 Y14.6741
G01 X15.0762 Y14.7890
G01 X15.2586 Y14.9289
G01 X15.4211 Y15.0914
G01 X15.5610 Y15.2738
G01 X15.6759 Y15.4728
G01 X15.7639 Y15.6852
G01 X15.8234 Y15.9072
G01 X15.8534 Y16.1351
G01 X15.8534 Y16.3649
G01 X15.8234 Y16.5928
G01 X15.7639 Y16.8148
G01 X15.6759 Y17.0272
G01 X15.5610 Y17.2262
G01 X15.4211 Y17.4086
G01 X15.2586 Y17.5711
G01 X15.0762 Y17.7110
G01 X14.8772 Y17.8259
G01 X14.6648 Y17.9139
G01 X14.4428 Y17.9734
G01 X14.2149 Y18.0034
G01 X13.9851 Y18.0034
G01 X13.7572 Y17.9734
G01 X13.5352 Y17.9139
G01 X13.3228 Y17.8259
G01 X13.1238 Y17.7110
G01 X12.9414 Y17.5711
G01 X12.7789 Y17.4086
G01 X12.6390 Y17.2262
G01 X12.5241 Y17.0272
G01 X12.4361 Y16.8148
G01 X12.3766 Y16.5928
G01 X12.3466 Y16.3649
G00 Z2.0000
G00 X12.2761 Y16.3695
G01 F60.00
G01 Z0.0000
G01 F120.00
G01 X12.2761 Y16.1305
G01 X12.3073 Y15.8934
G01 X12.3692 Y15.6625
G01 X12.4607 Y15.4416
G01 X12.5802 Y15.2345
G01 X12.7258 Y15.0448
G01 X12.8948 Y14.8758
G01 X13.0845 Y14.7302
G01 X13.2916 Y14.6107
G01 X13.5125 Y14.5192
G01 X13.7434 Y14.4573
G01 X13.9805 Y14.4261
G01 X14.2195 Y14.4261
G01 X14.4566 Y14.4573
G01 X14.6875 Y14.5192
G01 X14.9084 Y14.6107
G01 X15.1155 Y14.7302
G01 X15.3052 Y14.8758
G01 X15.4742 Y15.0448
G01 X15.6198 Y15.2345
G01 X15.7393 Y15.4416
G01 X15.8308 Y15.6625
G01 X15.8927 Y15.8934
G01 X15.9239 Y16.1305
G01 X15.9239 Y16.3695
G01 X15.8927 Y16.6066
G01 X15.8308 Y16.8375
G01 X15.7393 Y17.0584
G01 X15.6198 Y17.2655
G01 X15.4742 Y17.4552
G01 X15.3052 Y17.6242
G01 X15.1155 Y17.7698
G01 X14.9084 Y17.8893
G01 X14.6875 Y17.9808
G01 X14.4566 Y18.0427
G01 X14.2196 Y18.0739
G01 X13.9805 Y18.0739
G01 X13.7434 Y18.0427
G01 X13.5125 Y17.9808
G01 X13.2916 Y17.8893
G01 X13.0845 Y17.7698
G01 X12.8948 Y17.6242
G01 X12.7258 Y17.4552
G01 X12.5802 Y17.2655
G01 X12.4607 Y17.0584
G01 X12.3692 Y16.8375
G01 X12.3073 Y16.6066
G01 X12.2761 Y16.3695
G00 Z2.0000
G00 X10.1607 Y17.7500
G01 F60.00
G01 Z0.0000
G01 F120.00
G01 X10.1607 Y14.2500
G01 X10.1628 Y14.2069
G01 X10.1692 Y14.1643
G01 X10.1796 Y14.1225
G01 X10.1942 Y14.0819
G01 X10.2126 Y14.0429
G01 X10.2347 Y14.0059
G01 X10.2604 Y13.9713
G01 X10.2894 Y13.9394
G01 X12.6607 Y11.5680
G01 X12.6607 Y10.5003
G01 X12.6495 Y10.4918
G01 X12.6290 Y10.4732
G01 X12.6082 Y10.4505
G01 X12.5888 Y10.4245
G01 X12.5723 Y10.3967
G01 X12.5611 Y10.3731
G01 X12.5587 Y10.3673
G01 X12.5494 Y10.3412
G01 X12.5426 Y10.3143
G01 X12.5414 Y10.3082
G01 X12.5374 Y10.2808
G01 X12.5359 Y10.2516
G01 X12.5359 Y5.2500
G01 X12.5376 Y5.2176
G01 X12.5419 Y5.1887
G01 X12.5486 Y5.1619
G01 X12.5504 Y5.1558
G01 X12.5598 Y5.1298
G01 X12.5730 Y5.1019
G01 X12.5872 Y5.0782
G01 X12.5906 Y5.0729
G01 X12.6072 Y5.0507
G01 X12.6257 Y5.0302
G01 X12.6302 Y5.0257
G01 X12.6507 Y5.0072
G01 X12.6755 Y4.9888
G01 X12.6992 Y4.9745
G01 X12.7047 Y4.9716
G01 X12.7298 Y4.9598
G01 X12.7588 Y4.9494
G01 X12.7887 Y4.9419
G01 X12.8161 Y4.9378
G01 X12.8224 Y4.9372
G01 X12.8500 Y4.9359
G01 X13.3516 Y4.9359
G01 X13.3776 Y4.9372
G01 X13.3839 Y4.9378
G01 X13.4113 Y4.9419
G01 X13.4381 Y4.9486
G01 X13.4442 Y4.9504
G01 X13.4731 Y4.9611
G01 X13.4981 Y4.9730
G01 X13.5245 Y4.9888
G01 X13.5493 Y5.0072
G01 X13.5698 Y5.0257
G01 X13.5743 Y5.0302
G01 X13.5947 Y5.0532
G01 X13.6112 Y5.0755
G01 X13.6270 Y5.1019
G01 X13.6402 Y5.1298
G01 X13.6496 Y5.1558
G01 X13.6574 Y5.1857
G01 X13.6586 Y5.1918
G01 X13.6626 Y5.2192
G01 X13.6641 Y5.2484
G01 X13.6641 Y10.2516
G01 X13.6626 Y10.2808
G01 X13.6586 Y10.3082
G01 X13.6574 Y10.3143
G01 X13.6506 Y10.3412
G01 X13.6413 Y10.3673
G01 X13.6389 Y10.3731
G01 X13.6277 Y10.3967
G01 X13.6112 Y10.4245
G01 X13.5918 Y10.4505
G01 X13.5710 Y10.4732
G01 X13.5505 Y10.4918
G01 X13.5393 Y10.5003
G01 X13.5393 Y11.7500
G01 X13.5372 Y11.7931
G01 X13.5308 Y11.8357
G01 X13.5204 Y11.8775
G01 X13.5070 Y11.9152
G01 X13.5046 Y11.9210
G01 X13.4874 Y11.9571
G01 X13.4669 Y11.9914
G01 X13.4634 Y11.9966
G01 X13.4396 Y12.0287
G01 X13.4117 Y12.0595
G01 X11.0393 Y14.4320
G01 X11.0393 Y17.5680
G01 X12.5751 Y19.1038
G01 X13.9974 Y19.5034
G01 X14.1000 Y19.4984
G01 X14.2423 Y19.5054
G01 X14.3832 Y19.5263
G01 X14.5229 Y19.5614
G01 X14.6526 Y19.6078
G01 X14.6584 Y19.6102
G01 X14.7843 Y19.6698
G01 X14.9038 Y19.7414
G01 X14.9090 Y19.7449
G01 X15.0209 Y19.8279
G01 X15.1275 Y19.9247
G01 X15.2221 Y20.0291
G01 X15.3070 Y20.1435
G01 X15.3802 Y20.2657
G01 X15.4411 Y20.3945
G01 X15.4891 Y20.5286
G01 X15.5237 Y20.6668
G01 X15.5446 Y20.8077
G01 X15.5515 Y20.9469
G01 X15.5515 Y20.9531
G01 X15.5448 Y21.0891
G01 X15.5442 Y21.0954
G01 X15.5237 Y21.2332
G01 X15.4899 Y21.3683
G01 X15.4881 Y21.3744
G01 X15.4411 Y21.5055
G01 X15.3802 Y21.6343
G01 X15.3070 Y21.7565
G01 X15.2221 Y21.8709
G01 X15.1264 Y21.9764
G01 X15.0209 Y22.0721
G01 X14.9065 Y22.1570
G01 X14.7843 Y22.2302
G01 X14.6555 Y22.2911
G01 X14.5214 Y22.3391
G01 X14.3832 Y22.3737
G01 X14.2423 Y22.3946
G01 X14.1000 Y22.4016
G01 X13.9577 Y22.3946
G01 X13.8168 Y22.3737
G01 X13.6786 Y22.3391
G01 X13.5445 Y22.2911
G01 X13.4157 Y22.2302
G01 X13.2935 Y22.1570
G01 X13.1791 Y22.0721
G01 X13.0736 Y21.9764
G01 X12.9779 Y21.8709
G01 X12.8930 Y21.7565
G01 X12.8198 Y21.6343
G01 X12.7589 Y21.5055
G01 X12.7109 Y21.3714
G01 X12.6763 Y21.2332
G01 X12.6588 Y21.1162
G01 X11.9586 Y19.7298
G01 X10.2872 Y18.0583
G01 X10.2604 Y18.0287
G01 X10.2347 Y17.9941
G01 X10.2126 Y17.9571
G01 X10.1942 Y17.9181
G01 X10.1796 Y17.8775
G01 X10.1692 Y17.8357
G01 X10.1628 Y17.7931
G01 X10.1607 Y17.7500
G00 Z2.0000
G00 X10.0902 Y17.7500
G01 F60.00
G01 Z0.0000
G01 F120.00
G01 X10.0902 Y14.2500
G01 X10.0922 Y14.2066
G01 X10.0935 Y14.1935
G01 X10.1000 Y14.1505
G01 X10.1104 Y14.1084
G01 X10.1142 Y14.0957
G01 X10.1290 Y14.0549
G01 X10.1474 Y14.0156
G01 X10.1537 Y14.0039
G01 X10.1761 Y13.9668
G01 X10.2019 Y13.9318
G01 X10.2102 Y13.9216
G01 X10.2372 Y13.8919
G01 X12.5902 Y11.5388
G01 X12.5902 Y10.5332
G01 X12.5757 Y10.5196
G01 X12.5548 Y10.4965
G01 X12.5486 Y10.4888
G01 X12.5321 Y10.4664
G01 X12.5267 Y10.4581
G01 X12.5108 Y10.4313
G01 X12.4960 Y10.4002
G01 X12.4923 Y10.3910
G01 X12.4820 Y10.3616
G01 X12.4728 Y10.3250
G01 X12.4672 Y10.2877
G01 X12.4654 Y10.2533
G01 X12.4654 Y5.2500
G01 X12.4668 Y5.2189
G01 X12.4676 Y5.2090
G01 X12.4728 Y5.1750
G01 X12.4802 Y5.1447
G01 X12.4840 Y5.1321
G01 X12.4947 Y5.1028
G01 X12.5108 Y5.0687
G01 X12.5267 Y5.0419
G01 X12.5340 Y5.0309
G01 X12.5527 Y5.0060
G01 X12.5735 Y4.9828
G01 X12.5828 Y4.9735
G01 X12.6060 Y4.9527
G01 X12.6363 Y4.9302
G01 X12.6629 Y4.9141
G01 X12.6746 Y4.9078
G01 X12.7028 Y4.8947
G01 X12.7352 Y4.8829
G01 X12.7447 Y4.8802
G01 X12.7685 Y4.8742
G01 X12.7815 Y4.8717
G01 X12.8123 Y4.8672
G01 X12.8500 Y4.8654
G01 X13.3533 Y4.8654
G01 X13.3844 Y4.8670
G01 X13.3943 Y4.8681
G01 X13.4250 Y4.8728
G01 X13.4553 Y4.8802
G01 X13.4679 Y4.8840
G01 X13.4941 Y4.8934
G01 X13.5032 Y4.8973
G01 X13.5313 Y4.9108
G01 X13.5637 Y4.9302
G01 X13.5940 Y4.9527
G01 X13.6172 Y4.9735
G01 X13.6265 Y4.9828
G01 X13.6430 Y5.0010
G01 X13.6494 Y5.0086
G01 X13.6698 Y5.0363
G01 X13.6892 Y5.0687
G01 X13.7053 Y5.1028
G01 X13.7160 Y5.1321
G01 X13.7198 Y5.1447
G01 X13.7258 Y5.1685
G01 X13.7278 Y5.1782
G01 X13.7328 Y5.2123
G01 X13.7346 Y5.2467
G01 X13.7346 Y10.2533
G01 X13.7328 Y10.2877
G01 X13.7272 Y10.3250
G01 X13.7180 Y10.3616
G01 X13.7077 Y10.3910
G01 X13.7040 Y10.4002
G01 X13.6892 Y10.4313
G01 X13.6733 Y10.4581
G01 X13.6679 Y10.4664
G01 X13.6514 Y10.4888
G01 X13.6452 Y10.4965
G01 X13.6243 Y10.5196
G01 X13.6098 Y10.5332
G01 X13.6098 Y11.7500
G01 X13.6073 Y11.8000
G01 X13.6006 Y11.8462
G01 X13.5986 Y11.8559
G01 X13.5896 Y11.8916
G01 X13.5858 Y11.9043
G01 X13.5710 Y11.9451
G01 X13.5496 Y11.9903
G01 X13.5274 Y12.0276
G01 X13.5201 Y12.0386
G01 X13.4941 Y12.0734
G01 X13.4628 Y12.1081
G01 X11.1098 Y14.4612
G01 X11.1098 Y17.5388
G01 X12.6119 Y19.0409
G01 X14.0054 Y19.4324
G01 X14.0934 Y19.4281
G01 X14.1033 Y19.4279
G01 X14.2426 Y19.4347
G01 X14.2525 Y19.4356
G01 X14.3969 Y19.4571
G01 X14.5355 Y19.4917
G01 X14.5450 Y19.4944
G01 X14.6763 Y19.5414
G01 X14.6885 Y19.5464
G01 X14.8175 Y19.6076
G01 X14.9401 Y19.6809
G01 X14.9510 Y19.6882
G01 X15.0656 Y19.7734
G01 X15.1715 Y19.8691
G01 X15.1786 Y19.8761
G01 X15.2766 Y19.9844
G01 X15.3656 Y20.1044
G01 X15.4424 Y20.2325
G01 X15.5062 Y20.3675
G01 X15.5566 Y20.5082
G01 X15.5929 Y20.6531
G01 X15.6148 Y20.8008
G01 X15.6219 Y20.9434
G01 X15.6219 Y20.9566
G01 X15.6153 Y21.0926
G01 X15.6140 Y21.1058
G01 X15.5929 Y21.2469
G01 X15.5583 Y21.3855
G01 X15.5545 Y21.3981
G01 X15.5062 Y21.5325
G01 X15.4424 Y21.6675
G01 X15.3656 Y21.7956
G01 X15.2766 Y21.9156
G01 X15.1763 Y22.0263
G01 X15.0656 Y22.1266
G01 X14.9456 Y22.2156
G01 X14.8175 Y22.2924
G01 X14.6825 Y22.3562
G01 X14.5418 Y22.4066
G01 X14.3969 Y22.4429
G01 X14.2492 Y22.4648
G01 X14.1000 Y22.4721
G01 X13.9508 Y22.4648
G01 X13.8031 Y22.4429
G01 X13.6582 Y22.4066
G01 X13.5175 Y22.3562
G01 X13.3825 Y22.2924
G01 X13.2544 Y22.2156
G01 X13.1344 Y22.1266
G01 X13.0237 Y22.0263
G01 X12.9234 Y21.9156
G01 X12.8344 Y21.7956
G01 X12.7576 Y21.6675
G01 X12.6938 Y21.5325
G01 X12.6434 Y21.3918
G01 X12.6071 Y21.2470
G01 X12.5908 Y21.1379
G01 X11.9007 Y19.7717
G01 X10.2395 Y18.1105
G01 X10.2102 Y18.0784
G01 X10.2019 Y18.0682
G01 X10.1780 Y18.0360
G01 X10.1726 Y18.0276
G01 X10.1537 Y17.9961
G01 X10.1474 Y17.9844
G01 X10.1303 Y17.9481
G01 X10.1266 Y17.9389
G01 X10.1122 Y17.8980
G01 X10.1000 Y17.8495
G01 X10.0927 Y17.8000
G01 X10.0902 Y17.7500
G00 Z2.0000
G00 X10.0197 Y17.7500
G01 F60.00
G01 Z0.0000
G01 F120.00
G01 X10.0197 Y14.2500
G01 X10.0225 Y14.1931
G01 X10.0308 Y14.1368
G01 X10.0447 Y14.0815
G01 X10.0639 Y14.0279
G01 X10.0882 Y13.9764
G01 X10.1175 Y13.9276
G01 X10.1514 Y13.8819
G01 X10.1861 Y13.8433
G01 X12.5197 Y11.5096
G01 X12.5197 Y10.5628
G01 X12.5014 Y10.5426
G01 X12.4950 Y10.5348
G01 X12.4774 Y10.5111
G01 X12.4688 Y10.4986
G01 X12.4486 Y10.4645
G01 X12.4295 Y10.4242
G01 X12.4145 Y10.3821
G01 X12.4036 Y10.3388
G01 X12.3971 Y10.2946
G01 X12.3949 Y10.2550
G01 X12.3949 Y5.2500
G01 X12.3966 Y5.2104
G01 X12.3983 Y5.1954
G01 X12.4036 Y5.1612
G01 X12.4131 Y5.1227
G01 X12.4176 Y5.1083
G01 X12.4295 Y5.0758
G01 X12.4463 Y5.0399
G01 X12.4536 Y5.0267
G01 X12.4716 Y4.9971
G01 X12.4920 Y4.9692
G01 X12.5014 Y4.9574
G01 X12.5282 Y4.9282
G01 X12.5574 Y4.9014
G01 X12.5692 Y4.8920
G01 X12.5971 Y4.8716
G01 X12.6267 Y4.8536
G01 X12.6399 Y4.8463
G01 X12.6712 Y4.8315
G01 X12.6852 Y4.8259
G01 X12.7179 Y4.8145
G01 X12.7612 Y4.8036
G01 X12.7954 Y4.7983
G01 X12.8104 Y4.7966
G01 X12.8500 Y4.7949
G01 X13.3550 Y4.7949
G01 X13.3896 Y4.7966
G01 X13.4046 Y4.7983
G01 X13.4388 Y4.8036
G01 X13.4773 Y4.8131
G01 X13.4869 Y4.8160
G01 X13.5148 Y4.8259
G01 X13.5334 Y4.8336
G01 X13.5645 Y4.8486
G01 X13.6029 Y4.8716
G01 X13.6387 Y4.8982
G01 X13.6645 Y4.9212
G01 X13.6788 Y4.9355
G01 X13.6986 Y4.9574
G01 X13.7080 Y4.9692
G01 X13.7284 Y4.9971
G01 X13.7514 Y5.0355
G01 X13.7705 Y5.0758
G01 X13.7824 Y5.1083
G01 X13.7882 Y5.1276
G01 X13.7953 Y5.1563
G01 X13.7973 Y5.1662
G01 X13.8029 Y5.2054
G01 X13.8051 Y5.2450
G01 X13.8051 Y10.2550
G01 X13.8029 Y10.2946
G01 X13.7964 Y10.3388
G01 X13.7855 Y10.3821
G01 X13.7705 Y10.4242
G01 X13.7514 Y10.4645
G01 X13.7312 Y10.4986
G01 X13.7226 Y10.5111
G01 X13.7050 Y10.5348
G01 X13.6986 Y10.5426
G01 X13.6803 Y10.5628
G01 X13.6803 Y11.7500
G01 X13.6775 Y11.8069
G01 X13.6701 Y11.8583
G01 X13.6670 Y11.8730
G01 X13.6580 Y11.9088
G01 X13.6522 Y11.9280
G01 X13.6361 Y11.9721
G01 X13.6118 Y12.0236
G01 X13.5879 Y12.0639
G01 X13.5767 Y12.0806
G01 X13.5486 Y12.1181
G01 X13.5139 Y12.1567
G01 X11.1803 Y14.4904
G01 X11.1803 Y17.5096
G01 X12.6487 Y18.9780
G01 X14.0134 Y19.3614
G01 X14.0899 Y19.3576
G01 X14.1050 Y19.3574
G01 X14.2461 Y19.3643
G01 X14.2611 Y19.3656
G01 X14.4107 Y19.3880
G01 X14.5526 Y19.4233
G01 X14.5671 Y19.4275
G01 X14.7001 Y19.4750
G01 X14.7187 Y19.4827
G01 X14.8508 Y19.5454
G01 X14.9763 Y19.6204
G01 X14.9930 Y19.6316
G01 X15.1103 Y19.7189
G01 X15.2189 Y19.8169
G01 X15.2297 Y19.8275
G01 X15.3311 Y19.9397
G01 X15.4242 Y20.0652
G01 X15.5046 Y20.1992
G01 X15.5714 Y20.3405
G01 X15.6240 Y20.4877
G01 X15.6620 Y20.6393
G01 X15.6850 Y20.7939
G01 X15.6924 Y20.9399
G01 X15.6924 Y20.9601
G01 X15.6857 Y21.0961
G01 X15.6837 Y21.1161
G01 X15.6620 Y21.2607
G01 X15.6267 Y21.4026
G01 X15.6209 Y21.4219
G01 X15.5714 Y21.5595
G01 X15.5046 Y21.7008
G01 X15.4242 Y21.8348
G01 X15.3343 Y21.9564
G01 X15.3245 Y21.9680
G01 X15.2262 Y22.0762
G01 X15.1103 Y22.1811
G01 X14.9848 Y22.2742
G01 X14.8508 Y22.3546
G01 X14.7095 Y22.4214
G01 X14.5623 Y22.4740
G01 X14.4107 Y22.5120
G01 X14.2561 Y22.5350
G01 X14.1000 Y22.5426
G01 X13.9439 Y22.5350
G01 X13.7893 Y22.5120
G01 X13.6377 Y22.4740
G01 X13.4905 Y22.4214
G01 X13.3492 Y22.3546
G01 X13.2152 Y22.2742
G01 X13.0936 Y22.1843
G01 X13.0820 Y22.1745
G01 X12.9738 Y22.0762
G01 X12.8689 Y21.9603
G01 X12.7758 Y21.8348
G01 X12.6954 Y21.7008
G01 X12.6286 Y21.5595
G01 X12.5775 Y21.4171
G01 X12.5733 Y21.4026
G01 X12.5390 Y21.2656
G01 X12.5363 Y21.2508
G01 X12.5227 Y21.1595
G01 X11.8429 Y19.8136
G01 X10.1897 Y18.1603
G01 X10.1547 Y18.1220
G01 X10.1452 Y18.1102
G01 X10.1175 Y18.0724
G01 X10.0932 Y18.0323
G01 X10.0837 Y18.0146
G01 X10.0658 Y17.9767
G01 X10.0602 Y17.9627
G01 X10.0447 Y17.9185
G01 X10.0308 Y17.8632
G01 X10.0225 Y17.8069
G01 X10.0197 Y17.7500
G00 Z2.0000
G00 X13.4999 Y24.1750
G01 F60.00
G01 Z0.0000
G01 F120.00
G01 X13.6377 Y24.1260
G01 X13.7893 Y24.0880
G01 X13.9439 Y24.0650
G01 X14.0899 Y24.0576
G01 X14.1050 Y24.0574
G01 X14.2561 Y24.0650
G01 X14.4008 Y24.0863
G01 X14.4156 Y24.0890
G01 X14.5526 Y24.1233
G01 X14.5671 Y24.1275
G01 X14.7048 Y24.1767
G01 X14.7141 Y24.1806
G01 X14.7377 Y24.1917
G01 X17.5197 Y21.4096
G01 X17.5197 Y13.9904
G01 X14.6897 Y11.1603
G01 X14.6547 Y11.1220
G01 X14.6452 Y11.1102
G01 X14.6175 Y11.0724
G01 X14.5882 Y11.0236
G01 X14.5639 Y10.9721
G01 X14.5447 Y10.9185
G01 X14.5308 Y10.8632
G01 X14.5237 Y10.8169
G01 X14.5221 Y10.8019
G01 X14.5197 Y10.7500
G01 X14.5197 Y10.5628
G01 X14.4982 Y10.5387
G01 X14.4716 Y10.5029
G01 X14.4486 Y10.4645
G01 X14.4336 Y10.4334
G01 X14.4259 Y10.4148
G01 X14.4160 Y10.3869
G01 X14.4131 Y10.3773
G01 X14.4036 Y10.3388
G01 X14.3976 Y10.2996
G01 X14.3963 Y10.2846
G01 X14.3949 Y10.2500
G01 X14.3949 Y5.2500
G01 X14.3971 Y5.2054
G01 X14.4027 Y5.1662
G01 X14.4058 Y5.1514
G01 X14.4145 Y5.1179
G01 X14.4277 Y5.0805
G01 X14.4336 Y5.0666
G01 X14.4486 Y5.0355
G01 X14.4662 Y5.0057
G01 X14.4744 Y4.9930
G01 X14.4982 Y4.9613
G01 X14.5247 Y4.9318
G01 X14.5355 Y4.9212
G01 X14.5613 Y4.8982
G01 X14.5889 Y4.8774
G01 X14.6014 Y4.8688
G01 X14.6355 Y4.8486
G01 X14.6666 Y4.8336
G01 X14.6805 Y4.8277
G01 X14.7179 Y4.8145
G01 X14.7612 Y4.8036
G01 X14.8054 Y4.7971
G01 X14.8399 Y4.7951
G01 X15.3500 Y4.7949
G01 X15.3946 Y4.7971
G01 X15.4388 Y4.8036
G01 X15.4821 Y4.8145
G01 X15.5242 Y4.8295
G01 X15.5555 Y4.8441
G01 X15.5690 Y4.8510
G01 X15.5943 Y4.8662
G01 X15.6111 Y4.8774
G01 X15.6387 Y4.8982
G01 X15.6718 Y4.9282
G01 X15.7018 Y4.9613
G01 X15.7284 Y4.9971
G01 X15.7514 Y5.0355
G01 X15.7664 Y5.0666
G01 X15.7741 Y5.0852
G01 X15.7840 Y5.1131
G01 X15.7882 Y5.1276
G01 X15.7953 Y5.1563
G01 X15.7973 Y5.1662
G01 X15.8024 Y5.2004
G01 X15.8037 Y5.2154
G01 X15.8051 Y5.2500
G01 X15.8051 Y10.2550
G01 X15.8029 Y10.2946
G01 X15.7973 Y10.3338
G01 X15.7953 Y10.3437
G01 X15.7882 Y10.3724
G01 X15.7824 Y10.3917
G01 X15.7705 Y10.4242
G01 X15.7514 Y10.4645
G01 X15.7284 Y10.5029
G01 X15.7052 Y10.5345
G01 X18.5139 Y13.3433
G01 X18.5486 Y13.3819
G01 X18.5767 Y13.4194
G01 X18.5879 Y13.4361
G01 X18.6118 Y13.4764
G01 X18.6321 Y13.5187
G01 X18.6398 Y13.5373
G01 X18.6553 Y13.5815
G01 X18.6692 Y13.6368
G01 X18.6775 Y13.6931
G01 X18.6803 Y13.7500
G01 X18.6803 Y21.6500
G01 X18.6775 Y21.7069
G01 X18.6692 Y21.7632
G01 X18.6580 Y21.8088
G01 X18.6538 Y21.8233
G01 X18.6398 Y21.8627
G01 X18.6321 Y21.8813
G01 X18.6118 Y21.9236
G01 X18.5825 Y21.9724
G01 X18.5486 Y22.0181
G01 X18.5139 Y22.0567
G01 X15.5583 Y25.0123
G01 X15.5694 Y25.0359
G01 X15.5733 Y25.0452
G01 X15.6225 Y25.1829
G01 X15.6267 Y25.1974
G01 X15.6620 Y25.3393
G01 X15.6850 Y25.4939
G01 X15.6926 Y25.6500
G01 X15.6850 Y25.8061
G01 X15.6620 Y25.9607
G01 X15.6240 Y26.1123
G01 X15.5714 Y26.2595
G01 X15.5046 Y26.4008
G01 X15.4242 Y26.5348
G01 X15.3311 Y26.6603
G01 X15.2262 Y26.7762
G01 X15.1103 Y26.8811
G01 X14.9848 Y26.9742
G01 X14.8508 Y27.0546
G01 X14.7095 Y27.1214
G01 X14.5623 Y27.1740
G01 X14.4107 Y27.2120
G01 X14.2561 Y27.2350
G01 X14.1000 Y27.2426
G01 X13.9439 Y27.2350
G01 X13.7893 Y27.2120
G01 X13.6377 Y27.1740
G01 X13.4905 Y27.1214
G01 X13.3492 Y27.0546
G01 X13.2152 Y26.9742
G01 X13.0897 Y26.8811
G01 X12.9738 Y26.7762
G01 X12.8689 Y26.6603
G01 X12.7758 Y26.5348
G01 X12.6954 Y26.4008
G01 X12.6286 Y26.2595
G01 X12.5760 Y26.1123
G01 X12.5380 Y25.9607
G01 X12.5150 Y25.8061
G01 X12.5074 Y25.6500
G01 X12.5150 Y25.4939
G01 X12.5380 Y25.3393
G01 X12.5760 Y25.1877
G01 X12.6286 Y25.0405
G01 X12.6954 Y24.8992
G01 X12.7758 Y24.7652
G01 X12.8689 Y24.6397
G01 X12.9738 Y24.5238
G01 X13.0897 Y24.4189
G01 X13.2152 Y24.3258
G01 X13.3492 Y24.2454
G01 X13.4813 Y24.1827
G01 X13.4999 Y24.1750
G00 Z2.0000
G00 X13.5237 Y24.2414
G01 F60.00
G01 Z0.0000
G01 F120.00
G01 X13.6582 Y24.1934
G01 X13.8031 Y24.1571
G01 X13.9508 Y24.1352
G01 X14.0934 Y24.1281
G01 X14.1033 Y24.1279
G01 X14.2492 Y24.1352
G01 X14.3904 Y24.1560
G01 X14.4002 Y24.1578
G01 X14.5355 Y24.1917
G01 X14.5450 Y24.1944
G01 X14.6794 Y24.2425
G01 X14.6885 Y24.2464
G01 X14.7524 Y24.2766
G01 X17.5902 Y21.4388
G01 X17.5902 Y13.9612
G01 X14.7395 Y11.1105
G01 X14.7080 Y11.0759
G01 X14.7019 Y11.0682
G01 X14.6761 Y11.0332
G01 X14.6537 Y10.9961
G01 X14.6474 Y10.9844
G01 X14.6290 Y10.9451
G01 X14.6142 Y10.9043
G01 X14.6104 Y10.8916
G01 X14.6007 Y10.8527
G01 X14.5989 Y10.8429
G01 X14.5927 Y10.8000
G01 X14.5902 Y10.7533
G01 X14.5902 Y10.5332
G01 X14.5757 Y10.5196
G01 X14.5570 Y10.4990
G01 X14.5506 Y10.4914
G01 X14.5302 Y10.4637
G01 X14.5141 Y10.4371
G01 X14.5093 Y10.4284
G01 X14.4947 Y10.3972
G01 X14.4820 Y10.3616
G01 X14.4728 Y10.3250
G01 X14.4676 Y10.2910
G01 X14.4668 Y10.2811
G01 X14.4654 Y10.2500
G01 X14.4654 Y5.2500
G01 X14.4672 Y5.2123
G01 X14.4722 Y5.1782
G01 X14.4742 Y5.1685
G01 X14.4802 Y5.1447
G01 X14.4840 Y5.1321
G01 X14.4947 Y5.1028
G01 X14.5078 Y5.0746
G01 X14.5141 Y5.0629
G01 X14.5302 Y5.0363
G01 X14.5486 Y5.0112
G01 X14.5570 Y5.0010
G01 X14.5780 Y4.9780
G01 X14.6010 Y4.9570
G01 X14.6112 Y4.9486
G01 X14.6363 Y4.9302
G01 X14.6629 Y4.9141
G01 X14.6746 Y4.9078
G01 X14.7028 Y4.8947
G01 X14.7352 Y4.8829
G01 X14.7447 Y4.8802
G01 X14.7685 Y4.8742
G01 X14.7815 Y4.8717
G01 X14.8123 Y4.8672
G01 X14.8467 Y4.8654
G01 X15.3500 Y4.8654
G01 X15.3877 Y4.8672
G01 X15.4250 Y4.8728
G01 X15.4616 Y4.8820
G01 X15.4972 Y4.8947
G01 X15.5254 Y4.9078
G01 X15.5342 Y4.9124
G01 X15.5581 Y4.9267
G01 X15.5691 Y4.9340
G01 X15.5888 Y4.9486
G01 X15.5965 Y4.9548
G01 X15.6196 Y4.9757
G01 X15.6265 Y4.9828
G01 X15.6473 Y5.0060
G01 X15.6698 Y5.0363
G01 X15.6892 Y5.0687
G01 X15.7053 Y5.1028
G01 X15.7180 Y5.1384
G01 X15.7272 Y5.1750
G01 X15.7328 Y5.2123
G01 X15.7344 Y5.2434
G01 X15.7346 Y10.2533
G01 X15.7328 Y10.2877
G01 X15.7272 Y10.3250
G01 X15.7180 Y10.3616
G01 X15.7077 Y10.3910
G01 X15.7040 Y10.4002
G01 X15.6892 Y10.4313
G01 X15.6698 Y10.4637
G01 X15.6514 Y10.4888
G01 X15.6452 Y10.4965
G01 X15.6243 Y10.5196
G01 X15.6098 Y10.5332
G01 X15.6098 Y10.5388
G01 X18.4628 Y13.3919
G01 X18.4941 Y13.4266
G01 X18.5201 Y13.4614
G01 X18.5274 Y13.4724
G01 X18.5496 Y13.5097
G01 X18.5683 Y13.5489
G01 X18.5734 Y13.5611
G01 X18.5878 Y13.6020
G01 X18.6000 Y13.6505
G01 X18.6073 Y13.7000
G01 X18.6098 Y13.7500
G01 X18.6098 Y21.6500
G01 X18.6073 Y21.7000
G01 X18.6000 Y21.7495
G01 X18.5896 Y21.7916
G01 X18.5868 Y21.8011
G01 X18.5734 Y21.8389
G01 X18.5683 Y21.8511
G01 X18.5496 Y21.8903
G01 X18.5239 Y21.9332
G01 X18.4941 Y21.9734
G01 X18.4628 Y22.0081
G01 X15.4734 Y24.9976
G01 X15.5036 Y25.0615
G01 X15.5075 Y25.0706
G01 X15.5556 Y25.2050
G01 X15.5583 Y25.2145
G01 X15.5922 Y25.3498
G01 X15.5940 Y25.3596
G01 X15.6148 Y25.5008
G01 X15.6221 Y25.6467
G01 X15.6219 Y25.6566
G01 X15.6148 Y25.7992
G01 X15.5929 Y25.9469
G01 X15.5566 Y26.0918
G01 X15.5075 Y26.2294
G01 X15.5036 Y26.2385
G01 X15.4424 Y26.3675
G01 X15.3656 Y26.4956
G01 X15.2766 Y26.6156
G01 X15.1763 Y26.7263
G01 X15.0656 Y26.8266
G01 X14.9456 Y26.9156
G01 X14.8175 Y26.9924
G01 X14.6825 Y27.0562
G01 X14.5418 Y27.1066
G01 X14.3969 Y27.1429
G01 X14.2492 Y27.1648
G01 X14.1000 Y27.1721
G01 X13.9508 Y27.1648
G01 X13.8031 Y27.1429
G01 X13.6582 Y27.1066
G01 X13.5175 Y27.0562
G01 X13.3825 Y26.9924
G01 X13.2544 Y26.9156
G01 X13.1344 Y26.8266
G01 X13.0237 Y26.7263
G01 X12.9234 Y26.6156
G01 X12.8344 Y26.4956
G01 X12.7576 Y26.3675
G01 X12.6938 Y26.2325
G01 X12.6434 Y26.0918
G01 X12.6071 Y25.9469
G01 X12.5852 Y25.7992
G01 X12.5779 Y25.6500
G01 X12.5852 Y25.5008
G01 X12.6071 Y25.3531
G01 X12.6434 Y25.2082
G01 X12.6938 Y25.0675
G01 X12.7576 Y24.9325
G01 X12.8344 Y24.8044
G01 X12.9234 Y24.6844
G01 X13.0237 Y24.5737
G01 X13.1344 Y24.4734
G01 X13.2544 Y24.3844
G01 X13.3825 Y24.3076
G01 X13.5115 Y24.2464
G01 X13.5237 Y24.2414
G00 Z2.0000
G00 X13.5474 Y24.3078
G01 F60.00
G01 Z0.0000
G01 F120.00
G01 X13.6786 Y24.2609
G01 X13.8168 Y24.2263
G01 X13.9577 Y24.2054
G01 X14.0969 Y24.1985
G01 X14.1031 Y24.1985
G01 X14.2423 Y24.2054
G01 X14.3801 Y24.2258
G01 X14.3863 Y24.2270
G01 X14.5183 Y24.2601
G01 X14.5244 Y24.2619
G01 X14.6555 Y24.3089
G01 X14.7671 Y24.3616
G01 X17.6607 Y21.4680
G01 X17.6607 Y13.9320
G01 X14.7894 Y11.0606
G01 X14.7614 Y11.0299
G01 X14.7347 Y10.9941
G01 X14.7141 Y10.9598
G01 X14.7112 Y10.9543
G01 X14.6942 Y10.9181
G01 X14.6806 Y10.8805
G01 X14.6788 Y10.8745
G01 X14.6692 Y10.8357
G01 X14.6628 Y10.7931
G01 X14.6607 Y10.7516
G01 X14.6607 Y10.5003
G01 X14.6495 Y10.4918
G01 X14.6290 Y10.4732
G01 X14.6082 Y10.4505
G01 X14.5888 Y10.4245
G01 X14.5737 Y10.3994
G01 X14.5598 Y10.3702
G01 X14.5494 Y10.3412
G01 X14.5419 Y10.3113
G01 X14.5378 Y10.2839
G01 X14.5372 Y10.2776
G01 X14.5359 Y10.2500
G01 X14.5359 Y5.2500
G01 X14.5374 Y5.2192
G01 X14.5414 Y5.1918
G01 X14.5426 Y5.1857
G01 X14.5494 Y5.1588
G01 X14.5587 Y5.1327
G01 X14.5611 Y5.1269
G01 X14.5730 Y5.1019
G01 X14.5872 Y5.0782
G01 X14.5906 Y5.0729
G01 X14.6093 Y5.0484
G01 X14.6279 Y5.0279
G01 X14.6484 Y5.0093
G01 X14.6532 Y5.0053
G01 X14.6755 Y4.9888
G01 X14.6992 Y4.9745
G01 X14.7047 Y4.9716
G01 X14.7298 Y4.9598
G01 X14.7588 Y4.9494
G01 X14.7857 Y4.9426
G01 X14.7918 Y4.9414
G01 X14.8192 Y4.9374
G01 X14.8484 Y4.9359
G01 X15.3500 Y4.9359
G01 X15.3808 Y4.9374
G01 X15.4113 Y4.9419
G01 X15.4412 Y4.9494
G01 X15.4702 Y4.9598
G01 X15.4953 Y4.9716
G01 X15.5218 Y4.9872
G01 X15.5271 Y4.9906
G01 X15.5493 Y5.0072
G01 X15.5698 Y5.0257
G01 X15.5743 Y5.0302
G01 X15.5928 Y5.0507
G01 X15.6112 Y5.0755
G01 X15.6270 Y5.1019
G01 X15.6402 Y5.1298
G01 X15.6506 Y5.1588
G01 X15.6581 Y5.1887
G01 X15.6626 Y5.2192
G01 X15.6641 Y5.2484
G01 X15.6641 Y10.2516
G01 X15.6626 Y10.2808
G01 X15.6586 Y10.3082
G01 X15.6574 Y10.3143
G01 X15.6506 Y10.3412
G01 X15.6413 Y10.3673
G01 X15.6389 Y10.3731
G01 X15.6277 Y10.3967
G01 X15.6112 Y10.4245
G01 X15.5918 Y10.4505
G01 X15.5710 Y10.4732
G01 X15.5505 Y10.4918
G01 X15.5393 Y10.5003
G01 X15.5393 Y10.5680
G01 X18.4117 Y13.4405
G01 X18.4396 Y13.4713
G01 X18.4634 Y13.5034
G01 X18.4669 Y13.5086
G01 X18.4874 Y13.5429
G01 X18.5046 Y13.5790
G01 X18.5070 Y13.5848
G01 X18.5204 Y13.6225
G01 X18.5308 Y13.6643
G01 X18.5372 Y13.7069
G01 X18.5393 Y13.7500
G01 X18.5393 Y21.6500
G01 X18.5372 Y21.6931
G01 X18.5308 Y21.7357
G01 X18.5212 Y21.7745
G01 X18.5194 Y21.7805
G01 X18.5070 Y21.8152
G01 X18.5046 Y21.8210
G01 X18.4874 Y21.8571
G01 X18.4653 Y21.8941
G01 X18.4396 Y21.9287
G01 X18.4117 Y21.9595
G01 X15.3884 Y24.9829
G01 X15.4411 Y25.0945
G01 X15.4881 Y25.2256
G01 X15.4899 Y25.2317
G01 X15.5230 Y25.3637
G01 X15.5242 Y25.3699
G01 X15.5446 Y25.5077
G01 X15.5515 Y25.6469
G01 X15.5515 Y25.6531
G01 X15.5446 Y25.7923
G01 X15.5237 Y25.9332
G01 X15.4891 Y26.0714
G01 X15.4422 Y26.2026
G01 X15.4398 Y26.2084
G01 X15.3802 Y26.3343
G01 X15.3070 Y26.4565
G01 X15.2221 Y26.5709
G01 X15.1264 Y26.6764
G01 X15.0209 Y26.7721
G01 X14.9065 Y26.8570
G01 X14.7843 Y26.9302
G01 X14.6555 Y26.9911
G01 X14.5214 Y27.0391
G01 X14.3832 Y27.0737
G01 X14.2423 Y27.0946
G01 X14.1000 Y27.1016
G01 X13.9577 Y27.0946
G01 X13.8168 Y27.0737
G01 X13.6786 Y27.0391
G01 X13.5445 Y26.9911
G01 X13.4157 Y26.9302
G01 X13.2935 Y26.8570
G01 X13.1791 Y26.7721
G01 X13.0736 Y26.6764
G01 X12.9779 Y26.5709
G01 X12.8930 Y26.4565
G01 X12.8198 Y26.3343
G01 X12.7589 Y26.2055
G01 X12.7109 Y26.0714
G01 X12.6763 Y25.9332
G01 X12.6554 Y25.7923
G01 X12.6484 Y25.6500
G01 X12.6554 Y25.5077
G01 X12.6763 Y25.3668
G01 X12.7109 Y25.2286
G01 X12.7589 Y25.0945
G01 X12.8198 Y24.9657
G01 X12.8930 Y24.8435
G01 X12.9779 Y24.7291
G01 X13.0736 Y24.6236
G01 X13.1791 Y24.5279
G01 X13.2935 Y24.4430
G01 X13.4157 Y24.3698
G01 X13.5416 Y24.3102
G01 X13.5474 Y24.3078
G00 Z2.0000
G00 X14.7001 Y24.1001
G01 F60.00
G01 Z0.0000
G01 F120.00
G01 X14.7201 Y24.0968
G01 X14.7367 Y24.0929
G01 X14.7217 Y24.1079
G01 X14.7001 Y24.1001
G00 Z2.0000
G00 X15.6574 Y25.0130
G01 F60.00
G01 Z0.0000
G01 F120.00
G01 X15.6533 Y25.0273
G01 X15.6490 Y25.0473
G01 X15.6421 Y25.0283
G01 X15.6574 Y25.0130
G00 Z2.0000
G00 X0.7293 Y29.3755
G01 F60.00
G01 Z0.0000
G01 F120.00
G01 X0.7293 Y1.1245
G01 X0.7295 Y1.1184
G01 X0.7304 Y1.1124
G01 X0.7423 Y1.0578
G01 X0.7459 Y1.0472
G01 X0.7513 Y1.0374
G01 X0.7561 Y1.0310
G01 X0.8029 Y0.9770
G01 X0.8099 Y0.9705
G01 X0.8177 Y0.9650
G01 X0.8248 Y0.9614
G01 X0.8307 Y0.9591
G01 X0.8993 Y0.9390
G01 X0.9082 Y0.9371
G01 X0.9174 Y0.9364
G01 X19.6684 Y0.9364
G01 X19.6744 Y0.9367
G01 X19.6805 Y0.9376
G01 X19.7351 Y0.9494
G01 X19.7457 Y0.9530
G01 X19.7555 Y0.9584
G01 X19.7618 Y0.9633
G01 X19.8158 Y1.0101
G01 X19.8224 Y1.0170
G01 X19.8278 Y1.0248
G01 X19.8315 Y1.0319
G01 X19.8337 Y1.0379
G01 X19.8539 Y1.1064
G01 X19.8558 Y1.1154
G01 X19.8565 Y1.1245
G01 X19.8565 Y29.3755
G01 X19.8562 Y29.3816
G01 X19.8553 Y29.3876
G01 X19.8434 Y29.4422
G01 X19.8398 Y29.4528
G01 X19.8344 Y29.4626
G01 X19.8296 Y29.4690
G01 X19.7828 Y29.5230
G01 X19.7758 Y29.5295
G01 X19.7680 Y29.5350
G01 X19.7624 Y29.5380
G01 X19.7550 Y29.5409
G01 X19.6864 Y29.5610
G01 X19.6775 Y29.5629
G01 X19.6684 Y29.5636
G01 X0.9174 Y29.5636
G01 X0.9113 Y29.5633
G01 X0.9052 Y29.5624
G01 X0.8522 Y29.5509
G01 X0.8445 Y29.5487
G01 X0.8372 Y29.5456
G01 X0.8316 Y29.5425
G01 X0.8251 Y29.5378
G01 X0.7676 Y29.4877
G01 X0.7633 Y29.4830
G01 X0.7587 Y29.4765
G01 X0.7556 Y29.4710
G01 X0.7525 Y29.4636
G01 X0.7314 Y29.3921
G01 X0.7299 Y29.3846
G01 X0.7293 Y29.3755
G00 Z2.0000
G00 X0.6587 Y29.3755
G01 F60.00
G01 Z0.0000
G01 F120.00
G01 X0.6587 Y1.1245
G01 X0.6594 Y1.1117
G01 X0.6612 Y1.0990
G01 X0.6746 Y1.0378
G01 X0.6788 Y1.0250
G01 X0.6827 Y1.0158
G01 X0.6874 Y1.0068
G01 X0.6926 Y0.9982
G01 X0.6986 Y0.9900
G01 X0.7028 Y0.9848
G01 X0.7531 Y0.9271
G01 X0.7603 Y0.9201
G01 X0.7680 Y0.9137
G01 X0.7818 Y0.9043
G01 X0.7936 Y0.8981
G01 X0.8060 Y0.8931
G01 X0.8794 Y0.8713
G01 X0.8887 Y0.8690
G01 X0.8982 Y0.8673
G01 X0.9078 Y0.8662
G01 X0.9174 Y0.8659
G01 X19.6684 Y0.8659
G01 X19.6812 Y0.8665
G01 X19.6938 Y0.8683
G01 X19.7550 Y0.8818
G01 X19.7647 Y0.8848
G01 X19.7740 Y0.8885
G01 X19.7861 Y0.8945
G01 X19.7947 Y0.8998
G01 X19.8002 Y0.9037
G01 X19.8080 Y0.9100
G01 X19.8658 Y0.9602
G01 X19.8727 Y0.9674
G01 X19.8792 Y0.9751
G01 X19.8885 Y0.9890
G01 X19.8948 Y1.0008
G01 X19.8998 Y1.0132
G01 X19.9215 Y1.0866
G01 X19.9239 Y1.0959
G01 X19.9256 Y1.1053
G01 X19.9266 Y1.1149
G01 X19.9270 Y1.1245
G01 X19.9270 Y29.3755
G01 X19.9264 Y29.3883
G01 X19.9245 Y29.4010
G01 X19.9111 Y29.4622
G01 X19.9081 Y29.4718
G01 X19.9044 Y29.4812
G01 X19.9000 Y29.4903
G01 X19.8931 Y29.5018
G01 X19.8892 Y29.5073
G01 X19.8829 Y29.5152
G01 X19.8326 Y29.5729
G01 X19.8203 Y29.5842
G01 X19.8123 Y29.5903
G01 X19.8039 Y29.5957
G01 X19.7921 Y29.6019
G01 X19.7797 Y29.6069
G01 X19.7063 Y29.6287
G01 X19.6970 Y29.6310
G01 X19.6875 Y29.6327
G01 X19.6780 Y29.6338
G01 X19.6684 Y29.6341
G01 X0.9174 Y29.6341
G01 X0.9046 Y29.6335
G01 X0.8950 Y29.6322
G01 X0.8372 Y29.6198
G01 X0.8242 Y29.6163
G01 X0.8179 Y29.6141
G01 X0.8086 Y29.6101
G01 X0.7967 Y29.6038
G01 X0.7911 Y29.6002
G01 X0.7829 Y29.5943
G01 X0.7249 Y29.5443
G01 X0.7176 Y29.5374
G01 X0.7086 Y29.5275
G01 X0.7007 Y29.5167
G01 X0.6924 Y29.5022
G01 X0.6871 Y29.4900
G01 X0.6839 Y29.4805
G01 X0.6625 Y29.4072
G01 X0.6597 Y29.3915
G01 X0.6587 Y29.3755
G00 Z2.0000
G00 X0.5882 Y29.3755
G01 F60.00
G01 Z0.0000
G01 F120.00
G01 X0.5882 Y1.1245
G01 X0.5888 Y1.1099
G01 X0.5911 Y1.0905
G01 X0.6041 Y1.0294
G01 X0.6066 Y1.0194
G01 X0.6111 Y1.0047
G01 X0.6168 Y0.9905
G01 X0.6211 Y0.9812
G01 X0.6260 Y0.9721
G01 X0.6340 Y0.9590
G01 X0.6399 Y0.9507
G01 X0.6462 Y0.9426
G01 X0.7022 Y0.8783
G01 X0.7094 Y0.8711
G01 X0.7209 Y0.8611
G01 X0.7331 Y0.8519
G01 X0.7459 Y0.8436
G01 X0.7548 Y0.8387
G01 X0.7639 Y0.8341
G01 X0.7733 Y0.8301
G01 X0.7828 Y0.8265
G01 X0.8596 Y0.8037
G01 X0.8738 Y0.8001
G01 X0.8882 Y0.7975
G01 X0.9027 Y0.7959
G01 X0.9174 Y0.7954
G01 X19.6684 Y0.7954
G01 X19.6879 Y0.7963
G01 X19.7024 Y0.7982
G01 X19.7635 Y0.8113
G01 X19.7734 Y0.8137
G01 X19.7881 Y0.8183
G01 X19.7977 Y0.8219
G01 X19.8071 Y0.8260
G01 X19.8207 Y0.8331
G01 X19.8338 Y0.8412
G01 X19.8422 Y0.8471
G01 X19.8503 Y0.8534
G01 X19.9145 Y0.9093
G01 X19.9252 Y0.9203
G01 X19.9349 Y0.9320
G01 X19.9438 Y0.9444
G01 X19.9492 Y0.9531
G01 X19.9542 Y0.9620
G01 X19.9587 Y0.9711
G01 X19.9628 Y0.9804
G01 X19.9664 Y0.9900
G01 X19.9892 Y1.0667
G01 X19.9928 Y1.0809
G01 X19.9954 Y1.0953
G01 X19.9970 Y1.1099
G01 X19.9975 Y1.1245
G01 X19.9975 Y29.3755
G01 X19.9970 Y29.3901
G01 X19.9946 Y29.4095
G01 X19.9816 Y29.4706
G01 X19.9792 Y29.4806
G01 X19.9762 Y29.4904
G01 X19.9728 Y29.5001
G01 X19.9668 Y29.5142
G01 X19.9598 Y29.5279
G01 X19.9517 Y29.5410
G01 X19.9458 Y29.5493
G01 X19.9395 Y29.5574
G01 X19.8836 Y29.6217
G01 X19.8726 Y29.6323
G01 X19.8609 Y29.6421
G01 X19.8526 Y29.6481
G01 X19.8398 Y29.6564
G01 X19.8309 Y29.6613
G01 X19.8218 Y29.6659
G01 X19.8124 Y29.6699
G01 X19.8029 Y29.6735
G01 X19.7261 Y29.6963
G01 X19.7120 Y29.6999
G01 X19.6975 Y29.7025
G01 X19.6830 Y29.7041
G01 X19.6684 Y29.7046
G01 X0.9174 Y29.7046
G01 X0.9027 Y29.7041
G01 X0.8833 Y29.7018
G01 X0.8222 Y29.6887
G01 X0.8123 Y29.6863
G01 X0.8025 Y29.6834
G01 X0.7928 Y29.6800
G01 X0.7786 Y29.6740
G01 X0.7695 Y29.6694
G01 X0.7605 Y29.6643
G01 X0.7519 Y29.6588
G01 X0.7394 Y29.6498
G01 X0.6787 Y29.5976
G01 X0.6675 Y29.5871
G01 X0.6606 Y29.5797
G01 X0.6539 Y29.5720
G01 X0.6477 Y29.5639
G01 X0.6419 Y29.5556
G01 X0.6365 Y29.5469
G01 X0.6315 Y29.5380
G01 X0.6270 Y29.5289
G01 X0.6211 Y29.5148
G01 X0.6162 Y29.5003
G01 X0.5940 Y29.4239
G01 X0.5911 Y29.4095
G01 X0.5897 Y29.3999
G01 X0.5888 Y29.3901
G01 X0.5882 Y29.3755
G00 Z2.0000
G00 X0.5177 Y29.3755
G01 F60.00
G01 Z0.0000
G01 F120.00
G01 X0.5177 Y1.1245
G01 X0.5180 Y1.1114
G01 X0.5190 Y1.0983
G01 X0.5215 Y1.0788
G01 X0.5240 Y1.0659
G01 X0.5352 Y1.0144
G01 X0.5385 Y1.0010
G01 X0.5446 Y0.9813
G01 X0.5495 Y0.9684
G01 X0.5551 Y0.9558
G01 X0.5646 Y0.9375
G01 X0.5754 Y0.9199
G01 X0.5833 Y0.9086
G01 X0.5963 Y0.8925
G01 X0.6420 Y0.8397
G01 X0.6560 Y0.8247
G01 X0.6711 Y0.8108
G01 X0.6817 Y0.8021
G01 X0.6984 Y0.7902
G01 X0.7160 Y0.7795
G01 X0.7343 Y0.7702
G01 X0.7468 Y0.7647
G01 X0.7596 Y0.7599
G01 X0.7727 Y0.7557
G01 X0.8460 Y0.7343
G01 X0.8588 Y0.7312
G01 X0.8781 Y0.7277
G01 X0.8977 Y0.7256
G01 X0.9174 Y0.7249
G01 X19.6684 Y0.7249
G01 X19.6880 Y0.7256
G01 X19.7011 Y0.7268
G01 X19.7141 Y0.7287
G01 X19.7269 Y0.7312
G01 X19.7785 Y0.7424
G01 X19.7918 Y0.7456
G01 X19.8116 Y0.7518
G01 X19.8308 Y0.7594
G01 X19.8432 Y0.7652
G01 X19.8554 Y0.7717
G01 X19.8730 Y0.7825
G01 X19.8843 Y0.7905
G01 X19.9004 Y0.8034
G01 X19.9532 Y0.8492
G01 X19.9682 Y0.8632
G01 X19.9776 Y0.8731
G01 X19.9907 Y0.8889
G01 X20.0027 Y0.9056
G01 X20.0133 Y0.9231
G01 X20.0197 Y0.9352
G01 X20.0255 Y0.9476
G01 X20.0330 Y0.9668
G01 X20.0371 Y0.9798
G01 X20.0586 Y1.0532
G01 X20.0630 Y1.0723
G01 X20.0660 Y1.0918
G01 X20.0677 Y1.1114
G01 X20.0680 Y1.1245
G01 X20.0680 Y29.3755
G01 X20.0677 Y29.3886
G01 X20.0667 Y29.4017
G01 X20.0642 Y29.4212
G01 X20.0617 Y29.4341
G01 X20.0505 Y29.4856
G01 X20.0472 Y29.4990
G01 X20.0411 Y29.5187
G01 X20.0335 Y29.5379
G01 X20.0245 Y29.5565
G01 X20.0177 Y29.5685
G01 X20.0103 Y29.5801
G01 X19.9982 Y29.5969
G01 X19.9895 Y29.6075
G01 X19.9437 Y29.6603
G01 X19.9297 Y29.6753
G01 X19.9146 Y29.6892
G01 X19.8985 Y29.7020
G01 X19.8873 Y29.7098
G01 X19.8697 Y29.7205
G01 X19.8515 Y29.7298
G01 X19.8389 Y29.7353
G01 X19.8261 Y29.7401
G01 X19.8131 Y29.7443
G01 X19.7397 Y29.7657
G01 X19.7205 Y29.7701
G01 X19.7076 Y29.7723
G01 X19.6880 Y29.7744
G01 X19.6684 Y29.7751
G01 X0.9174 Y29.7751
G01 X0.8977 Y29.7744
G01 X0.8846 Y29.7732
G01 X0.8716 Y29.7713
G01 X0.8588 Y29.7688
G01 X0.8073 Y29.7576
G01 X0.7872 Y29.7525
G01 X0.7741 Y29.7482
G01 X0.7613 Y29.7433
G01 X0.7487 Y29.7378
G01 X0.7363 Y29.7316
G01 X0.7185 Y29.7212
G01 X0.7070 Y29.7136
G01 X0.6960 Y29.7054
G01 X0.6853 Y29.6966
G01 X0.6325 Y29.6508
G01 X0.6175 Y29.6368
G01 X0.6081 Y29.6269
G01 X0.5992 Y29.6165
G01 X0.5909 Y29.6057
G01 X0.5830 Y29.5944
G01 X0.5724 Y29.5769
G01 X0.5660 Y29.5648
G01 X0.5602 Y29.5524
G01 X0.5551 Y29.5397
G01 X0.5486 Y29.5202
G01 X0.5289 Y29.4532
G01 X0.5240 Y29.4341
G01 X0.5215 Y29.4212
G01 X0.5197 Y29.4082
G01 X0.5184 Y29.3952
G01 X0.5177 Y29.3755
G00 Z2.0000
G00 X0.4472 Y29.3755
G01 F60.00
G01 Z0.0000
G01 F120.00
G01 X0.4472 Y1.1245
G01 X0.4481 Y1.0998
G01 X0.4497 Y1.0834
G01 X0.4520 Y1.0671
G01 X0.4551 Y1.0509
G01 X0.4663 Y0.9994
G01 X0.4728 Y0.9743
G01 X0.4811 Y0.9497
G01 X0.4913 Y0.9258
G01 X0.5032 Y0.9028
G01 X0.5168 Y0.8807
G01 X0.5267 Y0.8665
G01 X0.5374 Y0.8529
G01 X0.5887 Y0.7935
G01 X0.6063 Y0.7747
G01 X0.6188 Y0.7629
G01 X0.6386 Y0.7463
G01 X0.6596 Y0.7313
G01 X0.6816 Y0.7179
G01 X0.6968 Y0.7099
G01 X0.7124 Y0.7027
G01 X0.7364 Y0.6933
G01 X0.7528 Y0.6881
G01 X0.8278 Y0.6662
G01 X0.8518 Y0.6606
G01 X0.8681 Y0.6579
G01 X0.8927 Y0.6552
G01 X0.9174 Y0.6544
G01 X19.6684 Y0.6544
G01 X19.6848 Y0.6548
G01 X19.7013 Y0.6559
G01 X19.7258 Y0.6592
G01 X19.7419 Y0.6623
G01 X19.7934 Y0.6735
G01 X19.8186 Y0.6799
G01 X19.8431 Y0.6883
G01 X19.8670 Y0.6984
G01 X19.8901 Y0.7103
G01 X19.9122 Y0.7239
G01 X19.9263 Y0.7339
G01 X19.9399 Y0.7445
G01 X19.9993 Y0.7959
G01 X20.0182 Y0.8135
G01 X20.0357 Y0.8324
G01 X20.0517 Y0.8526
G01 X20.0615 Y0.8667
G01 X20.0749 Y0.8888
G01 X20.0829 Y0.9040
G01 X20.0902 Y0.9196
G01 X20.0995 Y0.9436
G01 X20.1048 Y0.9599
G01 X20.1267 Y1.0349
G01 X20.1306 Y1.0509
G01 X20.1350 Y1.0752
G01 X20.1376 Y1.0998
G01 X20.1385 Y1.1245
G01 X20.1385 Y29.3755
G01 X20.1376 Y29.4002
G01 X20.1360 Y29.4166
G01 X20.1337 Y29.4329
G01 X20.1306 Y29.4491
G01 X20.1194 Y29.5006
G01 X20.1129 Y29.5257
G01 X20.1046 Y29.5503
G01 X20.0945 Y29.5742
G01 X20.0825 Y29.5972
G01 X20.0690 Y29.6193
G01 X20.0590 Y29.6335
G01 X20.0483 Y29.6471
G01 X19.9970 Y29.7065
G01 X19.9794 Y29.7253
G01 X19.9604 Y29.7428
G01 X19.9402 Y29.7588
G01 X19.9261 Y29.7687
G01 X19.9041 Y29.7821
G01 X19.8811 Y29.7938
G01 X19.8654 Y29.8006
G01 X19.8493 Y29.8067
G01 X19.8329 Y29.8119
G01 X19.7579 Y29.8338
G01 X19.7419 Y29.8377
G01 X19.7176 Y29.8421
G01 X19.6931 Y29.8448
G01 X19.6684 Y29.8456
G01 X0.9091 Y29.8455
G01 X0.8845 Y29.8441
G01 X0.8600 Y29.8408
G01 X0.8438 Y29.8377
G01 X0.7838 Y29.8246
G01 X0.7671 Y29.8201
G01 X0.7507 Y29.8147
G01 X0.7345 Y29.8086
G01 X0.7187 Y29.8016
G01 X0.7032 Y29.7939
G01 X0.6882 Y29.7853
G01 X0.6735 Y29.7761
G01 X0.6594 Y29.7661
G01 X0.6392 Y29.7499
G01 X0.5864 Y29.7041
G01 X0.5675 Y29.6865
G01 X0.5557 Y29.6740
G01 X0.5445 Y29.6610
G01 X0.5340 Y29.6474
G01 X0.5242 Y29.6333
G01 X0.5108 Y29.6112
G01 X0.5028 Y29.5960
G01 X0.4956 Y29.5804
G01 X0.4891 Y29.5645
G01 X0.4809 Y29.5401
G01 X0.4612 Y29.4730
G01 X0.4551 Y29.4491
G01 X0.4520 Y29.4329
G01 X0.4488 Y29.4084
G01 X0.4476 Y29.3920
G01 X0.4472 Y29.3755
G00 Z2.0000
G00 X0.3767 Y29.3755
G01 F60.00
G01 Z0.0000
G01 F120.00
G01 X0.3767 Y1.1245
G01 X0.3772 Y1.1047
G01 X0.3786 Y1.0849
G01 X0.3825 Y1.0554
G01 X0.3862 Y1.0359
G01 X0.3974 Y0.9844
G01 X0.4024 Y0.9642
G01 X0.4052 Y0.9542
G01 X0.4116 Y0.9344
G01 X0.4152 Y0.9246
G01 X0.4191 Y0.9149
G01 X0.4274 Y0.8959
G01 X0.4368 Y0.8772
G01 X0.4418 Y0.8681
G01 X0.4525 Y0.8502
G01 X0.4581 Y0.8415
G01 X0.4701 Y0.8245
G01 X0.4830 Y0.8081
G01 X0.5354 Y0.7473
G01 X0.5423 Y0.7396
G01 X0.5566 Y0.7247
G01 X0.5717 Y0.7104
G01 X0.5794 Y0.7036
G01 X0.5874 Y0.6970
G01 X0.6037 Y0.6843
G01 X0.6122 Y0.6783
G01 X0.6294 Y0.6669
G01 X0.6472 Y0.6564
G01 X0.6656 Y0.6467
G01 X0.6843 Y0.6380
G01 X0.7035 Y0.6303
G01 X0.7132 Y0.6267
G01 X0.7329 Y0.6204
G01 X0.8095 Y0.5980
G01 X0.8385 Y0.5914
G01 X0.8581 Y0.5881
G01 X0.8876 Y0.5849
G01 X0.9174 Y0.5839
G01 X19.6684 Y0.5839
G01 X19.6981 Y0.5849
G01 X19.7178 Y0.5868
G01 X19.7375 Y0.5896
G01 X19.7569 Y0.5934
G01 X19.8084 Y0.6046
G01 X19.8186 Y0.6069
G01 X19.8387 Y0.6124
G01 X19.8486 Y0.6154
G01 X19.8683 Y0.6224
G01 X19.8779 Y0.6262
G01 X19.8970 Y0.6346
G01 X19.9156 Y0.6439
G01 X19.9247 Y0.6489
G01 X19.9338 Y0.6541
G01 X19.9513 Y0.6653
G01 X19.9684 Y0.6773
G01 X19.9848 Y0.6901
G01 X20.0455 Y0.7426
G01 X20.0533 Y0.7495
G01 X20.0682 Y0.7638
G01 X20.0824 Y0.7788
G01 X20.0959 Y0.7945
G01 X20.1023 Y0.8026
G01 X20.1145 Y0.8193
G01 X20.1204 Y0.8279
G01 X20.1313 Y0.8454
G01 X20.1365 Y0.8544
G01 X20.1461 Y0.8727
G01 X20.1548 Y0.8915
