(G-CODE GENERATED BY FLATCAM v8.994 - www.flatcam.org - Version Date: 2020/11/7)

(Name: Saber Connector Board_V1-F_Cu.gbr_iso_combined_cnc)
(Type: G-code from Geometry)
(Units: MM)

(Created on Wednesday, 25 March 2026 at 20:08)

(This preprocessor is the default preprocessor used by FlatCAM.)
(It is made to work with MACH3 compatible motion controllers.)

(TOOL DIAMETER: 0.1141 mm)
(Feedrate_XY: 90.0 mm/min)
(Feedrate_Z: 30.0 mm/min)
(Feedrate rapids 1500.0 mm/min)

(Z_Cut: -0.04 mm)
(Z_Move: 2.0 mm)
(Z Start: None mm)
(Z End: 15.0 mm)
(X,Y End: None mm)
(Steps per circle: 64)
(Preprocessor Geometry: default)

(X range:   -0.1385 ...   25.1385  mm)
(Y range:   -0.1385 ...   25.1385  mm)

(Spindle Speed: 10000.0 RPM)
G21
G90
G94

G01 F90.00

M5
G00 Z15.0000
G00 X0.0000 Y0.0000
T2
M6    
(MSG, Change to Tool Dia = 0.1141)
M0
G00 Z15.0000

M03 S10000.0
G01 F90.00
G00 X2.1500 Y6.4960
G01 F30.00
G01 Z-0.0400
G01 F90.00
G01 X3.8500 Y6.4960
G01 X3.8651 Y6.4967
G01 X3.8763 Y6.4982
G01 X3.8874 Y6.5006
G01 X3.9019 Y6.5050
G01 X3.9124 Y6.5092
G01 X3.9226 Y6.5142
G01 X4.7398 Y6.9708
G01 X7.0038 Y6.9708
G01 X7.0519 Y6.9733
G01 X7.0958 Y6.9797
G01 X7.1106 Y6.9826
G01 X7.1536 Y6.9936
G01 X7.2025 Y7.0111
G01 X7.2427 Y7.0299
G01 X7.2561 Y7.0370
G01 X7.2876 Y7.0559
G01 X7.2971 Y7.0621
G01 X7.3357 Y7.0909
G01 X7.3742 Y7.1258
G01 X11.5742 Y11.3258
G01 X11.6091 Y11.3643
G01 X11.6379 Y11.4029
G01 X11.6441 Y11.4124
G01 X11.6667 Y11.4505
G01 X11.6859 Y11.4906
G01 X11.6917 Y11.5045
G01 X11.7064 Y11.5464
G01 X11.7174 Y11.5894
G01 X11.7197 Y11.6005
G01 X11.7257 Y11.6406
G01 X11.7272 Y11.6557
G01 X11.7292 Y11.7000
G01 X11.7292 Y12.0011
G01 X11.8423 Y12.8773
G01 X11.8500 Y12.9284
G01 X11.8514 Y12.9434
G01 X11.8540 Y13.0000
G01 X11.8509 Y13.0641
G01 X11.8415 Y13.1276
G01 X11.8279 Y13.1826
G01 X11.8235 Y13.1970
G01 X11.8070 Y13.2432
G01 X11.8012 Y13.2572
G01 X11.7768 Y13.3083
G01 X11.7479 Y13.3570
G01 X11.7417 Y13.3665
G01 X11.7056 Y13.4149
G01 X11.6677 Y13.4570
G01 X11.6570 Y13.4677
G01 X11.6149 Y13.5056
G01 X11.5695 Y13.5395
G01 X11.5570 Y13.5479
G01 X11.5149 Y13.5731
G01 X11.5016 Y13.5802
G01 X11.4503 Y13.6042
G01 X11.3899 Y13.6259
G01 X11.3276 Y13.6415
G01 X11.2641 Y13.6509
G01 X11.2000 Y13.6540
G01 X11.1434 Y13.6514
G01 X11.1284 Y13.6500
G01 X11.0724 Y13.6415
G01 X11.0174 Y13.6279
G01 X11.0030 Y13.6235
G01 X10.9568 Y13.6070
G01 X10.9428 Y13.6012
G01 X10.8917 Y13.5768
G01 X10.8366 Y13.5438
G01 X10.7851 Y13.5056
G01 X10.7430 Y13.4677
G01 X10.7349 Y13.4598
G01 X10.6944 Y13.4149
G01 X10.6562 Y13.3634
G01 X10.6232 Y13.3083
G01 X10.5958 Y13.2503
G01 X10.5741 Y13.1899
G01 X10.5585 Y13.1276
G01 X10.5491 Y13.0641
G01 X10.5462 Y13.0076
G01 X10.5462 Y12.9924
G01 X10.5486 Y12.9434
G01 X10.5495 Y12.9321
G01 X10.5576 Y12.8773
G01 X10.6708 Y12.0011
G01 X10.6708 Y11.9192
G01 X6.7808 Y8.0292
G01 X4.7398 Y8.0292
G01 X3.9226 Y8.4858
G01 X3.9089 Y8.4923
G01 X3.8947 Y8.4974
G01 X3.8801 Y8.5011
G01 X3.8651 Y8.5033
G01 X3.8500 Y8.5040
G01 X2.1462 Y8.5040
G01 X2.1349 Y8.5033
G01 X2.1237 Y8.5018
G01 X2.1126 Y8.4994
G01 X2.1017 Y8.4963
G01 X2.0911 Y8.4923
G01 X2.0807 Y8.4876
G01 X2.0708 Y8.4821
G01 X2.0613 Y8.4759
G01 X2.0494 Y8.4666
G01 X2.0411 Y8.4589
G01 X2.0359 Y8.4534
G01 X2.0309 Y8.4477
G01 X2.0241 Y8.4387
G01 X2.0199 Y8.4324
G01 X2.0142 Y8.4226
G01 X2.0092 Y8.4124
G01 X2.0063 Y8.4054
G01 X2.0015 Y8.3911
G01 X1.9997 Y8.3837
G01 X1.9976 Y8.3726
G01 X1.9967 Y8.3651
G01 X1.9960 Y8.3538
G01 X1.9962 Y6.6424
G01 X1.9976 Y6.6274
G01 X2.0006 Y6.6126
G01 X2.0037 Y6.6017
G01 X2.0092 Y6.5876
G01 X2.0160 Y6.5741
G01 X2.0241 Y6.5613
G01 X2.0334 Y6.5494
G01 X2.0438 Y6.5384
G01 X2.0552 Y6.5286
G01 X2.0676 Y6.5199
G01 X2.0807 Y6.5124
G01 X2.0946 Y6.5063
G01 X2.1089 Y6.5015
G01 X2.1237 Y6.4982
G01 X2.1349 Y6.4967
G01 X2.1500 Y6.4960
G00 Z2.0000
G00 X2.1500 Y6.5930
G01 F30.00
G01 Z-0.0400
G01 F90.00
G01 X3.8500 Y6.5930
G01 X3.8598 Y6.5938
G01 X3.8692 Y6.5963
G01 X3.8781 Y6.6004
G01 X4.7145 Y7.0678
G01 X7.0014 Y7.0678
G01 X7.0424 Y7.0698
G01 X7.0816 Y7.0756
G01 X7.1255 Y7.0864
G01 X7.1654 Y7.1007
G01 X7.2013 Y7.1175
G01 X7.2062 Y7.1202
G01 X7.2413 Y7.1414
G01 X7.2742 Y7.1659
G01 X7.3056 Y7.1944
G01 X11.5056 Y11.3944
G01 X11.5341 Y11.4258
G01 X11.5586 Y11.4587
G01 X11.5812 Y11.4962
G01 X11.6003 Y11.5372
G01 X11.6136 Y11.5745
G01 X11.6233 Y11.6129
G01 X11.6300 Y11.6562
G01 X11.6322 Y11.7000
G01 X11.6322 Y12.0085
G01 X11.7456 Y12.8843
G01 X11.7460 Y12.8898
G01 X11.7540 Y12.9426
G01 X11.7546 Y12.9482
G01 X11.7570 Y13.0000
G01 X11.7544 Y13.0546
G01 X11.7463 Y13.1087
G01 X11.7338 Y13.1590
G01 X11.7157 Y13.2106
G01 X11.7135 Y13.2157
G01 X11.6913 Y13.2626
G01 X11.6624 Y13.3106
G01 X11.6306 Y13.3534
G01 X11.5958 Y13.3919
G01 X11.5919 Y13.3958
G01 X11.5534 Y13.4306
G01 X11.5118 Y13.4616
G01 X11.4650 Y13.4899
G01 X11.4601 Y13.4925
G01 X11.4132 Y13.5146
G01 X11.3617 Y13.5331
G01 X11.3087 Y13.5463
G01 X11.2574 Y13.5540
G01 X11.2518 Y13.5546
G01 X11.2000 Y13.5570
G01 X11.1482 Y13.5546
G01 X11.0941 Y13.5468
G01 X11.0886 Y13.5457
G01 X11.0383 Y13.5331
G01 X10.9868 Y13.5146
G01 X10.9374 Y13.4913
G01 X10.8929 Y13.4647
G01 X10.8882 Y13.4616
G01 X10.8466 Y13.4306
G01 X10.8081 Y13.3958
G01 X10.7712 Y13.3555
G01 X10.7384 Y13.3118
G01 X10.7353 Y13.3071
G01 X10.7087 Y13.2626
G01 X10.6865 Y13.2157
G01 X10.6843 Y13.2106
G01 X10.6669 Y13.1617
G01 X10.6537 Y13.1087
G01 X10.6456 Y13.0546
G01 X10.6430 Y13.0000
G01 X10.6458 Y12.9440
G01 X10.6540 Y12.8898
G01 X10.6544 Y12.8843
G01 X10.7678 Y12.0085
G01 X10.7678 Y11.8790
G01 X6.8210 Y7.9322
G01 X4.7145 Y7.9322
G01 X3.8781 Y8.3996
G01 X3.8692 Y8.4037
G01 X3.8598 Y8.4062
G01 X3.8500 Y8.4070
G01 X2.1500 Y8.4070
G01 X2.1416 Y8.4064
G01 X2.1348 Y8.4050
G01 X2.1269 Y8.4022
G01 X2.1183 Y8.3974
G01 X2.1117 Y8.3923
G01 X2.1050 Y8.3851
G01 X2.0997 Y8.3769
G01 X2.0963 Y8.3692
G01 X2.0940 Y8.3611
G01 X2.0930 Y8.3514
G01 X2.0930 Y6.6500
G01 X2.0932 Y6.6444
G01 X2.0940 Y6.6389
G01 X2.0954 Y6.6334
G01 X2.0973 Y6.6282
G01 X2.0997 Y6.6231
G01 X2.1026 Y6.6183
G01 X2.1059 Y6.6138
G01 X2.1097 Y6.6097
G01 X2.1138 Y6.6059
G01 X2.1183 Y6.6026
G01 X2.1231 Y6.5997
G01 X2.1282 Y6.5973
G01 X2.1334 Y6.5954
G01 X2.1389 Y6.5940
G01 X2.1444 Y6.5932
G01 X2.1500 Y6.5930
G00 Z2.0000
G00 X2.7250 Y10.1335
G01 F30.00
G01 Z-0.0400
G01 F90.00
G01 X2.7250 Y10.1269
G01 X2.7275 Y10.1208
G01 X2.7322 Y10.1162
G01 X2.7409 Y10.1126
G01 X2.7443 Y10.1122
G01 X3.3578 Y10.1122
G01 X3.3612 Y10.1126
G01 X3.3699 Y10.1162
G01 X3.3746 Y10.1208
G01 X3.3771 Y10.1269
G01 X3.3771 Y10.1335
G01 X3.3746 Y10.1395
G01 X3.3699 Y10.1442
G01 X3.3612 Y10.1478
G01 X3.3578 Y10.1481
G01 X2.9226 Y10.1481
G01 X2.9142 Y10.1487
G01 X2.9047 Y10.1510
G01 X2.8970 Y10.1542
G01 X2.8886 Y10.1594
G01 X2.8813 Y10.1658
G01 X2.8752 Y10.1735
G01 X2.8710 Y10.1808
G01 X2.8676 Y10.1900
G01 X2.8658 Y10.1996
G01 X2.8656 Y10.2066
G01 X2.8660 Y10.2122
G01 X2.8669 Y10.2177
G01 X2.8689 Y10.2244
G01 X2.8710 Y10.2296
G01 X2.8737 Y10.2345
G01 X2.8768 Y10.2392
G01 X2.8813 Y10.2445
G01 X3.3237 Y10.6869
G01 X3.3269 Y10.6909
G01 X3.3288 Y10.6940
G01 X3.3309 Y10.6986
G01 X3.3767 Y10.8361
G01 X3.3780 Y10.8416
G01 X3.3785 Y10.8473
G01 X3.3785 Y10.9369
G01 X3.3780 Y10.9420
G01 X3.3772 Y10.9455
G01 X3.3754 Y10.9502
G01 X3.3303 Y11.0405
G01 X3.3273 Y11.0453
G01 X3.3237 Y11.0496
G01 X3.2800 Y11.0933
G01 X3.2757 Y11.0969
G01 X3.2709 Y11.0999
G01 X3.1806 Y11.1450
G01 X3.1759 Y11.1468
G01 X3.1724 Y11.1476
G01 X3.1673 Y11.1481
G01 X2.9348 Y11.1481
G01 X2.9298 Y11.1476
G01 X2.9262 Y11.1468
G01 X2.9215 Y11.1450
G01 X2.8313 Y11.0999
G01 X2.8265 Y11.0969
G01 X2.8221 Y11.0933
G01 X2.7784 Y11.0496
G01 X2.7763 Y11.0470
G01 X2.7727 Y11.0382
G01 X2.7727 Y11.0317
G01 X2.7752 Y11.0256
G01 X2.7798 Y11.0209
G01 X2.7859 Y11.0184
G01 X2.7924 Y11.0184
G01 X2.8012 Y11.0221
G01 X2.8038 Y11.0242
G01 X2.8419 Y11.0622
G01 X2.8462 Y11.0659
G01 X2.8508 Y11.0692
G01 X2.8557 Y11.0719
G01 X2.9255 Y11.1068
G01 X2.9333 Y11.1098
G01 X2.9414 Y11.1116
G01 X2.9497 Y11.1122
G01 X3.1524 Y11.1122
G01 X3.1607 Y11.1116
G01 X3.1702 Y11.1094
G01 X3.1779 Y11.1062
G01 X3.2464 Y11.0719
G01 X3.2525 Y11.0684
G01 X3.2603 Y11.0622
G01 X3.2917 Y11.0309
G01 X3.2955 Y11.0267
G01 X3.2988 Y11.0221
G01 X3.3024 Y11.0160
G01 X3.3366 Y10.9475
G01 X3.3393 Y10.9411
G01 X3.3409 Y10.9358
G01 X3.3422 Y10.9289
G01 X3.3426 Y10.9234
G01 X3.3426 Y10.8538
G01 X3.3418 Y10.8468
G01 X3.3401 Y10.8399
G01 X3.3011 Y10.7228
G01 X3.2989 Y10.7176
G01 X3.2963 Y10.7127
G01 X3.2906 Y10.7048
G01 X2.7308 Y10.1449
G01 X2.7286 Y10.1422
G01 X2.7250 Y10.1335
G00 Z2.0000
G00 X9.4379 Y11.2350
G01 F30.00
G01 Z-0.0400
G01 F90.00
G01 X10.2710 Y12.0680
G01 X10.1918 Y12.6810
G01 X10.1722 Y12.6261
G01 X10.1627 Y12.6013
G01 X10.1519 Y12.5769
G01 X10.1309 Y12.5326
G01 X10.1189 Y12.5088
G01 X10.1058 Y12.4857
G01 X10.0806 Y12.4436
G01 X10.0664 Y12.4211
G01 X10.0511 Y12.3994
G01 X10.0218 Y12.3599
G01 X10.0055 Y12.3390
G01 X9.9881 Y12.3188
G01 X9.9461 Y12.2727
G01 X9.9273 Y12.2539
G01 X9.8812 Y12.2119
G01 X9.8610 Y12.1945
G01 X9.8401 Y12.1782
G01 X9.7899 Y12.1412
G01 X9.7677 Y12.1264
G01 X9.7143 Y12.0942
G01 X9.6912 Y12.0811
G01 X9.6674 Y12.0691
G01 X9.6231 Y12.0481
G01 X9.5987 Y12.0373
G01 X9.5739 Y12.0278
G01 X9.5277 Y12.0112
G01 X9.5025 Y12.0029
G01 X9.4768 Y11.9958
G01 X9.4292 Y11.9839
G01 X9.4033 Y11.9780
G01 X9.3771 Y11.9735
G01 X9.3285 Y11.9663
G01 X9.3021 Y11.9630
G01 X9.2756 Y11.9611
G01 X9.2133 Y11.9582
G01 X9.1871 Y11.9582
G01 X9.2139 Y11.9397
G01 X9.2247 Y11.9317
G01 X9.2457 Y11.9149
G01 X9.2659 Y11.8971
G01 X9.2851 Y11.8783
G01 X9.3034 Y11.8585
G01 X9.3207 Y11.8379
G01 X9.3370 Y11.8164
G01 X9.3521 Y11.7942
G01 X9.3593 Y11.7828
G01 X9.3728 Y11.7595
G01 X9.3851 Y11.7356
G01 X9.3962 Y11.7110
G01 X9.4234 Y11.6467
G01 X9.4284 Y11.6342
G01 X9.4377 Y11.6089
G01 X9.4456 Y11.5832
G01 X9.4492 Y11.5702
G01 X9.4523 Y11.5571
G01 X9.4577 Y11.5308
G01 X9.4618 Y11.5042
G01 X9.4633 Y11.4908
G01 X9.4654 Y11.4639
G01 X9.4661 Y11.4370
G01 X9.4655 Y11.4101
G01 X9.4647 Y11.3967
G01 X9.4621 Y11.3699
G01 X9.4603 Y11.3566
G01 X9.4463 Y11.2744
G01 X9.4438 Y11.2611
G01 X9.4379 Y11.2350
G00 Z2.0000
G00 X9.5603 Y11.4946
G01 F30.00
G01 Z-0.0400
G01 F90.00
G01 X10.1687 Y12.1029
G01 X10.1365 Y12.3520
G01 X10.0902 Y12.2897
G01 X10.0703 Y12.2655
G01 X10.0163 Y12.2059
G01 X9.9941 Y12.1837
G01 X9.9345 Y12.1297
G01 X9.9103 Y12.1098
G01 X9.8457 Y12.0619
G01 X9.8196 Y12.0444
G01 X9.7506 Y12.0031
G01 X9.7230 Y11.9883
G01 X9.6503 Y11.9539
G01 X9.6213 Y11.9419
G01 X9.5456 Y11.9148
G01 X9.5156 Y11.9057
G01 X9.4375 Y11.8862
G01 X9.4101 Y11.8807
G01 X9.4248 Y11.8601
G01 X9.4421 Y11.8334
G01 X9.4579 Y11.8059
G01 X9.4654 Y11.7919
G01 X9.4791 Y11.7633
G01 X9.4855 Y11.7488
G01 X9.5187 Y11.6697
G01 X9.5243 Y11.6549
G01 X9.5345 Y11.6248
G01 X9.5390 Y11.6096
G01 X9.5468 Y11.5789
G01 X9.5532 Y11.5478
G01 X9.5558 Y11.5321
G01 X9.5580 Y11.5164
G01 X9.5603 Y11.4946
G00 Z2.0000
G00 X10.2082 Y13.3190
G01 F30.00
G01 Z-0.0400
G01 F90.00
G01 X10.2278 Y13.3739
G01 X10.2373 Y13.3987
G01 X10.2481 Y13.4231
G01 X10.2691 Y13.4674
G01 X10.2811 Y13.4912
G01 X10.2942 Y13.5143
G01 X10.3194 Y13.5564
G01 X10.3336 Y13.5789
G01 X10.3489 Y13.6006
G01 X10.3862 Y13.6506
G01 X10.4031 Y13.6712
G01 X10.4539 Y13.7273
G01 X10.4727 Y13.7461
G01 X10.5188 Y13.7881
G01 X10.5390 Y13.8055
G01 X10.5494 Y13.8138
G01 X10.5994 Y13.8511
G01 X10.6211 Y13.8664
G01 X10.6492 Y13.8839
G01 X10.6296 Y13.8849
G01 X10.6029 Y13.8875
G01 X10.5895 Y13.8893
G01 X10.5630 Y13.8938
G01 X10.5498 Y13.8966
G01 X10.5237 Y13.9031
G01 X10.5108 Y13.9069
G01 X10.4852 Y13.9153
G01 X10.4601 Y13.9250
G01 X10.4477 Y13.9303
G01 X10.4355 Y13.9360
G01 X10.4115 Y13.9481
G01 X10.3881 Y13.9614
G01 X10.3168 Y14.0046
G01 X10.3056 Y14.0120
G01 X10.2836 Y14.0276
G01 X10.2625 Y14.0442
G01 X10.2522 Y14.0529
G01 X10.2324 Y14.0711
G01 X10.2228 Y14.0805
G01 X10.2043 Y14.1001
G01 X10.1869 Y14.1206
G01 X10.1785 Y14.1312
G01 X10.1705 Y14.1420
G01 X10.1551 Y14.1641
G01 X10.1409 Y14.1870
G01 X10.1342 Y14.1986
G01 X10.1279 Y14.2105
G01 X10.1172 Y14.2319
G01 X10.1172 Y14.0238
G01 X10.2082 Y13.3190
G00 Z2.0000
G00 X10.2635 Y13.6480
G01 F30.00
G01 Z-0.0400
G01 F90.00
G01 X10.3098 Y13.7103
G01 X10.3297 Y13.7345
G01 X10.3837 Y13.7941
G01 X10.4059 Y13.8163
G01 X10.4255 Y13.8344
G01 X10.3939 Y13.8484
G01 X10.3797 Y13.8553
G01 X10.3517 Y13.8704
G01 X10.2647 Y13.9228
G01 X10.2384 Y13.9405
G01 X10.2244 Y13.9508
G01 X10.2635 Y13.6480
G00 Z2.0000
G00 X11.9000 Y13.7710
G01 F30.00
G01 Z-0.0400
G01 F90.00
G01 X11.9188 Y13.7881
G01 X11.9366 Y13.8034
G01 X11.9076 Y13.8016
G01 X11.8807 Y13.8012
G01 X11.8655 Y13.8017
G01 X11.9000 Y13.7710
G00 Z2.0000
G00 X12.2919 Y12.5360
G01 F30.00
G01 Z-0.0400
G01 F90.00
G01 X12.2960 Y12.5324
G01 X12.9954 Y11.9933
G01 X17.7944 Y7.1944
G01 X17.8280 Y7.1642
G01 X17.8599 Y7.1406
G01 X17.8938 Y7.1202
G01 X17.9346 Y7.1007
G01 X17.9772 Y7.0856
G01 X18.0157 Y7.0761
G01 X18.0549 Y7.0702
G01 X18.0986 Y7.0678
G01 X19.7855 Y7.0678
G01 X20.6219 Y6.6004
G01 X20.6282 Y6.5973
G01 X20.6334 Y6.5954
G01 X20.6389 Y6.5940
G01 X20.6444 Y6.5932
G01 X20.6500 Y6.5930
G01 X22.3514 Y6.5930
G01 X22.3584 Y6.5936
G01 X22.3652 Y6.5950
G01 X22.3731 Y6.5978
G01 X22.3793 Y6.6011
G01 X22.3851 Y6.6050
G01 X22.3903 Y6.6097
G01 X22.3950 Y6.6149
G01 X22.3989 Y6.6207
G01 X22.4022 Y6.6269
G01 X22.4050 Y6.6348
G01 X22.4066 Y6.6430
G01 X22.4070 Y6.6500
G01 X22.4070 Y8.3500
G01 X22.4064 Y8.3584
G01 X22.4050 Y8.3652
G01 X22.4027 Y8.3718
G01 X22.3996 Y8.3781
G01 X22.3958 Y8.3840
G01 X22.3913 Y8.3893
G01 X22.3851 Y8.3950
G01 X22.3793 Y8.3989
G01 X22.3718 Y8.4027
G01 X22.3652 Y8.4050
G01 X22.3584 Y8.4064
G01 X22.3500 Y8.4070
G01 X20.6500 Y8.4070
G01 X20.6430 Y8.4066
G01 X20.6375 Y8.4057
G01 X20.6321 Y8.4042
G01 X20.6269 Y8.4022
G01 X20.6219 Y8.3996
G01 X19.7855 Y7.9322
G01 X18.2790 Y7.9322
G01 X13.6067 Y12.6046
G01 X13.0676 Y13.3040
G01 X13.0640 Y13.3081
G01 X13.0306 Y13.3534
G01 X12.9958 Y13.3919
G01 X12.9919 Y13.3958
G01 X12.9534 Y13.4306
G01 X12.9095 Y13.4632
G01 X12.8626 Y13.4913
G01 X12.8132 Y13.5146
G01 X12.7617 Y13.5331
G01 X12.7087 Y13.5463
G01 X12.6546 Y13.5544
G01 X12.6000 Y13.5570
G01 X12.5454 Y13.5544
G01 X12.4913 Y13.5463
G01 X12.4383 Y13.5331
G01 X12.3868 Y13.5146
G01 X12.3374 Y13.4913
G01 X12.2905 Y13.4632
G01 X12.2466 Y13.4306
G01 X12.2061 Y13.3939
G01 X12.1694 Y13.3534
G01 X12.1368 Y13.3095
G01 X12.1087 Y13.2626
G01 X12.0854 Y13.2132
G01 X12.0669 Y13.1617
G01 X12.0537 Y13.1087
G01 X12.0456 Y13.0546
G01 X12.0430 Y13.0000
G01 X12.0456 Y12.9454
G01 X12.0537 Y12.8913
G01 X12.0669 Y12.8383
G01 X12.0854 Y12.7868
G01 X12.1087 Y12.7374
G01 X12.1368 Y12.6905
G01 X12.1694 Y12.6466
G01 X12.2061 Y12.6061
G01 X12.2466 Y12.5694
G01 X12.2919 Y12.5360
G00 Z2.0000
G00 X12.2326 Y12.4590
G01 F30.00
G01 Z-0.0400
G01 F90.00
G01 X12.9321 Y11.9195
G01 X17.7258 Y7.1258
G01 X17.7585 Y7.0958
G01 X17.7702 Y7.0863
G01 X17.8060 Y7.0600
G01 X17.8472 Y7.0351
G01 X17.8573 Y7.0299
G01 X17.8975 Y7.0111
G01 X17.9392 Y6.9959
G01 X17.9537 Y6.9915
G01 X17.9968 Y6.9809
G01 X18.0406 Y6.9743
G01 X18.0519 Y6.9730
G01 X18.0962 Y6.9708
G01 X19.7602 Y6.9708
G01 X20.5774 Y6.5142
G01 X20.5911 Y6.5077
G01 X20.6053 Y6.5026
G01 X20.6199 Y6.4989
G01 X20.6349 Y6.4967
G01 X20.6500 Y6.4960
G01 X22.3576 Y6.4962
G01 X22.3689 Y6.4971
G01 X22.3801 Y6.4989
G01 X22.3911 Y6.5015
G01 X22.3983 Y6.5037
G01 X22.4089 Y6.5077
G01 X22.4159 Y6.5108
G01 X22.4259 Y6.5160
G01 X22.4324 Y6.5199
G01 X22.4418 Y6.5263
G01 X22.4477 Y6.5309
G01 X22.4534 Y6.5359
G01 X22.4616 Y6.5438
G01 X22.4691 Y6.5523
G01 X22.4737 Y6.5582
G01 X22.4801 Y6.5676
G01 X22.4840 Y6.5741
G01 X22.4892 Y6.5841
G01 X22.4923 Y6.5911
G01 X22.4950 Y6.5981
G01 X22.4985 Y6.6089
G01 X22.5003 Y6.6163
G01 X22.5024 Y6.6274
G01 X22.5036 Y6.6387
G01 X22.5040 Y6.6500
G01 X22.5040 Y8.3538
G01 X22.5033 Y8.3651
G01 X22.5018 Y8.3763
G01 X22.4994 Y8.3874
G01 X22.4974 Y8.3947
G01 X22.4937 Y8.4054
G01 X22.4908 Y8.4124
G01 X22.4876 Y8.4193
G01 X22.4821 Y8.4292
G01 X22.4759 Y8.4387
G01 X22.4691 Y8.4477
G01 X22.4641 Y8.4534
G01 X22.4562 Y8.4616
G01 X22.4477 Y8.4691
G01 X22.4418 Y8.4737
G01 X22.4356 Y8.4781
G01 X22.4259 Y8.4840
G01 X22.4193 Y8.4876
G01 X22.4089 Y8.4923
G01 X22.3983 Y8.4963
G01 X22.3874 Y8.4994
G01 X22.3763 Y8.5018
G01 X22.3689 Y8.5029
G01 X22.3576 Y8.5038
G01 X22.3500 Y8.5040
G01 X20.6500 Y8.5040
G01 X20.6349 Y8.5033
G01 X20.6199 Y8.5011
G01 X20.6053 Y8.4974
G01 X20.5911 Y8.4923
G01 X20.5774 Y8.4858
G01 X19.7602 Y8.0292
G01 X18.3192 Y8.0292
G01 X13.6805 Y12.6679
G01 X13.1410 Y13.3674
G01 X13.1056 Y13.4149
G01 X13.0677 Y13.4570
G01 X13.0570 Y13.4677
G01 X13.0149 Y13.5056
G01 X12.9634 Y13.5438
G01 X12.9083 Y13.5768
G01 X12.8503 Y13.6042
G01 X12.7899 Y13.6259
G01 X12.7276 Y13.6415
G01 X12.6641 Y13.6509
G01 X12.6000 Y13.6540
G01 X12.5359 Y13.6509
G01 X12.4724 Y13.6415
G01 X12.4101 Y13.6259
G01 X12.3497 Y13.6042
G01 X12.2917 Y13.5768
G01 X12.2366 Y13.5438
G01 X12.1851 Y13.5056
G01 X12.1375 Y13.4625
G01 X12.0944 Y13.4149
G01 X12.0562 Y13.3634
G01 X12.0232 Y13.3083
G01 X11.9958 Y13.2503
G01 X11.9741 Y13.1899
G01 X11.9585 Y13.1276
G01 X11.9491 Y13.0641
G01 X11.9460 Y13.0000
G01 X11.9491 Y12.9359
G01 X11.9585 Y12.8724
G01 X11.9741 Y12.8101
G01 X11.9958 Y12.7497
G01 X12.0232 Y12.6917
G01 X12.0562 Y12.6366
G01 X12.0944 Y12.5851
G01 X12.1375 Y12.5375
G01 X12.1851 Y12.4944
G01 X12.2326 Y12.4590
G00 Z2.0000
G00 X12.1733 Y12.3822
G01 F30.00
G01 Z-0.0400
G01 F90.00
G01 X12.8679 Y11.8465
G01 X17.6572 Y7.0572
G01 X17.6661 Y7.0487
G01 X17.6980 Y7.0199
G01 X17.7125 Y7.0084
G01 X17.7521 Y6.9793
G01 X17.7625 Y6.9727
G01 X17.7994 Y6.9507
G01 X17.8158 Y6.9422
G01 X17.8604 Y6.9215
G01 X17.9065 Y6.9046
G01 X17.9241 Y6.8990
G01 X17.9718 Y6.8871
G01 X17.9900 Y6.8837
G01 X18.0386 Y6.8768
G01 X18.0877 Y6.8741
G01 X18.1000 Y6.8738
G01 X19.7350 Y6.8738
G01 X20.5317 Y6.4286
G01 X20.5427 Y6.4231
G01 X20.5539 Y6.4181
G01 X20.5654 Y6.4137
G01 X20.5771 Y6.4098
G01 X20.5890 Y6.4065
G01 X20.6010 Y6.4038
G01 X20.6132 Y6.4017
G01 X20.6254 Y6.4002
G01 X20.6377 Y6.3993
G01 X20.6500 Y6.3990
G01 X22.3500 Y6.3990
G01 X22.3685 Y6.3997
G01 X22.3807 Y6.4009
G01 X22.3990 Y6.4038
G01 X22.4170 Y6.4081
G01 X22.4287 Y6.4116
G01 X22.4403 Y6.4158
G01 X22.4573 Y6.4231
G01 X22.4737 Y6.4316
G01 X22.4843 Y6.4379
G01 X22.4995 Y6.4484
G01 X22.5092 Y6.4560
G01 X22.5231 Y6.4682
G01 X22.5318 Y6.4769
G01 X22.5401 Y6.4860
G01 X22.5516 Y6.5005
G01 X22.5587 Y6.5105
G01 X22.5684 Y6.5263
G01 X22.5769 Y6.5427
G01 X22.5819 Y6.5539
G01 X22.5884 Y6.5713
G01 X22.5919 Y6.5830
G01 X22.5962 Y6.6010
G01 X22.5983 Y6.6132
G01 X22.6003 Y6.6315
G01 X22.6009 Y6.6438
G01 X22.6010 Y8.3500
G01 X22.6007 Y8.3623
G01 X22.5998 Y8.3746
G01 X22.5973 Y8.3929
G01 X22.5949 Y8.4050
G01 X22.5902 Y8.4229
G01 X22.5863 Y8.4346
G01 X22.5795 Y8.4517
G01 X22.5714 Y8.4683
G01 X22.5653 Y8.4790
G01 X22.5587 Y8.4895
G01 X22.5479 Y8.5044
G01 X22.5401 Y8.5140
G01 X22.5318 Y8.5231
G01 X22.5231 Y8.5318
G01 X22.5092 Y8.5440
G01 X22.4945 Y8.5552
G01 X22.4843 Y8.5621
G01 X22.4683 Y8.5714
G01 X22.4573 Y8.5769
G01 X22.4403 Y8.5842
G01 X22.4229 Y8.5902
G01 X22.4050 Y8.5949
G01 X22.3868 Y8.5983
G01 X22.3746 Y8.5998
G01 X22.3562 Y8.6009
G01 X20.6500 Y8.6010
G01 X20.6377 Y8.6007
G01 X20.6254 Y8.5998
G01 X20.6132 Y8.5983
G01 X20.6010 Y8.5962
G01 X20.5890 Y8.5935
G01 X20.5771 Y8.5902
G01 X20.5654 Y8.5863
G01 X20.5539 Y8.5819
G01 X20.5427 Y8.5769
G01 X20.5317 Y8.5714
G01 X19.7350 Y8.1262
G01 X18.3594 Y8.1262
G01 X13.7481 Y12.7391
G01 X13.2178 Y13.4267
G01 X13.1844 Y13.4716
G01 X13.1725 Y13.4858
G01 X13.1311 Y13.5311
G01 X13.0858 Y13.5725
G01 X13.0716 Y13.5844
G01 X13.0223 Y13.6210
G01 X13.0068 Y13.6310
G01 X12.9540 Y13.6623
G01 X12.8987 Y13.6889
G01 X12.8874 Y13.6939
G01 X12.8759 Y13.6983
G01 X12.8180 Y13.7187
G01 X12.7585 Y13.7339
G01 X12.7465 Y13.7366
G01 X12.6858 Y13.7459
G01 X12.6736 Y13.7474
G01 X12.6123 Y13.7507
G01 X12.6000 Y13.7510
G01 X12.5877 Y13.7507
G01 X12.5264 Y13.7474
G01 X12.4656 Y13.7387
G01 X12.4475 Y13.7353
G01 X12.3879 Y13.7204
G01 X12.3703 Y13.7148
G01 X12.3126 Y13.6939
G01 X12.2570 Y13.6679
G01 X12.2460 Y13.6623
G01 X12.2353 Y13.6563
G01 X12.1879 Y13.6278
G01 X12.1727 Y13.6174
G01 X12.1236 Y13.5805
G01 X12.0779 Y13.5395
G01 X12.0689 Y13.5311
G01 X12.0605 Y13.5221
G01 X12.0195 Y13.4764
G01 X12.0119 Y13.4667
G01 X11.9755 Y13.4172
G01 X11.9437 Y13.3647
G01 X11.9348 Y13.3486
G01 X11.9086 Y13.2931
G01 X11.9000 Y13.2711
G01 X11.8939 Y13.2874
G01 X11.8889 Y13.2987
G01 X11.8679 Y13.3430
G01 X11.8594 Y13.3594
G01 X11.8310 Y13.4068
G01 X11.8245 Y13.4172
G01 X11.8174 Y13.4273
G01 X11.7844 Y13.4716
G01 X11.7725 Y13.4858
G01 X11.7395 Y13.5221
G01 X11.7311 Y13.5311
G01 X11.7221 Y13.5395
G01 X11.6764 Y13.5805
G01 X11.6273 Y13.6174
G01 X11.6172 Y13.6245
G01 X11.6068 Y13.6310
G01 X11.5540 Y13.6623
G01 X11.4987 Y13.6889
G01 X11.4874 Y13.6939
G01 X11.4759 Y13.6983
G01 X11.4180 Y13.7187
G01 X11.3585 Y13.7339
G01 X11.3465 Y13.7366
G01 X11.2858 Y13.7459
G01 X11.2736 Y13.7474
G01 X11.2613 Y13.7483
G01 X11.2000 Y13.7510
G01 X11.1387 Y13.7483
G01 X11.1264 Y13.7474
G01 X11.1142 Y13.7459
G01 X11.0535 Y13.7366
G01 X10.9939 Y13.7220
G01 X10.9820 Y13.7187
G01 X10.9241 Y13.6983
G01 X10.9126 Y13.6939
G01 X10.8570 Y13.6679
G01 X10.8406 Y13.6594
G01 X10.7932 Y13.6310
G01 X10.7828 Y13.6245
G01 X10.7727 Y13.6174
G01 X10.7236 Y13.5805
G01 X10.6779 Y13.5395
G01 X10.6689 Y13.5311
G01 X10.6605 Y13.5221
G01 X10.6195 Y13.4764
G01 X10.5826 Y13.4273
G01 X10.5755 Y13.4172
G01 X10.5690 Y13.4068
G01 X10.5437 Y13.3647
G01 X10.5348 Y13.3486
G01 X10.5111 Y13.2987
G01 X10.5061 Y13.2874
G01 X10.4852 Y13.2297
G01 X10.4796 Y13.2121
G01 X10.4647 Y13.1525
G01 X10.4613 Y13.1344
G01 X10.4533 Y13.0797
G01 X10.4517 Y13.0613
G01 X10.4490 Y13.0000
G01 X10.4493 Y12.9877
G01 X10.4521 Y12.9325
G01 X10.4541 Y12.9142
G01 X10.4614 Y12.8649
G01 X10.5738 Y11.9949
G01 X10.5738 Y11.9594
G01 X6.7406 Y8.1262
G01 X4.7650 Y8.1262
G01 X3.9683 Y8.5714
G01 X3.9517 Y8.5795
G01 X3.9403 Y8.5842
G01 X3.9287 Y8.5884
G01 X3.9110 Y8.5935
G01 X3.8929 Y8.5973
G01 X3.8807 Y8.5991
G01 X3.8685 Y8.6003
G01 X3.8500 Y8.6010
G01 X2.1500 Y8.6010
G01 X2.1315 Y8.6003
G01 X2.1132 Y8.5983
G01 X2.1010 Y8.5962
G01 X2.0890 Y8.5935
G01 X2.0713 Y8.5884
G01 X2.0539 Y8.5819
G01 X2.0371 Y8.5742
G01 X2.0210 Y8.5653
G01 X2.0055 Y8.5552
G01 X1.9908 Y8.5440
G01 X1.9769 Y8.5318
G01 X1.9640 Y8.5186
G01 X1.9521 Y8.5044
G01 X1.9413 Y8.4895
G01 X1.9316 Y8.4737
G01 X1.9231 Y8.4573
G01 X1.9158 Y8.4403
G01 X1.9098 Y8.4229
G01 X1.9051 Y8.4050
G01 X1.9017 Y8.3868
G01 X1.8997 Y8.3685
G01 X1.8990 Y8.3500
G01 X1.8991 Y6.6438
G01 X1.9002 Y6.6254
G01 X1.9017 Y6.6132
G01 X1.9038 Y6.6010
G01 X1.9081 Y6.5830
G01 X1.9137 Y6.5654
G01 X1.9181 Y6.5539
G01 X1.9231 Y6.5427
G01 X1.9316 Y6.5263
G01 X1.9413 Y6.5105
G01 X1.9484 Y6.5005
G01 X1.9599 Y6.4860
G01 X1.9682 Y6.4769
G01 X1.9769 Y6.4682
G01 X1.9908 Y6.4560
G01 X2.0005 Y6.4484
G01 X2.0157 Y6.4379
G01 X2.0263 Y6.4316
G01 X2.0427 Y6.4231
G01 X2.0539 Y6.4181
G01 X2.0713 Y6.4116
G01 X2.0890 Y6.4065
G01 X2.1010 Y6.4038
G01 X2.1132 Y6.4017
G01 X2.1315 Y6.3997
G01 X2.1500 Y6.3990
G01 X3.8500 Y6.3990
G01 X3.8685 Y6.3997
G01 X3.8807 Y6.4009
G01 X3.8929 Y6.4027
G01 X3.9110 Y6.4065
G01 X3.9229 Y6.4098
G01 X3.9346 Y6.4137
G01 X3.9461 Y6.4181
G01 X3.9573 Y6.4231
G01 X3.9683 Y6.4286
G01 X4.7650 Y6.8738
G01 X7.0062 Y6.8739
G01 X7.0552 Y6.8763
G01 X7.0736 Y6.8783
G01 X7.1222 Y6.8858
G01 X7.1699 Y6.8975
G01 X7.1877 Y6.9026
G01 X7.2281 Y6.9170
G01 X7.2396 Y6.9215
G01 X7.2842 Y6.9422
G01 X7.3006 Y6.9507
G01 X7.3375 Y6.9727
G01 X7.3479 Y6.9793
G01 X7.3875 Y7.0084
G01 X7.4020 Y7.0199
G01 X7.4339 Y7.0487
G01 X7.4428 Y7.0572
G01 X11.6428 Y11.2572
G01 X11.6513 Y11.2661
G01 X11.6841 Y11.3027
G01 X11.6916 Y11.3125
G01 X11.7172 Y11.3470
G01 X11.7273 Y11.3625
G01 X11.7523 Y11.4048
G01 X11.7735 Y11.4491
G01 X11.7808 Y11.4661
G01 X11.7954 Y11.5065
G01 X11.7992 Y11.5182
G01 X11.8115 Y11.5658
G01 X11.8153 Y11.5839
G01 X11.8217 Y11.6264
G01 X11.8232 Y11.6386
G01 X11.8261 Y11.6934
G01 X11.8273 Y12.0032
G01 X11.9161 Y12.6908
G01 X11.9377 Y12.6460
G01 X11.9437 Y12.6353
G01 X11.9722 Y12.5879
G01 X11.9826 Y12.5727
G01 X12.0195 Y12.5236
G01 X12.0605 Y12.4779
G01 X12.0689 Y12.4689
G01 X12.0779 Y12.4605
G01 X12.1236 Y12.4195
G01 X12.1733 Y12.3822
G00 Z2.0000
G00 X12.1147 Y12.3049
G01 F30.00
G01 Z-0.0400
G01 F90.00
G01 X12.8037 Y11.7735
G01 X17.5886 Y6.9886
G01 X17.6010 Y6.9768
G01 X17.6347 Y6.9465
G01 X17.6547 Y6.9305
G01 X17.6843 Y6.9085
G01 X17.6982 Y6.8987
G01 X17.7126 Y6.8895
G01 X17.7516 Y6.8663
G01 X17.7743 Y6.8545
G01 X17.8076 Y6.8388
G01 X17.8232 Y6.8319
G01 X17.8392 Y6.8257
G01 X17.8738 Y6.8133
G01 X17.8983 Y6.8056
G01 X17.9506 Y6.7925
G01 X17.9757 Y6.7878
G01 X18.0122 Y6.7824
G01 X18.0291 Y6.7803
G01 X18.0461 Y6.7790
G01 X18.0829 Y6.7772
G01 X18.1000 Y6.7768
G01 X19.7097 Y6.7768
G01 X20.4725 Y6.3505
G01 X20.4935 Y6.3392
G01 X20.5090 Y6.3319
G01 X20.5248 Y6.3253
G01 X20.5408 Y6.3196
G01 X20.5572 Y6.3146
G01 X20.5738 Y6.3105
G01 X20.5905 Y6.3071
G01 X20.6074 Y6.3046
G01 X20.6244 Y6.3029
G01 X20.6500 Y6.3020
G01 X22.3500 Y6.3020
G01 X22.3671 Y6.3024
G01 X22.3841 Y6.3037
G01 X22.4011 Y6.3058
G01 X22.4262 Y6.3105
G01 X22.4510 Y6.3170
G01 X22.4672 Y6.3223
G01 X22.4832 Y6.3285
G01 X22.4988 Y6.3354
G01 X22.5140 Y6.3431
G01 X22.5362 Y6.3560
G01 X22.5573 Y6.3705
G01 X22.5708 Y6.3810
G01 X22.5837 Y6.3921
G01 X22.6020 Y6.4100
G01 X22.6190 Y6.4292
G01 X22.6295 Y6.4427
G01 X22.6394 Y6.4567
G01 X22.6528 Y6.4785
G01 X22.6608 Y6.4935
G01 X22.6715 Y6.5168
G01 X22.6804 Y6.5408
G01 X22.6854 Y6.5572
G01 X22.6913 Y6.5821
G01 X22.6942 Y6.5989
G01 X22.6963 Y6.6159
G01 X22.6979 Y6.6415
G01 X22.6980 Y8.3500
G01 X22.6976 Y8.3671
G01 X22.6954 Y8.3926
G01 X22.6929 Y8.4095
G01 X22.6876 Y8.4346
G01 X22.6830 Y8.4510
G01 X22.6747 Y8.4752
G01 X22.6681 Y8.4910
G01 X22.6569 Y8.5140
G01 X22.6485 Y8.5289
G01 X22.6394 Y8.5433
G01 X22.6243 Y8.5641
G01 X22.6079 Y8.5837
G01 X22.5961 Y8.5961
G01 X22.5837 Y8.6079
G01 X22.5708 Y8.6190
G01 X22.5504 Y8.6345
G01 X22.5362 Y8.6440
G01 X22.5140 Y8.6569
G01 X22.4910 Y8.6681
G01 X22.4752 Y8.6747
G01 X22.4510 Y8.6830
G01 X22.4262 Y8.6895
G01 X22.4011 Y8.6942
G01 X22.3841 Y8.6963
G01 X22.3585 Y8.6979
G01 X20.6500 Y8.6980
G01 X20.6329 Y8.6976
G01 X20.6159 Y8.6963
G01 X20.5989 Y8.6942
G01 X20.5821 Y8.6913
G01 X20.5654 Y8.6876
G01 X20.5490 Y8.6830
G01 X20.5328 Y8.6777
G01 X20.5168 Y8.6715
G01 X20.5012 Y8.6646
G01 X20.4860 Y8.6569
G01 X19.7097 Y8.2232
G01 X18.3996 Y8.2232
G01 X13.8211 Y12.8032
G01 X13.2951 Y13.4853
G01 X13.2660 Y13.5245
G01 X13.2555 Y13.5380
G01 X13.2444 Y13.5509
G01 X13.2114 Y13.5873
G01 X13.1996 Y13.5996
G01 X13.1873 Y13.6114
G01 X13.1509 Y13.6444
G01 X13.1313 Y13.6609
G01 X13.0851 Y13.6953
G01 X13.0711 Y13.7051
G01 X13.0567 Y13.7142
G01 X13.0146 Y13.7395
G01 X12.9997 Y13.7479
G01 X12.9845 Y13.7556
G01 X12.9401 Y13.7765
G01 X12.9245 Y13.7835
G01 X12.9086 Y13.7896
G01 X12.8624 Y13.8061
G01 X12.8380 Y13.8139
G01 X12.7821 Y13.8280
G01 X12.7654 Y13.8317
G01 X12.7486 Y13.8346
G01 X12.7001 Y13.8418
G01 X12.6746 Y13.8447
G01 X12.6171 Y13.8476
G01 X12.5915 Y13.8479
G01 X12.5254 Y13.8447
G01 X12.4999 Y13.8418
G01 X12.4430 Y13.8333
G01 X12.4179 Y13.8280
G01 X12.3703 Y13.8160
G01 X12.3538 Y13.8115
G01 X12.3376 Y13.8061
G01 X12.2914 Y13.7896
G01 X12.2676 Y13.7801
G01 X12.2078 Y13.7518
G01 X12.1928 Y13.7438
G01 X12.1433 Y13.7142
G01 X12.1218 Y13.7003
G01 X12.0687 Y13.6609
G01 X12.0491 Y13.6444
G01 X12.0065 Y13.6056
G01 X11.9886 Y13.5873
G01 X11.9556 Y13.5509
G01 X11.9445 Y13.5380
G01 X11.9340 Y13.5245
G01 X11.9000 Y13.4785
G01 X11.8609 Y13.5313
G01 X11.8444 Y13.5509
G01 X11.8114 Y13.5873
G01 X11.7996 Y13.5996
G01 X11.7873 Y13.6114
G01 X11.7509 Y13.6444
G01 X11.7313 Y13.6609
G01 X11.6851 Y13.6953
G01 X11.6711 Y13.7051
G01 X11.6567 Y13.7142
G01 X11.6146 Y13.7395
G01 X11.5997 Y13.7479
G01 X11.5845 Y13.7556
G01 X11.5324 Y13.7801
G01 X11.5086 Y13.7896
G01 X11.4624 Y13.8061
G01 X11.4462 Y13.8115
G01 X11.4297 Y13.8160
G01 X11.3821 Y13.8280
G01 X11.3570 Y13.8333
G01 X11.3001 Y13.8418
G01 X11.2831 Y13.8439
G01 X11.2661 Y13.8452
G01 X11.2171 Y13.8476
G01 X11.2000 Y13.8480
G01 X11.1829 Y13.8476
G01 X11.1254 Y13.8447
G01 X11.0999 Y13.8418
G01 X11.0514 Y13.8346
G01 X11.0346 Y13.8317
G01 X11.0179 Y13.8280
G01 X10.9703 Y13.8160
G01 X10.9538 Y13.8115
G01 X10.9376 Y13.8061
G01 X10.8834 Y13.7866
G01 X10.8599 Y13.7765
G01 X10.8155 Y13.7556
G01 X10.8003 Y13.7479
G01 X10.7854 Y13.7395
G01 X10.7433 Y13.7142
G01 X10.7289 Y13.7051
G01 X10.7149 Y13.6953
G01 X10.6755 Y13.6660
G01 X10.6620 Y13.6555
G01 X10.6491 Y13.6444
G01 X10.6127 Y13.6114
G01 X10.5944 Y13.5935
G01 X10.5556 Y13.5509
G01 X10.5445 Y13.5380
G01 X10.5340 Y13.5245
G01 X10.5047 Y13.4851
G01 X10.4949 Y13.4711
G01 X10.4858 Y13.4567
G01 X10.4605 Y13.4146
G01 X10.4521 Y13.3997
G01 X10.4444 Y13.3845
G01 X10.4199 Y13.3324
G01 X10.4134 Y13.3166
G01 X10.3939 Y13.2624
G01 X10.3885 Y13.2462
G01 X10.3840 Y13.2297
G01 X10.3720 Y13.1821
G01 X10.3667 Y13.1570
G01 X10.3582 Y13.1001
G01 X10.3553 Y13.0746
G01 X10.3521 Y13.0085
G01 X10.3524 Y12.9829
G01 X10.3553 Y12.9254
G01 X10.3570 Y12.9084
G01 X10.3649 Y12.8546
G01 X10.4756 Y11.9983
G01 X6.7004 Y8.2232
G01 X4.7903 Y8.2232
G01 X4.0140 Y8.6569
G01 X3.9988 Y8.6646
G01 X3.9832 Y8.6715
G01 X3.9672 Y8.6777
G01 X3.9510 Y8.6830
G01 X3.9346 Y8.6876
G01 X3.9179 Y8.6913
G01 X3.9011 Y8.6942
G01 X3.8841 Y8.6963
G01 X3.8671 Y8.6976
G01 X3.8500 Y8.6980
G01 X2.1500 Y8.6980
G01 X2.1244 Y8.6971
G01 X2.1074 Y8.6954
G01 X2.0905 Y8.6929
G01 X2.0654 Y8.6876
G01 X2.0490 Y8.6830
G01 X2.0328 Y8.6777
G01 X2.0090 Y8.6681
G01 X1.9860 Y8.6569
G01 X1.9638 Y8.6440
G01 X1.9427 Y8.6295
G01 X1.9227 Y8.6135
G01 X1.9039 Y8.5961
G01 X1.8865 Y8.5773
G01 X1.8705 Y8.5573
G01 X1.8560 Y8.5362
G01 X1.8431 Y8.5140
G01 X1.8319 Y8.4910
G01 X1.8223 Y8.4672
G01 X1.8146 Y8.4428
G01 X1.8087 Y8.4179
G01 X1.8046 Y8.3926
G01 X1.8029 Y8.3756
G01 X1.8020 Y8.3500
G01 X1.8021 Y6.6415
G01 X1.8029 Y6.6244
G01 X1.8058 Y6.5989
G01 X1.8087 Y6.5821
G01 X1.8146 Y6.5572
G01 X1.8223 Y6.5328
G01 X1.8285 Y6.5168
G01 X1.8392 Y6.4935
G01 X1.8472 Y6.4785
G01 X1.8606 Y6.4567
G01 X1.8705 Y6.4427
G01 X1.8810 Y6.4292
G01 X1.8980 Y6.4100
G01 X1.9100 Y6.3980
G01 X1.9292 Y6.3810
G01 X1.9427 Y6.3705
G01 X1.9638 Y6.3560
G01 X1.9785 Y6.3472
G01 X2.0012 Y6.3354
G01 X2.0248 Y6.3253
G01 X2.0408 Y6.3196
G01 X2.0572 Y6.3146
G01 X2.0738 Y6.3105
G01 X2.0905 Y6.3071
G01 X2.1159 Y6.3037
G01 X2.1329 Y6.3024
G01 X2.1500 Y6.3020
G01 X3.8500 Y6.3020
G01 X3.8756 Y6.3029
G01 X3.8926 Y6.3046
G01 X3.9095 Y6.3071
G01 X3.9262 Y6.3105
G01 X3.9428 Y6.3146
G01 X3.9592 Y6.3196
G01 X3.9752 Y6.3253
G01 X3.9910 Y6.3318
G01 X4.0065 Y6.3392
G01 X4.0275 Y6.3505
G01 X4.7903 Y6.7768
G01 X7.0085 Y6.7769
G01 X7.0624 Y6.7796
G01 X7.0878 Y6.7824
G01 X7.1243 Y6.7878
G01 X7.1411 Y6.7907
G01 X7.1578 Y6.7944
G01 X7.1935 Y6.8034
G01 X7.2181 Y6.8105
G01 X7.2608 Y6.8257
G01 X7.2768 Y6.8319
G01 X7.2924 Y6.8388
G01 X7.3257 Y6.8545
G01 X7.3484 Y6.8663
G01 X7.3874 Y6.8895
G01 X7.4018 Y6.8987
G01 X7.4157 Y6.9085
G01 X7.4453 Y6.9305
G01 X7.4653 Y6.9465
G01 X7.4990 Y6.9768
G01 X7.5114 Y6.9886
G01 X11.7114 Y11.1886
G01 X11.7232 Y11.2010
G01 X11.7535 Y11.2347
G01 X11.7695 Y11.2547
G01 X11.7915 Y11.2843
G01 X11.8013 Y11.2982
G01 X11.8105 Y11.3126
G01 X11.8337 Y11.3516
G01 X11.8455 Y11.3743
G01 X11.8612 Y11.4076
G01 X11.8681 Y11.4232
G01 X11.8743 Y11.4392
G01 X11.8867 Y11.4738
G01 X11.8944 Y11.4983
G01 X11.9056 Y11.5422
G01 X11.9093 Y11.5589
G01 X11.9122 Y11.5757
G01 X11.9168 Y11.6068
G01 X11.9197 Y11.6291
G01 X11.9210 Y11.6461
G01 X11.9231 Y11.6908
G01 X11.9242 Y11.9968
G01 X11.9793 Y12.4230
G01 X11.9944 Y12.4065
G01 X12.0065 Y12.3944
G01 X12.0555 Y12.3500
G01 X12.0687 Y12.3391
G01 X12.1147 Y12.3049
G00 Z2.0000
G00 X12.0559 Y12.2277
G01 F30.00
G01 Z-0.0400
G01 F90.00
G01 X12.7396 Y11.7005
G01 X17.5200 Y6.9200
G01 X17.5359 Y6.9050
G01 X17.5713 Y6.8730
G01 X17.5882 Y6.8592
G01 X17.5969 Y6.8526
G01 X17.6265 Y6.8306
G01 X17.6443 Y6.8180
G01 X17.6628 Y6.8064
G01 X17.7038 Y6.7819
G01 X17.7134 Y6.7767
G01 X17.7329 Y6.7668
G01 X17.7662 Y6.7511
G01 X17.7861 Y6.7423
G01 X17.8065 Y6.7344
G01 X17.8412 Y6.7220
G01 X17.8619 Y6.7151
G01 X17.8830 Y6.7093
G01 X17.9187 Y6.7004
G01 X17.9293 Y6.6978
G01 X17.9507 Y6.6936
G01 X18.0088 Y6.6850
G01 X18.0305 Y6.6828
G01 X18.0414 Y6.6822
G01 X18.0782 Y6.6804
G01 X18.0992 Y6.6798
G01 X19.6897 Y6.6769
G01 X20.4424 Y6.2564
G01 X20.4618 Y6.2468
G01 X20.4815 Y6.2381
G01 X20.5017 Y6.2304
G01 X20.5222 Y6.2237
G01 X20.5431 Y6.2180
G01 X20.5642 Y6.2134
G01 X20.5854 Y6.2097
G01 X20.6069 Y6.2071
G01 X20.6284 Y6.2055
G01 X20.6500 Y6.2050
G01 X22.3500 Y6.2050
G01 X22.3718 Y6.2055
G01 X22.3936 Y6.2072
G01 X22.4045 Y6.2084
G01 X22.4261 Y6.2116
G01 X22.4475 Y6.2158
G01 X22.4581 Y6.2183
G01 X22.4687 Y6.2211
G01 X22.4896 Y6.2275
G01 X22.5101 Y6.2348
G01 X22.5203 Y6.2389
G01 X22.5403 Y6.2477
G01 X22.5501 Y6.2525
G01 X22.5598 Y6.2576
G01 X22.5788 Y6.2683
G01 X22.5972 Y6.2800
G01 X22.6062 Y6.2862
G01 X22.6238 Y6.2992
G01 X22.6323 Y6.3060
G01 X22.6488 Y6.3203
G01 X22.6647 Y6.3353
G01 X22.6723 Y6.3432
G01 X22.6870 Y6.3593
G01 X22.7008 Y6.3762
G01 X22.7074 Y6.3849
G01 X22.7200 Y6.4028
G01 X22.7260 Y6.4119
G01 X22.7372 Y6.4307
G01 X22.7475 Y6.4499
G01 X22.7568 Y6.4697
G01 X22.7611 Y6.4797
G01 X22.7690 Y6.5001
G01 X22.7758 Y6.5208
G01 X22.7789 Y6.5313
G01 X22.7842 Y6.5525
G01 X22.7884 Y6.5739
G01 X22.7916 Y6.5955
G01 X22.7938 Y6.6173
G01 X22.7945 Y6.6282
G01 X22.7950 Y6.6500
G01 X22.7950 Y8.3500
G01 X22.7945 Y8.3718
G01 X22.7928 Y8.3936
G01 X22.7902 Y8.4153
G01 X22.7864 Y8.4368
G01 X22.7817 Y8.4581
G01 X22.7758 Y8.4792
G01 X22.7690 Y8.4999
G01 X22.7611 Y8.5203
G01 X22.7568 Y8.5303
G01 X22.7475 Y8.5501
G01 X22.7372 Y8.5693
G01 X22.7260 Y8.5881
G01 X22.7138 Y8.6062
G01 X22.7008 Y8.6238
G01 X22.6870 Y8.6407
G01 X22.6723 Y8.6568
G01 X22.6568 Y8.6723
G01 X22.6407 Y8.6870
G01 X22.6238 Y8.7008
G01 X22.6151 Y8.7074
G01 X22.5972 Y8.7200
G01 X22.5881 Y8.7260
G01 X22.5788 Y8.7317
G01 X22.5598 Y8.7424
G01 X22.5403 Y8.7523
G01 X22.5303 Y8.7568
G01 X22.5203 Y8.7611
G01 X22.4999 Y8.7690
G01 X22.4792 Y8.7758
G01 X22.4687 Y8.7789
G01 X22.4581 Y8.7817
G01 X22.4368 Y8.7864
G01 X22.4261 Y8.7884
G01 X22.4045 Y8.7916
G01 X22.3936 Y8.7928
G01 X22.3718 Y8.7945
G01 X22.3500 Y8.7950
G01 X20.6500 Y8.7950
G01 X20.6282 Y8.7945
G01 X20.6064 Y8.7928
G01 X20.5847 Y8.7902
G01 X20.5739 Y8.7884
G01 X20.5525 Y8.7842
G01 X20.5313 Y8.7789
G01 X20.5104 Y8.7725
G01 X20.4899 Y8.7652
G01 X20.4697 Y8.7568
G01 X20.4499 Y8.7475
G01 X20.4252 Y8.7341
G01 X19.6844 Y8.3202
G01 X18.4398 Y8.3202
G01 X14.6313 Y12.1300
G01 X14.6485 Y12.1229
G01 X14.7049 Y12.1026
G01 X14.7257 Y12.0957
G01 X14.7467 Y12.0899
G01 X14.7943 Y12.0780
G01 X14.8156 Y12.0732
G01 X14.8372 Y12.0694
G01 X14.8857 Y12.0622
G01 X14.9074 Y12.0596
G01 X14.9292 Y12.0580
G01 X14.9782 Y12.0555
G01 X15.0000 Y12.0550
G01 X15.0218 Y12.0555
G01 X15.0817 Y12.0586
G01 X15.1035 Y12.0608
G01 X15.1628 Y12.0694
G01 X15.1844 Y12.0732
G01 X15.2057 Y12.0780
G01 X15.2533 Y12.0899
G01 X15.2743 Y12.0957
G01 X15.2951 Y12.1026
G01 X15.3413 Y12.1191
G01 X15.3616 Y12.1269
G01 X15.3816 Y12.1358
G01 X15.4260 Y12.1568
G01 X15.4455 Y12.1666
G01 X15.4645 Y12.1774
G01 X15.5066 Y12.2026
G01 X15.5250 Y12.2143
G01 X15.5429 Y12.2268
G01 X15.5910 Y12.2627
G01 X15.6079 Y12.2765
G01 X15.6524 Y12.3167
G01 X15.6682 Y12.3318
G01 X15.6833 Y12.3476
G01 X15.7235 Y12.3921
G01 X15.7373 Y12.4090
G01 X15.7732 Y12.4571
G01 X15.7857 Y12.4750
G01 X15.7974 Y12.4934
G01 X15.8226 Y12.5355
G01 X15.8334 Y12.5545
G01 X15.8432 Y12.5740
G01 X15.8642 Y12.6184
G01 X15.8731 Y12.6384
G01 X15.8809 Y12.6587
G01 X15.8974 Y12.7049
G01 X15.9043 Y12.7257
G01 X15.9101 Y12.7467
G01 X15.9246 Y12.8050
G01 X15.9288 Y12.8264
G01 X15.9378 Y12.8857
G01 X15.9404 Y12.9074
G01 X15.9420 Y12.9292
G01 X15.9445 Y12.9782
G01 X15.9450 Y13.0000
G01 X15.9445 Y13.0218
G01 X15.9420 Y13.0708
G01 X15.9404 Y13.0926
G01 X15.9378 Y13.1143
G01 X15.9312 Y13.1587
G01 X15.8202 Y14.0176
G01 X15.8202 Y14.1603
G01 X19.3388 Y17.6789
G01 X19.6891 Y17.6772
G01 X20.4424 Y17.2564
G01 X20.4618 Y17.2468
G01 X20.4815 Y17.2381
G01 X20.5017 Y17.2304
G01 X20.5222 Y17.2237
G01 X20.5431 Y17.2180
G01 X20.5642 Y17.2134
G01 X20.5854 Y17.2097
G01 X20.6069 Y17.2071
G01 X20.6284 Y17.2055
G01 X20.6500 Y17.2050
G01 X22.3500 Y17.2050
G01 X22.3718 Y17.2055
G01 X22.3827 Y17.2062
G01 X22.4045 Y17.2084
G01 X22.4261 Y17.2116
G01 X22.4475 Y17.2158
G01 X22.4687 Y17.2211
G01 X22.4792 Y17.2242
G01 X22.4999 Y17.2310
G01 X22.5203 Y17.2389
G01 X22.5403 Y17.2477
G01 X22.5598 Y17.2576
G01 X22.5693 Y17.2628
G01 X22.5881 Y17.2740
G01 X22.6062 Y17.2862
G01 X22.6238 Y17.2992
G01 X22.6407 Y17.3130
G01 X22.6488 Y17.3203
G01 X22.6647 Y17.3353
G01 X22.6797 Y17.3512
G01 X22.6940 Y17.3677
G01 X22.7074 Y17.3849
G01 X22.7200 Y17.4028
G01 X22.7317 Y17.4212
G01 X22.7424 Y17.4402
G01 X22.7523 Y17.4597
G01 X22.7611 Y17.4797
G01 X22.7690 Y17.5001
G01 X22.7758 Y17.5208
G01 X22.7817 Y17.5419
G01 X22.7864 Y17.5632
G01 X22.7902 Y17.5847
G01 X22.7916 Y17.5955
G01 X22.7938 Y17.6173
G01 X22.7949 Y17.6391
G01 X22.7950 Y19.3500
G01 X22.7945 Y19.3718
G01 X22.7938 Y19.3827
G01 X22.7916 Y19.4045
G01 X22.7884 Y19.4261
G01 X22.7864 Y19.4368
G01 X22.7842 Y19.4475
G01 X22.7789 Y19.4687
G01 X22.7725 Y19.4896
G01 X22.7652 Y19.5101
G01 X22.7611 Y19.5203
G01 X22.7568 Y19.5303
G01 X22.7475 Y19.5501
G01 X22.7372 Y19.5693
G01 X22.7317 Y19.5788
G01 X22.7200 Y19.5972
G01 X22.7138 Y19.6062
G01 X22.7008 Y19.6238
G01 X22.6870 Y19.6407
G01 X22.6723 Y19.6568
G01 X22.6568 Y19.6723
G01 X22.6488 Y19.6797
G01 X22.6323 Y19.6940
G01 X22.6151 Y19.7074
G01 X22.5972 Y19.7200
G01 X22.5881 Y19.7260
G01 X22.5693 Y19.7372
G01 X22.5501 Y19.7475
G01 X22.5403 Y19.7523
G01 X22.5203 Y19.7611
G01 X22.4999 Y19.7690
G01 X22.4792 Y19.7758
G01 X22.4581 Y19.7817
G01 X22.4368 Y19.7864
G01 X22.4153 Y19.7902
G01 X22.3936 Y19.7928
G01 X22.3718 Y19.7945
G01 X22.3500 Y19.7950
G01 X20.6500 Y19.7950
G01 X20.6391 Y19.7949
G01 X20.6173 Y19.7938
G01 X20.5955 Y19.7916
G01 X20.5739 Y19.7884
G01 X20.5632 Y19.7864
G01 X20.5419 Y19.7817
G01 X20.5208 Y19.7758
G01 X20.5001 Y19.7690
G01 X20.4797 Y19.7611
G01 X20.4597 Y19.7523
G01 X20.4499 Y19.7475
G01 X20.4252 Y19.7341
G01 X19.6844 Y19.3202
G01 X18.9891 Y19.3200
G01 X18.9414 Y19.3178
G01 X18.9196 Y19.3162
G01 X18.8979 Y19.3136
G01 X18.8615 Y19.3082
G01 X18.8507 Y19.3064
G01 X18.8293 Y19.3022
G01 X18.7830 Y19.2907
G01 X18.7619 Y19.2849
G01 X18.7412 Y19.2780
G01 X18.7065 Y19.2656
G01 X18.6861 Y19.2577
G01 X18.6761 Y19.2534
G01 X18.6329 Y19.2332
G01 X18.6134 Y19.2233
G01 X18.5944 Y19.2126
G01 X18.5628 Y19.1936
G01 X18.5535 Y19.1879
G01 X18.5353 Y19.1758
G01 X18.4969 Y19.1474
G01 X18.4797 Y19.1340
G01 X18.4631 Y19.1197
G01 X18.4359 Y19.0950
G01 X18.4200 Y19.0800
G01 X14.4200 Y15.0800
G01 X14.4050 Y15.0641
G01 X14.3803 Y15.0369
G01 X14.3660 Y15.0203
G01 X14.3526 Y15.0031
G01 X14.3306 Y14.9735
G01 X14.3180 Y14.9557
G01 X14.2988 Y14.9246
G01 X14.2874 Y14.9056
G01 X14.2767 Y14.8866
G01 X14.2668 Y14.8671
G01 X14.2511 Y14.8338
G01 X14.2466 Y14.8239
G01 X14.2382 Y14.8037
G01 X14.2184 Y14.7485
G01 X14.2151 Y14.7381
G01 X14.2093 Y14.7170
G01 X14.2004 Y14.6813
G01 X14.1956 Y14.6600
G01 X14.1918 Y14.6385
G01 X14.1864 Y14.6021
G01 X14.1838 Y14.5804
G01 X14.1828 Y14.5695
G01 X14.1804 Y14.5218
G01 X14.1798 Y14.5010
G01 X14.1788 Y14.0093
G01 X14.0692 Y13.1613
G01 X14.0608 Y13.1035
G01 X14.0586 Y13.0817
G01 X14.0551 Y13.0109
G01 X14.0550 Y13.0000
G01 X14.0555 Y12.9782
G01 X14.0580 Y12.9292
G01 X14.0596 Y12.9074
G01 X14.0622 Y12.8857
G01 X14.0694 Y12.8372
G01 X14.0732 Y12.8156
G01 X14.0754 Y12.8050
G01 X14.0899 Y12.7467
G01 X14.0957 Y12.7257
G01 X14.1026 Y12.7049
G01 X14.1191 Y12.6587
G01 X14.1299 Y12.6316
G01 X13.8941 Y12.8674
G01 X13.3722 Y13.5441
G01 X13.3373 Y13.5910
G01 X13.3305 Y13.5995
G01 X13.3162 Y13.6160
G01 X13.2833 Y13.6524
G01 X13.2682 Y13.6682
G01 X13.2524 Y13.6833
G01 X13.2160 Y13.7162
G01 X13.1995 Y13.7305
G01 X13.1910 Y13.7373
G01 X13.1340 Y13.7796
G01 X13.1250 Y13.7857
G01 X13.1066 Y13.7974
G01 X13.0645 Y13.8226
G01 X13.0455 Y13.8334
G01 X13.0260 Y13.8432
G01 X12.9816 Y13.8642
G01 X12.9717 Y13.8688
G01 X12.9515 Y13.8771
G01 X12.8847 Y13.9010
G01 X12.8638 Y13.9073
G01 X12.8057 Y13.9220
G01 X12.7844 Y13.9268
G01 X12.7628 Y13.9306
G01 X12.7143 Y13.9378
G01 X12.6926 Y13.9404
G01 X12.6708 Y13.9420
G01 X12.6218 Y13.9445
G01 X12.6000 Y13.9450
G01 X12.5782 Y13.9445
G01 X12.5183 Y13.9414
G01 X12.5074 Y13.9404
G01 X12.4857 Y13.9378
G01 X12.4372 Y13.9306
G01 X12.4156 Y13.9268
G01 X12.3943 Y13.9220
G01 X12.3362 Y13.9073
G01 X12.3153 Y13.9010
G01 X12.2587 Y13.8809
G01 X12.2384 Y13.8731
G01 X12.2184 Y13.8642
G01 X12.1740 Y13.8432
G01 X12.1545 Y13.8334
G01 X12.1355 Y13.8226
G01 X12.0841 Y13.7917
G01 X12.0750 Y13.7857
G01 X12.0571 Y13.7732
G01 X12.0090 Y13.7373
G01 X11.9921 Y13.7235
G01 X11.9396 Y13.6758
G01 X11.9242 Y13.6604
G01 X11.9000 Y13.6339
G01 X11.8758 Y13.6604
G01 X11.8604 Y13.6758
G01 X11.8160 Y13.7162
G01 X11.7995 Y13.7305
G01 X11.7910 Y13.7373
G01 X11.7429 Y13.7732
G01 X11.7250 Y13.7857
G01 X11.7066 Y13.7974
G01 X11.6645 Y13.8226
G01 X11.6455 Y13.8334
G01 X11.6358 Y13.8384
G01 X11.5816 Y13.8642
G01 X11.5616 Y13.8731
G01 X11.5413 Y13.8809
G01 X11.4951 Y13.8974
G01 X11.4743 Y13.9043
G01 X11.4533 Y13.9101
G01 X11.4057 Y13.9220
G01 X11.3844 Y13.9268
G01 X11.3628 Y13.9306
G01 X11.3035 Y13.9392
G01 X11.2926 Y13.9404
G01 X11.2708 Y13.9420
G01 X11.2218 Y13.9445
G01 X11.2000 Y13.9450
G01 X11.1782 Y13.9445
G01 X11.1183 Y13.9414
G01 X11.1074 Y13.9404
G01 X11.0857 Y13.9378
G01 X11.0264 Y13.9288
G01 X11.0050 Y13.9246
G01 X10.9467 Y13.9101
G01 X10.9362 Y13.9073
G01 X10.9153 Y13.9010
G01 X10.8587 Y13.8809
G01 X10.8384 Y13.8731
G01 X10.8184 Y13.8642
G01 X10.7642 Y13.8384
G01 X10.7450 Y13.8281
G01 X10.6934 Y13.7974
G01 X10.6750 Y13.7857
G01 X10.6660 Y13.7796
G01 X10.6177 Y13.7439
G01 X10.6005 Y13.7305
G01 X10.5840 Y13.7162
G01 X10.5476 Y13.6833
G01 X10.5318 Y13.6682
G01 X10.5167 Y13.6524
G01 X10.4838 Y13.6160
G01 X10.4695 Y13.5995
G01 X10.4561 Y13.5823
G01 X10.4268 Y13.5429
G01 X10.4143 Y13.5250
G01 X10.4026 Y13.5066
G01 X10.3774 Y13.4645
G01 X10.3666 Y13.4455
G01 X10.3568 Y13.4260
G01 X10.3358 Y13.3816
G01 X10.3269 Y13.3616
G01 X10.3191 Y13.3413
G01 X10.3026 Y13.2951
G01 X10.2957 Y13.2743
G01 X10.2899 Y13.2533
G01 X10.2780 Y13.2057
G01 X10.2732 Y13.1844
G01 X10.2712 Y13.1736
G01 X10.2622 Y13.1143
G01 X10.2596 Y13.0926
G01 X10.2580 Y13.0708
G01 X10.2555 Y13.0218
G01 X10.2550 Y13.0000
G01 X10.2551 Y12.9891
G01 X10.2580 Y12.9292
G01 X10.2596 Y12.9074
G01 X10.2622 Y12.8857
G01 X10.2688 Y12.8413
G01 X10.3733 Y12.0332
G01 X6.6605 Y8.3204
G01 X4.8102 Y8.3232
G01 X4.0576 Y8.7436
G01 X4.0382 Y8.7532
G01 X4.0184 Y8.7619
G01 X3.9983 Y8.7696
G01 X3.9777 Y8.7763
G01 X3.9569 Y8.7820
G01 X3.9358 Y8.7866
G01 X3.9146 Y8.7903
G01 X3.8931 Y8.7929
G01 X3.8716 Y8.7945
G01 X3.8500 Y8.7950
G01 X2.1391 Y8.7949
G01 X2.1282 Y8.7945
G01 X2.1064 Y8.7928
G01 X2.0955 Y8.7916
G01 X2.0739 Y8.7884
G01 X2.0525 Y8.7842
G01 X2.0313 Y8.7789
G01 X2.0208 Y8.7758
G01 X2.0104 Y8.7725
G01 X1.9899 Y8.7652
G01 X1.9797 Y8.7611
G01 X1.9597 Y8.7523
G01 X1.9402 Y8.7424
G01 X1.9307 Y8.7372
G01 X1.9119 Y8.7260
G01 X1.9028 Y8.7200
G01 X1.8849 Y8.7074
G01 X1.8677 Y8.6940
G01 X1.8512 Y8.6797
G01 X1.8353 Y8.6647
G01 X1.8277 Y8.6568
G01 X1.8130 Y8.6407
G01 X1.7992 Y8.6238
G01 X1.7862 Y8.6062
G01 X1.7800 Y8.5972
G01 X1.7683 Y8.5788
G01 X1.7576 Y8.5598
G01 X1.7525 Y8.5501
G01 X1.7432 Y8.5303
G01 X1.7348 Y8.5101
G01 X1.7275 Y8.4896
G01 X1.7242 Y8.4792
G01 X1.7183 Y8.4581
G01 X1.7136 Y8.4368
G01 X1.7116 Y8.4261
G01 X1.7084 Y8.4045
G01 X1.7062 Y8.3827
G01 X1.7055 Y8.3718
G01 X1.7050 Y8.3500
G01 X1.7051 Y6.6391
G01 X1.7062 Y6.6173
G01 X1.7072 Y6.6064
G01 X1.7098 Y6.5847
G01 X1.7116 Y6.5739
G01 X1.7158 Y6.5525
G01 X1.7211 Y6.5313
G01 X1.7275 Y6.5104
G01 X1.7348 Y6.4899
G01 X1.7389 Y6.4797
G01 X1.7432 Y6.4697
G01 X1.7525 Y6.4499
G01 X1.7628 Y6.4307
G01 X1.7740 Y6.4119
G01 X1.7800 Y6.4028
G01 X1.7926 Y6.3849
G01 X1.7992 Y6.3762
G01 X1.8130 Y6.3593
G01 X1.8277 Y6.3432
G01 X1.8432 Y6.3277
G01 X1.8512 Y6.3203
G01 X1.8677 Y6.3060
G01 X1.8849 Y6.2926
G01 X1.9028 Y6.2800
G01 X1.9119 Y6.2740
G01 X1.9307 Y6.2628
G01 X1.9499 Y6.2525
G01 X1.9597 Y6.2477
G01 X1.9797 Y6.2389
G01 X2.0001 Y6.2310
G01 X2.0208 Y6.2242
G01 X2.0313 Y6.2211
G01 X2.0525 Y6.2158
G01 X2.0739 Y6.2116
G01 X2.0955 Y6.2084
G01 X2.1064 Y6.2072
G01 X2.1282 Y6.2055
G01 X2.1500 Y6.2050
G01 X3.8500 Y6.2050
G01 X3.8609 Y6.2051
G01 X3.8827 Y6.2062
G01 X3.9045 Y6.2084
G01 X3.9261 Y6.2116
G01 X3.9475 Y6.2158
G01 X3.9687 Y6.2211
G01 X3.9896 Y6.2275
G01 X4.0101 Y6.2348
G01 X4.0303 Y6.2432
G01 X4.0501 Y6.2525
G01 X4.0748 Y6.2659
G01 X4.8156 Y6.6798
G01 X7.0000 Y6.6798
G01 X7.0218 Y6.6804
G01 X7.0586 Y6.6822
G01 X7.0804 Y6.6838
G01 X7.1021 Y6.6864
G01 X7.1385 Y6.6918
G01 X7.1600 Y6.6956
G01 X7.1707 Y6.6978
G01 X7.2276 Y6.7121
G01 X7.2485 Y6.7184
G01 X7.2588 Y6.7220
G01 X7.2935 Y6.7344
G01 X7.3139 Y6.7423
G01 X7.3338 Y6.7511
G01 X7.3671 Y6.7668
G01 X7.3866 Y6.7767
G01 X7.3962 Y6.7819
G01 X7.4372 Y6.8064
G01 X7.4557 Y6.8180
G01 X7.4735 Y6.8306
G01 X7.5031 Y6.8526
G01 X7.5203 Y6.8660
G01 X7.5287 Y6.8730
G01 X7.5641 Y6.9050
G01 X7.5800 Y6.9200
G01 X11.7800 Y11.1200
G01 X11.7950 Y11.1359
G01 X11.8270 Y11.1713
G01 X11.8408 Y11.1882
G01 X11.8474 Y11.1969
G01 X11.8694 Y11.2265
G01 X11.8820 Y11.2443
G01 X11.8936 Y11.2628
G01 X11.9126 Y11.2944
G01 X11.9233 Y11.3134
G01 X11.9284 Y11.3231
G01 X11.9489 Y11.3662
G01 X11.9577 Y11.3861
G01 X11.9656 Y11.4065
G01 X11.9780 Y11.4412
G01 X11.9816 Y11.4515
G01 X11.9879 Y11.4724
G01 X12.0022 Y11.5293
G01 X12.0064 Y11.5507
G01 X12.0150 Y11.6088
G01 X12.0172 Y11.6305
G01 X12.0196 Y11.6782
G01 X12.0202 Y11.6984
G01 X12.0212 Y11.9904
G01 X12.0522 Y12.2305
G01 X12.0559 Y12.2277
G00 Z2.0000
G00 X12.3961 Y11.7205
G01 F30.00
G01 Z-0.0400
G01 F90.00
G01 X12.2147 Y11.8603
G01 X12.2141 Y11.6977
G01 X12.2134 Y11.6704
G01 X12.2336 Y11.6780
G01 X12.2486 Y11.6831
G01 X12.2790 Y11.6923
G01 X12.3621 Y11.7131
G01 X12.3961 Y11.7205
G00 Z2.0000
G00 X12.7005 Y11.6025
G01 F30.00
G01 Z-0.0400
G01 F90.00
G01 X12.6754 Y11.6275
G01 X12.1268 Y12.0506
G01 X12.1182 Y11.9840
G01 X12.1172 Y11.6981
G01 X12.1165 Y11.6734
G01 X12.1139 Y11.6234
G01 X12.1113 Y11.5969
G01 X12.1020 Y11.5341
G01 X12.0968 Y11.5081
G01 X12.0909 Y11.4837
G01 X12.1030 Y11.4941
G01 X12.1242 Y11.5107
G01 X12.1462 Y11.5263
G01 X12.1575 Y11.5336
G01 X12.1805 Y11.5475
G01 X12.1923 Y11.5540
G01 X12.2043 Y11.5602
G01 X12.2286 Y11.5717
G01 X12.2535 Y11.5819
G01 X12.2661 Y11.5866
G01 X12.2917 Y11.5950
G01 X12.3176 Y11.6021
G01 X12.3855 Y11.6189
G01 X12.4117 Y11.6247
G01 X12.4250 Y11.6272
G01 X12.4516 Y11.6310
G01 X12.4784 Y11.6335
G01 X12.5053 Y11.6347
G01 X12.5188 Y11.6348
G01 X12.5457 Y11.6340
G01 X12.5591 Y11.6331
G01 X12.5859 Y11.6303
G01 X12.6125 Y11.6261
G01 X12.6257 Y11.6235
G01 X12.6388 Y11.6207
G01 X12.6649 Y11.6139
G01 X12.6778 Y11.6100
G01 X12.7005 Y11.6025
G00 Z2.0000
G00 X14.1653 Y13.1483
G01 F30.00
G01 Z-0.0400
G01 F90.00
G01 X14.1582 Y13.1001
G01 X14.1561 Y13.0831
G01 X14.1548 Y13.0661
G01 X14.1524 Y13.0171
G01 X14.1520 Y13.0000
G01 X14.1524 Y12.9829
G01 X14.1548 Y12.9339
G01 X14.1561 Y12.9169
G01 X14.1582 Y12.8999
G01 X14.1654 Y12.8514
G01 X14.1683 Y12.8346
G01 X14.1720 Y12.8179
G01 X14.1861 Y12.7620
G01 X14.1911 Y12.7457
G01 X14.2104 Y12.6914
G01 X14.2165 Y12.6755
G01 X14.2235 Y12.6599
G01 X14.2444 Y12.6155
G01 X14.2521 Y12.6003
G01 X14.2605 Y12.5854
G01 X14.2903 Y12.5360
G01 X14.2997 Y12.5218
G01 X14.3340 Y12.4755
G01 X14.3445 Y12.4620
G01 X14.3556 Y12.4491
G01 X14.3944 Y12.4065
G01 X14.4065 Y12.3944
G01 X14.4491 Y12.3556
G01 X14.4620 Y12.3445
G01 X14.4755 Y12.3340
G01 X14.5149 Y12.3047
G01 X14.5289 Y12.2949
G01 X14.5433 Y12.2858
G01 X14.5928 Y12.2562
G01 X14.6078 Y12.2482
G01 X14.6599 Y12.2235
G01 X14.6755 Y12.2165
G01 X14.6914 Y12.2104
G01 X14.7376 Y12.1939
G01 X14.7538 Y12.1885
G01 X14.7703 Y12.1840
G01 X14.8179 Y12.1720
G01 X14.8346 Y12.1683
G01 X14.8514 Y12.1654
G01 X14.8999 Y12.1582
G01 X14.9169 Y12.1561
G01 X14.9339 Y12.1548
G01 X14.9829 Y12.1524
G01 X15.0085 Y12.1521
G01 X15.0661 Y12.1548
G01 X15.0831 Y12.1561
G01 X15.1001 Y12.1582
G01 X15.1570 Y12.1667
G01 X15.1821 Y12.1720
G01 X15.2297 Y12.1840
G01 X15.2462 Y12.1885
G01 X15.2624 Y12.1939
G01 X15.3086 Y12.2104
G01 X15.3245 Y12.2165
G01 X15.3401 Y12.2235
G01 X15.3845 Y12.2444
G01 X15.3997 Y12.2521
G01 X15.4146 Y12.2605
G01 X15.4567 Y12.2858
G01 X15.4711 Y12.2949
G01 X15.4851 Y12.3047
G01 X15.5313 Y12.3391
G01 X15.5509 Y12.3556
G01 X15.5873 Y12.3886
G01 X15.5996 Y12.4004
G01 X15.6114 Y12.4127
G01 X15.6444 Y12.4491
G01 X15.6555 Y12.4620
G01 X15.6660 Y12.4755
G01 X15.6953 Y12.5149
G01 X15.7051 Y12.5289
G01 X15.7142 Y12.5433
G01 X15.7395 Y12.5854
G01 X15.7479 Y12.6003
G01 X15.7556 Y12.6155
G01 X15.7765 Y12.6599
G01 X15.7835 Y12.6755
G01 X15.7896 Y12.6914
G01 X15.8061 Y12.7376
G01 X15.8115 Y12.7538
G01 X15.8160 Y12.7703
G01 X15.8280 Y12.8179
G01 X15.8317 Y12.8346
G01 X15.8346 Y12.8514
G01 X15.8418 Y12.8999
G01 X15.8439 Y12.9169
G01 X15.8452 Y12.9339
G01 X15.8476 Y12.9829
G01 X15.8480 Y13.0000
G01 X15.8476 Y13.0171
G01 X15.8452 Y13.0661
G01 X15.8439 Y13.0831
G01 X15.8418 Y13.1001
G01 X15.8351 Y13.1454
G01 X15.7232 Y14.0113
G01 X15.7232 Y14.2004
G01 X19.2996 Y17.7768
G01 X19.7097 Y17.7768
G01 X20.4860 Y17.3431
G01 X20.5012 Y17.3354
G01 X20.5168 Y17.3285
G01 X20.5408 Y17.3196
G01 X20.5572 Y17.3146
G01 X20.5738 Y17.3105
G01 X20.5905 Y17.3071
G01 X20.6074 Y17.3046
G01 X20.6329 Y17.3024
G01 X20.6500 Y17.3020
G01 X22.3585 Y17.3021
G01 X22.3841 Y17.3037
G01 X22.4095 Y17.3071
G01 X22.4346 Y17.3124
G01 X22.4592 Y17.3196
G01 X22.4752 Y17.3253
G01 X22.4910 Y17.3319
G01 X22.5140 Y17.3431
G01 X22.5362 Y17.3560
G01 X22.5573 Y17.3705
G01 X22.5708 Y17.3810
G01 X22.5837 Y17.3921
G01 X22.5961 Y17.4039
G01 X22.6135 Y17.4227
G01 X22.6243 Y17.4359
G01 X22.6345 Y17.4496
G01 X22.6485 Y17.4711
G01 X22.6569 Y17.4860
G01 X22.6681 Y17.5090
G01 X22.6747 Y17.5248
G01 X22.6830 Y17.5490
G01 X22.6876 Y17.5654
G01 X22.6913 Y17.5821
G01 X22.6942 Y17.5989
G01 X22.6963 Y17.6159
G01 X22.6979 Y17.6415
G01 X22.6979 Y19.3585
G01 X22.6963 Y19.3841
G01 X22.6929 Y19.4095
G01 X22.6876 Y19.4346
G01 X22.6804 Y19.4592
G01 X22.6747 Y19.4752
G01 X22.6681 Y19.4910
G01 X22.6569 Y19.5140
G01 X22.6440 Y19.5362
G01 X22.6295 Y19.5573
G01 X22.6190 Y19.5708
G01 X22.6079 Y19.5837
G01 X22.5961 Y19.5961
G01 X22.5773 Y19.6135
G01 X22.5641 Y19.6243
G01 X22.5504 Y19.6345
G01 X22.5289 Y19.6485
G01 X22.5140 Y19.6569
G01 X22.4988 Y19.6646
G01 X22.4832 Y19.6715
G01 X22.4672 Y19.6777
G01 X22.4510 Y19.6830
G01 X22.4346 Y19.6876
G01 X22.4179 Y19.6913
G01 X22.4011 Y19.6942
G01 X22.3756 Y19.6971
G01 X22.3500 Y19.6980
G01 X20.6500 Y19.6980
G01 X20.6329 Y19.6976
G01 X20.6074 Y19.6954
G01 X20.5905 Y19.6929
G01 X20.5738 Y19.6895
G01 X20.5572 Y19.6854
G01 X20.5408 Y19.6804
G01 X20.5248 Y19.6747
G01 X20.5090 Y19.6682
G01 X20.4860 Y19.6569
G01 X19.7097 Y19.2232
G01 X19.0000 Y19.2232
G01 X18.9829 Y19.2228
G01 X18.9461 Y19.2210
G01 X18.9206 Y19.2188
G01 X18.8757 Y19.2122
G01 X18.8589 Y19.2093
G01 X18.8422 Y19.2056
G01 X18.8065 Y19.1966
G01 X18.7819 Y19.1895
G01 X18.7392 Y19.1743
G01 X18.7232 Y19.1681
G01 X18.7076 Y19.1612
G01 X18.6667 Y19.1417
G01 X18.6442 Y19.1294
G01 X18.6126 Y19.1105
G01 X18.5982 Y19.1013
G01 X18.5843 Y19.0915
G01 X18.5547 Y19.0695
G01 X18.5347 Y19.0535
G01 X18.5010 Y19.0232
G01 X18.4886 Y19.0114
G01 X14.4886 Y15.0114
G01 X14.4768 Y14.9990
G01 X14.4521 Y14.9717
G01 X14.4410 Y14.9588
G01 X14.4305 Y14.9453
G01 X14.4085 Y14.9157
G01 X14.3940 Y14.8946
G01 X14.3706 Y14.8558
G01 X14.3622 Y14.8409
G01 X14.3545 Y14.8257
G01 X14.3388 Y14.7924
G01 X14.3287 Y14.7688
G01 X14.3105 Y14.7181
G01 X14.3034 Y14.6935
G01 X14.2944 Y14.6578
G01 X14.2907 Y14.6411
G01 X14.2878 Y14.6243
G01 X14.2824 Y14.5878
G01 X14.2796 Y14.5624
G01 X14.2772 Y14.5171
G01 X14.2768 Y14.5008
G01 X14.2757 Y14.0030
G01 X14.1653 Y13.1483
G00 Z2.0000
G00 X14.2614 Y13.1350
G01 F30.00
G01 Z-0.0400
G01 F90.00
G01 X14.2526 Y13.0736
G01 X14.2517 Y13.0613
G01 X14.2491 Y13.0062
G01 X14.2493 Y12.9877
G01 X14.2517 Y12.9387
G01 X14.2526 Y12.9264
G01 X14.2541 Y12.9142
G01 X14.2634 Y12.8535
G01 X14.2780 Y12.7939
G01 X14.2813 Y12.7820
G01 X14.3017 Y12.7241
G01 X14.3061 Y12.7126
G01 X14.3321 Y12.6570
G01 X14.3406 Y12.6406
G01 X14.3690 Y12.5932
G01 X14.3755 Y12.5828
G01 X14.3826 Y12.5727
G01 X14.4195 Y12.5236
G01 X14.4275 Y12.5142
G01 X14.4689 Y12.4689
G01 X14.4779 Y12.4605
G01 X14.5236 Y12.4195
G01 X14.5727 Y12.3826
G01 X14.5828 Y12.3755
G01 X14.5932 Y12.3690
G01 X14.6460 Y12.3377
G01 X14.7013 Y12.3111
G01 X14.7126 Y12.3061
G01 X14.7241 Y12.3017
G01 X14.7820 Y12.2813
G01 X14.7939 Y12.2780
G01 X14.8535 Y12.2634
G01 X14.9142 Y12.2541
G01 X14.9264 Y12.2526
G01 X14.9877 Y12.2493
G01 X15.0062 Y12.2491
G01 X15.0613 Y12.2517
G01 X15.0736 Y12.2526
G01 X15.0858 Y12.2541
G01 X15.1465 Y12.2634
G01 X15.2061 Y12.2780
G01 X15.2180 Y12.2813
G01 X15.2759 Y12.3017
G01 X15.2874 Y12.3061
G01 X15.3430 Y12.3321
G01 X15.3540 Y12.3377
G01 X15.3647 Y12.3437
G01 X15.4068 Y12.3690
G01 X15.4223 Y12.3790
G01 X15.4667 Y12.4119
G01 X15.4764 Y12.4195
G01 X15.4858 Y12.4275
G01 X15.5266 Y12.4646
G01 X15.5395 Y12.4779
G01 X15.5805 Y12.5236
G01 X15.6174 Y12.5727
G01 X15.6245 Y12.5828
G01 X15.6563 Y12.6353
G01 X15.6623 Y12.6460
G01 X15.6889 Y12.7013
G01 X15.6939 Y12.7126
G01 X15.6983 Y12.7241
G01 X15.7168 Y12.7761
G01 X15.7220 Y12.7939
G01 X15.7339 Y12.8415
G01 X15.7377 Y12.8595
G01 X15.7467 Y12.9203
G01 X15.7483 Y12.9387
G01 X15.7510 Y13.0000
G01 X15.7483 Y13.0613
G01 X15.7467 Y13.0797
G01 X15.7386 Y13.1351
G01 X15.6262 Y14.0051
G01 X15.6262 Y14.2406
G01 X19.2594 Y17.8738
G01 X19.7350 Y17.8738
G01 X20.5317 Y17.4286
G01 X20.5427 Y17.4231
G01 X20.5539 Y17.4181
G01 X20.5713 Y17.4116
G01 X20.5830 Y17.4081
G01 X20.5950 Y17.4051
G01 X20.6071 Y17.4027
G01 X20.6193 Y17.4009
G01 X20.6377 Y17.3993
G01 X20.6500 Y17.3990
G01 X22.3562 Y17.3991
G01 X22.3746 Y17.4002
G01 X22.3929 Y17.4027
G01 X22.4050 Y17.4051
G01 X22.4170 Y17.4081
G01 X22.4346 Y17.4137
G01 X22.4517 Y17.4205
G01 X22.4683 Y17.4286
G01 X22.4843 Y17.4379
G01 X22.4945 Y17.4448
G01 X22.5044 Y17.4521
G01 X22.5140 Y17.4599
G01 X22.5231 Y17.4682
G01 X22.5318 Y17.4769
G01 X22.5440 Y17.4908
G01 X22.5516 Y17.5005
G01 X22.5587 Y17.5105
G01 X22.5653 Y17.5210
G01 X22.5742 Y17.5371
G01 X22.5795 Y17.5483
G01 X22.5842 Y17.5597
G01 X22.5884 Y17.5713
G01 X22.5935 Y17.5890
G01 X22.5962 Y17.6010
G01 X22.5991 Y17.6193
G01 X22.6003 Y17.6315
G01 X22.6009 Y17.6438
G01 X22.6009 Y19.3562
G01 X22.5998 Y19.3746
G01 X22.5973 Y19.3929
G01 X22.5949 Y19.4050
G01 X22.5919 Y19.4170
G01 X22.5863 Y19.4346
G01 X22.5795 Y19.4517
G01 X22.5714 Y19.4683
G01 X22.5621 Y19.4843
G01 X22.5552 Y19.4945
G01 X22.5479 Y19.5044
G01 X22.5401 Y19.5140
G01 X22.5318 Y19.5231
G01 X22.5231 Y19.5318
G01 X22.5092 Y19.5440
G01 X22.4995 Y19.5516
G01 X22.4895 Y19.5587
G01 X22.4790 Y19.5653
G01 X22.4629 Y19.5742
G01 X22.4517 Y19.5795
G01 X22.4403 Y19.5842
G01 X22.4287 Y19.5884
G01 X22.4170 Y19.5919
G01 X22.3990 Y19.5962
G01 X22.3868 Y19.5983
G01 X22.3746 Y19.5998
G01 X22.3623 Y19.6007
G01 X22.3500 Y19.6010
G01 X20.6500 Y19.6010
G01 X20.6315 Y19.6003
G01 X20.6193 Y19.5991
G01 X20.6071 Y19.5973
G01 X20.5950 Y19.5949
G01 X20.5831 Y19.5919
G01 X20.5713 Y19.5884
G01 X20.5597 Y19.5842
G01 X20.5483 Y19.5795
G01 X20.5317 Y19.5714
G01 X19.7350 Y19.1262
G01 X19.0000 Y19.1262
G01 X18.9509 Y19.1241
G01 X18.9325 Y19.1225
G01 X18.8900 Y19.1163
G01 X18.8778 Y19.1142
G01 X18.8301 Y19.1025
G01 X18.8123 Y19.0974
G01 X18.7719 Y19.0830
G01 X18.7604 Y19.0785
G01 X18.7491 Y19.0735
G01 X18.7103 Y19.0551
G01 X18.6941 Y19.0462
G01 X18.6521 Y19.0207
G01 X18.6420 Y19.0136
G01 X18.6075 Y18.9879
G01 X18.5934 Y18.9760
G01 X18.5572 Y18.9428
G01 X14.5572 Y14.9428
G01 X14.5487 Y14.9339
G01 X14.5199 Y14.9020
G01 X14.5084 Y14.8875
G01 X14.4793 Y14.8479
G01 X14.4538 Y14.8059
G01 X14.4449 Y14.7897
G01 X14.4265 Y14.7509
G01 X14.4215 Y14.7396
G01 X14.4170 Y14.7281
G01 X14.4026 Y14.6877
G01 X14.3975 Y14.6699
G01 X14.3858 Y14.6222
G01 X14.3783 Y14.5736
G01 X14.3763 Y14.5552
G01 X14.3738 Y14.5005
G01 X14.3727 Y13.9966
G01 X14.2614 Y13.1350
G00 Z2.0000
G00 X14.3576 Y13.1227
G01 F30.00
G01 Z-0.0400
G01 F90.00
G01 X14.3491 Y13.0641
G01 X14.3462 Y13.0076
G01 X14.3462 Y12.9924
G01 X14.3486 Y12.9434
G01 X14.3500 Y12.9284
G01 X14.3585 Y12.8724
G01 X14.3741 Y12.8101
G01 X14.3958 Y12.7497
G01 X14.4198 Y12.6984
G01 X14.4269 Y12.6851
G01 X14.4521 Y12.6430
G01 X14.4605 Y12.6305
G01 X14.4944 Y12.5851
G01 X14.5375 Y12.5375
G01 X14.5851 Y12.4944
G01 X14.6305 Y12.4605
G01 X14.6430 Y12.4521
G01 X14.6917 Y12.4232
G01 X14.7497 Y12.3958
G01 X14.8030 Y12.3765
G01 X14.8174 Y12.3721
G01 X14.8724 Y12.3585
G01 X14.9359 Y12.3491
G01 X14.9924 Y12.3462
G01 X15.0076 Y12.3462
G01 X15.0566 Y12.3486
G01 X15.0716 Y12.3500
G01 X15.1276 Y12.3585
G01 X15.1899 Y12.3741
G01 X15.2503 Y12.3958
G01 X15.3016 Y12.4198
G01 X15.3149 Y12.4269
G01 X15.3570 Y12.4521
G01 X15.3695 Y12.4605
G01 X15.4149 Y12.4944
G01 X15.4625 Y12.5375
G01 X15.5056 Y12.5851
G01 X15.5438 Y12.6366
G01 X15.5768 Y12.6917
G01 X15.6042 Y12.7497
G01 X15.6259 Y12.8101
G01 X15.6415 Y12.8724
G01 X15.6509 Y12.9359
G01 X15.6538 Y12.9924
G01 X15.6538 Y13.0076
G01 X15.6514 Y13.0566
G01 X15.6505 Y13.0679
G01 X15.6423 Y13.1227
G01 X15.5292 Y13.9989
G01 X15.5292 Y14.2808
G01 X19.2192 Y17.9708
G01 X19.7602 Y17.9708
G01 X20.5774 Y17.5142
G01 X20.5876 Y17.5092
G01 X20.6017 Y17.5037
G01 X20.6126 Y17.5006
G01 X20.6274 Y17.4976
G01 X20.6387 Y17.4964
G01 X20.6500 Y17.4960
G01 X22.3538 Y17.4960
G01 X22.3651 Y17.4967
G01 X22.3763 Y17.4982
G01 X22.3874 Y17.5006
G01 X22.4019 Y17.5050
G01 X22.4159 Y17.5108
G01 X22.4259 Y17.5160
G01 X22.4356 Y17.5219
G01 X22.4448 Y17.5286
G01 X22.4562 Y17.5384
G01 X22.4616 Y17.5438
G01 X22.4691 Y17.5523
G01 X22.4759 Y17.5613
G01 X22.4801 Y17.5676
G01 X22.4876 Y17.5807
G01 X22.4908 Y17.5876
G01 X22.4950 Y17.5981
G01 X22.4994 Y17.6126
G01 X22.5024 Y17.6274
G01 X22.5033 Y17.6349
G01 X22.5040 Y17.6462
G01 X22.5040 Y19.3538
G01 X22.5033 Y19.3651
G01 X22.5018 Y19.3763
G01 X22.4994 Y19.3874
G01 X22.4950 Y19.4019
G01 X22.4892 Y19.4159
G01 X22.4840 Y19.4259
G01 X22.4781 Y19.4356
G01 X22.4714 Y19.4448
G01 X22.4616 Y19.4562
G01 X22.4562 Y19.4616
G01 X22.4477 Y19.4691
G01 X22.4387 Y19.4759
G01 X22.4324 Y19.4801
G01 X22.4193 Y19.4876
G01 X22.4124 Y19.4908
G01 X22.4019 Y19.4950
G01 X22.3874 Y19.4994
G01 X22.3726 Y19.5024
G01 X22.3651 Y19.5033
G01 X22.3538 Y19.5040
G01 X20.6500 Y19.5040
G01 X20.6387 Y19.5036
G01 X20.6274 Y19.5024
G01 X20.6163 Y19.5003
G01 X20.6017 Y19.4963
G01 X20.5911 Y19.4923
G01 X20.5774 Y19.4858
G01 X19.7602 Y19.0292
G01 X19.0000 Y19.0292
G01 X18.9481 Y19.0267
G01 X18.9042 Y19.0203
G01 X18.8894 Y19.0174
G01 X18.8464 Y19.0064
G01 X18.7975 Y18.9889
G01 X18.7573 Y18.9701
G01 X18.7439 Y18.9630
G01 X18.7060 Y18.9400
G01 X18.6672 Y18.9115
G01 X18.6585 Y18.9042
G01 X18.6258 Y18.8742
G01 X14.6258 Y14.8742
G01 X14.5958 Y14.8415
G01 X14.5863 Y14.8298
G01 X14.5600 Y14.7940
G01 X14.5370 Y14.7561
G01 X14.5299 Y14.7427
G01 X14.5111 Y14.7025
G01 X14.4959 Y14.6608
G01 X14.4915 Y14.6463
G01 X14.4809 Y14.6032
G01 X14.4737 Y14.5556
G01 X14.4728 Y14.5443
G01 X14.4708 Y14.5000
G01 X14.4708 Y13.9989
G01 X14.3576 Y13.1227
G00 Z2.0000
G00 X14.4540 Y13.1102
G01 F30.00
G01 Z-0.0400
G01 F90.00
G01 X14.4460 Y13.0574
G01 X14.4454 Y13.0518
G01 X14.4430 Y13.0000
G01 X14.4456 Y12.9454
G01 X14.4537 Y12.8913
G01 X14.4662 Y12.8410
G01 X14.4678 Y12.8356
G01 X14.4865 Y12.7843
G01 X14.5087 Y12.7374
G01 X14.5368 Y12.6905
G01 X14.5694 Y12.6466
G01 X14.6042 Y12.6081
G01 X14.6081 Y12.6042
G01 X14.6488 Y12.5677
G01 X14.6905 Y12.5368
G01 X14.7374 Y12.5087
G01 X14.7868 Y12.4854
G01 X14.8356 Y12.4678
G01 X14.8410 Y12.4662
G01 X14.8941 Y12.4532
G01 X14.9454 Y12.4456
G01 X15.0000 Y12.4430
G01 X15.0546 Y12.4456
G01 X15.1059 Y12.4532
G01 X15.1590 Y12.4662
G01 X15.1644 Y12.4678
G01 X15.2132 Y12.4854
G01 X15.2626 Y12.5087
G01 X15.3095 Y12.5368
G01 X15.3512 Y12.5677
G01 X15.3555 Y12.5712
G01 X15.3949 Y12.6071
G01 X15.4306 Y12.6466
G01 X15.4632 Y12.6905
G01 X15.4913 Y12.7374
G01 X15.5146 Y12.7868
G01 X15.5331 Y12.8383
G01 X15.5463 Y12.8913
G01 X15.5544 Y12.9454
G01 X15.5570 Y12.9986
G01 X15.5542 Y13.0560
G01 X15.5460 Y13.1102
G01 X15.5456 Y13.1157
G01 X15.4322 Y13.9915
G01 X15.4322 Y14.3210
G01 X19.1790 Y18.0678
G01 X19.7855 Y18.0678
G01 X20.6219 Y17.6004
G01 X20.6269 Y17.5978
G01 X20.6321 Y17.5958
G01 X20.6416 Y17.5936
G01 X20.6500 Y17.5930
G01 X22.3500 Y17.5930
G01 X22.3598 Y17.5938
G01 X22.3692 Y17.5963
G01 X22.3769 Y17.5997
G01 X22.3851 Y17.6050
G01 X22.3903 Y17.6097
G01 X22.3950 Y17.6149
G01 X22.3989 Y17.6207
G01 X22.4016 Y17.6256
G01 X22.4042 Y17.6321
G01 X22.4057 Y17.6375
G01 X22.4066 Y17.6430
G01 X22.4070 Y17.6500
G01 X22.4070 Y19.3500
G01 X22.4062 Y19.3598
G01 X22.4037 Y19.3692
G01 X22.4003 Y19.3769
G01 X22.3950 Y19.3851
G01 X22.3903 Y19.3903
G01 X22.3851 Y19.3950
G01 X22.3793 Y19.3989
G01 X22.3744 Y19.4016
G01 X22.3679 Y19.4042
G01 X22.3625 Y19.4057
G01 X22.3570 Y19.4066
G01 X22.3500 Y19.4070
G01 X20.6500 Y19.4070
G01 X20.6416 Y19.4064
G01 X20.6361 Y19.4053
G01 X20.6308 Y19.4037
G01 X20.6219 Y19.3996
G01 X19.7855 Y18.9322
G01 X19.0000 Y18.9322
G01 X18.9576 Y18.9302
G01 X18.9129 Y18.9233
G01 X18.8745 Y18.9136
G01 X18.8346 Y18.8993
G01 X18.7938 Y18.8798
G01 X18.7599 Y18.8594
G01 X18.7269 Y18.8350
G01 X18.6944 Y18.8056
G01 X14.6944 Y14.8056
G01 X14.6642 Y14.7720
G01 X14.6406 Y14.7401
G01 X14.6202 Y14.7062
G01 X14.6007 Y14.6654
G01 X14.5856 Y14.6228
G01 X14.5761 Y14.5843
G01 X14.5700 Y14.5438
G01 X14.5678 Y14.5000
G01 X14.5678 Y13.9915
G01 X14.4544 Y13.1157
G01 X14.4540 Y13.1102
G00 Z2.0000
G00 X13.5751 Y13.5987
G01 F30.00
G01 Z-0.0400
G01 F90.00
G01 X13.8791 Y13.2044
G01 X13.9483 Y13.7398
G01 X13.9333 Y13.7282
G01 X13.9074 Y13.7099
G01 X13.8941 Y13.7013
G01 X13.8669 Y13.6850
G01 X13.8530 Y13.6773
G01 X13.8246 Y13.6631
G01 X13.7956 Y13.6502
G01 X13.7809 Y13.6444
G01 X13.7660 Y13.6389
G01 X13.7358 Y13.6290
G01 X13.7052 Y13.6206
G01 X13.6898 Y13.6170
G01 X13.6586 Y13.6109
G01 X13.5751 Y13.5987
G00 Z2.0000
G00 X13.3702 Y13.7009
G01 F30.00
G01 Z-0.0400
G01 F90.00
G01 X13.3969 Y13.6712
G01 X13.4138 Y13.6506
G01 X13.4494 Y13.6029
G01 X13.9603 Y12.9404
G01 X13.9582 Y12.9867
G01 X13.9582 Y13.0133
G01 X13.9619 Y13.0889
G01 X13.9645 Y13.1154
G01 X13.9731 Y13.1743
G01 X14.0818 Y14.0157
G01 X14.0818 Y14.0295
G01 X14.0713 Y14.0109
G01 X14.0571 Y13.9880
G01 X14.0495 Y13.9769
G01 X14.0336 Y13.9552
G01 X14.0252 Y13.9447
G01 X14.0077 Y13.9242
G01 X13.9892 Y13.9047
G01 X13.9698 Y13.8860
G01 X13.9069 Y13.8314
G01 X13.8966 Y13.8227
G01 X13.8755 Y13.8061
G01 X13.8535 Y13.7905
G01 X13.8307 Y13.7761
G01 X13.8073 Y13.7629
G01 X13.7833 Y13.7508
G01 X13.7586 Y13.7399
G01 X13.7335 Y13.7303
G01 X13.7079 Y13.7219
G01 X13.6820 Y13.7148
G01 X13.6689 Y13.7117
G01 X13.6424 Y13.7066
G01 X13.5471 Y13.6928
G01 X13.5212 Y13.6904
G01 X13.4952 Y13.6892
G01 X13.4822 Y13.6890
G01 X13.4561 Y13.6897
G01 X13.4431 Y13.6905
G01 X13.4172 Y13.6930
G01 X13.3915 Y13.6968
G01 X13.3702 Y13.7009
G00 Z2.0000
G00 X14.9379 Y11.9604
G01 F30.00
G01 Z-0.0400
G01 F90.00
G01 X15.3610 Y11.5372
G01 X15.3551 Y11.5582
G01 X15.3519 Y11.5713
G01 X15.3465 Y11.5977
G01 X15.3443 Y11.6109
G01 X15.3409 Y11.6376
G01 X15.3388 Y11.6645
G01 X15.3381 Y11.6914
G01 X15.3386 Y11.7183
G01 X15.3444 Y11.8014
G01 X15.3470 Y11.8282
G01 X15.3509 Y11.8548
G01 X15.3561 Y11.8812
G01 X15.3627 Y11.9074
G01 X15.3705 Y11.9331
G01 X15.3749 Y11.9458
G01 X15.3846 Y11.9709
G01 X15.3956 Y11.9955
G01 X15.4077 Y12.0195
G01 X15.4143 Y12.0313
G01 X15.4248 Y12.0489
G01 X15.4110 Y12.0426
G01 X15.3864 Y12.0324
G01 X15.3277 Y12.0112
G01 X15.3025 Y12.0029
G01 X15.2768 Y11.9958
G01 X15.2292 Y11.9839
G01 X15.2163 Y11.9808
G01 X15.1902 Y11.9756
G01 X15.1154 Y11.9645
G01 X15.1021 Y11.9630
G01 X15.0756 Y11.9611
G01 X15.0266 Y11.9587
G01 X15.0000 Y11.9580
G01 X14.9734 Y11.9587
G01 X14.9379 Y11.9604
G00 Z2.0000
G00 X15.1622 Y11.8732
G01 F30.00
G01 Z-0.0400
G01 F90.00
G01 X15.2463 Y11.7891
G01 X15.2490 Y11.8241
G01 X15.2507 Y11.8399
G01 X15.2553 Y11.8713
G01 X15.2592 Y11.8914
G01 X15.2375 Y11.8862
G01 X15.2222 Y11.8829
G01 X15.2068 Y11.8801
G01 X15.1622 Y11.8732
G00 Z2.0000
G00 X21.2725 Y10.8466
G01 F30.00
G01 Z-0.0400
G01 F90.00
G01 X21.2729 Y10.8400
G01 X21.2759 Y10.8341
G01 X21.2808 Y10.8298
G01 X21.2871 Y10.8278
G01 X21.2965 Y10.8284
G01 X21.2997 Y10.8297
G01 X21.3899 Y10.8748
G01 X21.3947 Y10.8778
G01 X21.3991 Y10.8814
G01 X21.4626 Y10.9447
G01 X21.4682 Y10.9489
G01 X21.4742 Y10.9525
G01 X21.4807 Y10.9552
G01 X21.4860 Y10.9568
G01 X21.4915 Y10.9579
G01 X21.4971 Y10.9585
G01 X21.5027 Y10.9585
G01 X21.5082 Y10.9579
G01 X21.5137 Y10.9568
G01 X21.5191 Y10.9552
G01 X21.5243 Y10.9531
G01 X21.5292 Y10.9504
G01 X21.5339 Y10.9473
G01 X21.5382 Y10.9438
G01 X21.5421 Y10.9398
G01 X21.5457 Y10.9355
G01 X21.5488 Y10.9308
G01 X21.5514 Y10.9259
G01 X21.5536 Y10.9207
G01 X21.5552 Y10.9154
G01 X21.5565 Y10.9085
G01 X21.5569 Y10.9015
G01 X21.5569 Y10.2052
G01 X21.5561 Y10.1954
G01 X21.5536 Y10.1860
G01 X21.5508 Y10.1795
G01 X21.5473 Y10.1735
G01 X21.5431 Y10.1679
G01 X21.5371 Y10.1620
G01 X21.5316 Y10.1577
G01 X21.5255 Y10.1542
G01 X21.5191 Y10.1515
G01 X21.5124 Y10.1495
G01 X21.5055 Y10.1484
G01 X21.4999 Y10.1481
G01 X21.2920 Y10.1481
G01 X21.2885 Y10.1478
G01 X21.2798 Y10.1442
G01 X21.2752 Y10.1395
G01 X21.2727 Y10.1335
G01 X21.2727 Y10.1269
G01 X21.2752 Y10.1208
G01 X21.2798 Y10.1162
G01 X21.2885 Y10.1126
G01 X21.2920 Y10.1122
G01 X21.8578 Y10.1122
G01 X21.8612 Y10.1126
G01 X21.8699 Y10.1162
G01 X21.8746 Y10.1208
G01 X21.8771 Y10.1269
G01 X21.8771 Y10.1335
G01 X21.8746 Y10.1395
G01 X21.8699 Y10.1442
G01 X21.8612 Y10.1478
G01 X21.8578 Y10.1481
G01 X21.6499 Y10.1481
G01 X21.6415 Y10.1487
G01 X21.6333 Y10.1506
G01 X21.6268 Y10.1530
G01 X21.6194 Y10.1570
G01 X21.6126 Y10.1620
G01 X21.6067 Y10.1679
G01 X21.6017 Y10.1747
G01 X21.5977 Y10.1821
G01 X21.5949 Y10.1900
G01 X21.5933 Y10.1982
G01 X21.5928 Y10.2052
G01 X21.5928 Y11.1274
G01 X21.5925 Y11.1308
G01 X21.5905 Y11.1367
G01 X21.5890 Y11.1396
G01 X21.5868 Y11.1422
G01 X21.5843 Y11.1443
G01 X21.5813 Y11.1459
G01 X21.5782 Y11.1468
G01 X21.5748 Y11.1472
G01 X21.5716 Y11.1468
G01 X21.5683 Y11.1458
G01 X21.5655 Y11.1443
G01 X21.5606 Y11.1405
G01 X21.5585 Y11.1379
G01 X21.4663 Y11.0000
G01 X21.4617 Y10.9948
G01 X21.3793 Y10.9124
G01 X21.3739 Y10.9079
G01 X21.3667 Y10.9033
G01 X21.2836 Y10.8618
G01 X21.2807 Y10.8599
G01 X21.2745 Y10.8528
G01 X21.2725 Y10.8466
G00 Z2.0000
G00 X21.7961 Y2.1252
G01 F30.00
G01 Z-0.0400
G01 F90.00
G01 X21.7968 Y2.1218
G01 X22.1284 Y1.1272
G01 X22.1299 Y1.1237
G01 X22.1322 Y1.1206
G01 X22.1369 Y1.1159
G01 X22.1431 Y1.1134
G01 X22.1498 Y1.1134
G01 X22.1559 Y1.1160
G01 X22.1604 Y1.1206
G01 X22.1627 Y1.1237
G01 X22.1642 Y1.1272
G01 X22.4958 Y2.1218
G01 X22.4965 Y2.1252
G01 X22.4959 Y2.1346
G01 X22.4929 Y2.1405
G01 X22.4880 Y2.1448
G01 X22.4817 Y2.1469
G01 X22.4752 Y2.1464
G01 X22.4693 Y2.1435
G01 X22.4631 Y2.1363
G01 X22.4617 Y2.1332
G01 X22.1990 Y1.3454
G01 X22.1952 Y1.3379
G01 X22.1903 Y1.3311
G01 X22.1845 Y1.3250
G01 X22.1779 Y1.3199
G01 X22.1706 Y1.3158
G01 X22.1628 Y1.3127
G01 X22.1560 Y1.3111
G01 X22.1477 Y1.3103
G01 X22.1393 Y1.3107
G01 X22.1311 Y1.3124
G01 X22.1232 Y1.3152
G01 X22.1158 Y1.3191
G01 X22.1091 Y1.3241
G01 X22.1032 Y1.3300
G01 X22.0974 Y1.3379
G01 X22.0937 Y1.3454
G01 X21.8309 Y2.1332
G01 X21.8295 Y2.1363
G01 X21.8233 Y2.1435
G01 X21.8174 Y2.1464
G01 X21.8109 Y2.1469
G01 X21.8046 Y2.1448
G01 X21.7997 Y2.1405
G01 X21.7967 Y2.1346
G01 X21.7961 Y2.1252
G00 Z2.0000
G00 X22.7487 Y1.8466
G01 F30.00
G01 Z-0.0400
G01 F90.00
G01 X22.7491 Y1.8400
G01 X22.7521 Y1.8341
G01 X22.7570 Y1.8298
G01 X22.7632 Y1.8278
G01 X22.7727 Y1.8284
G01 X22.7759 Y1.8297
G01 X22.8661 Y1.8748
G01 X22.8709 Y1.8778
G01 X22.8753 Y1.8814
G01 X22.9388 Y1.9447
G01 X22.9444 Y1.9489
G01 X22.9504 Y1.9525
G01 X22.9555 Y1.9547
G01 X22.9622 Y1.9568
G01 X22.9677 Y1.9579
G01 X22.9733 Y1.9585
G01 X22.9789 Y1.9585
G01 X22.9844 Y1.9579
G01 X22.9899 Y1.9568
G01 X22.9953 Y1.9552
G01 X23.0005 Y1.9531
G01 X23.0054 Y1.9504
G01 X23.0101 Y1.9473
G01 X23.0144 Y1.9438
G01 X23.0183 Y1.9398
G01 X23.0219 Y1.9355
G01 X23.0250 Y1.9308
G01 X23.0276 Y1.9259
G01 X23.0298 Y1.9207
G01 X23.0314 Y1.9154
G01 X23.0327 Y1.9085
G01 X23.0331 Y1.9015
G01 X23.0331 Y1.2052
G01 X23.0323 Y1.1954
G01 X23.0298 Y1.1860
G01 X23.0270 Y1.1795
G01 X23.0235 Y1.1735
G01 X23.0193 Y1.1679
G01 X23.0133 Y1.1620
G01 X23.0078 Y1.1577
G01 X23.0017 Y1.1542
G01 X22.9953 Y1.1515
G01 X22.9886 Y1.1495
G01 X22.9830 Y1.1486
G01 X22.9761 Y1.1481
G01 X22.7682 Y1.1481
G01 X22.7647 Y1.1478
G01 X22.7560 Y1.1442
G01 X22.7514 Y1.1395
G01 X22.7488 Y1.1335
G01 X22.7488 Y1.1269
G01 X22.7514 Y1.1208
G01 X22.7560 Y1.1162
G01 X22.7647 Y1.1126
G01 X22.7682 Y1.1122
G01 X23.3340 Y1.1122
G01 X23.3374 Y1.1126
G01 X23.3461 Y1.1162
G01 X23.3508 Y1.1208
G01 X23.3533 Y1.1269
G01 X23.3533 Y1.1335
G01 X23.3508 Y1.1395
G01 X23.3461 Y1.1442
G01 X23.3374 Y1.1478
G01 X23.3340 Y1.1481
G01 X23.1261 Y1.1481
G01 X23.1177 Y1.1487
G01 X23.1109 Y1.1502
G01 X23.1029 Y1.1530
G01 X23.0955 Y1.1570
G01 X23.0888 Y1.1620
G01 X23.0829 Y1.1679
G01 X23.0779 Y1.1747
G01 X23.0739 Y1.1821
G01 X23.0711 Y1.1900
G01 X23.0694 Y1.1982
G01 X23.0690 Y1.2052
G01 X23.0690 Y2.1274
G01 X23.0687 Y2.1308
G01 X23.0667 Y2.1367
G01 X23.0652 Y2.1396
G01 X23.0630 Y2.1422
G01 X23.0605 Y2.1443
G01 X23.0575 Y2.1459
G01 X23.0544 Y2.1468
G01 X23.0510 Y2.1472
G01 X23.0478 Y2.1468
G01 X23.0445 Y2.1458
G01 X23.0417 Y2.1443
G01 X23.0368 Y2.1405
G01 X23.0347 Y2.1379
G01 X22.9425 Y2.0000
G01 X22.9379 Y1.9948
G01 X22.8555 Y1.9124
G01 X22.8501 Y1.9079
G01 X22.8429 Y1.9033
G01 X22.7598 Y1.8618
G01 X22.7569 Y1.8599
G01 X22.7507 Y1.8528
G01 X22.7487 Y1.8466
G00 Z2.0000
G00 X20.9393 Y1.0382
G01 F30.00
G01 Z-0.0400
G01 F90.00
G01 X20.9393 Y1.0317
G01 X20.9418 Y1.0256
G01 X20.9465 Y1.0209
G01 X20.9552 Y1.0173
G01 X20.9586 Y1.0170
G01 X21.7149 Y1.0170
G01 X21.7184 Y1.0173
G01 X21.7271 Y1.0209
G01 X21.7317 Y1.0256
G01 X21.7342 Y1.0317
G01 X21.7342 Y1.0382
G01 X21.7317 Y1.0443
G01 X21.7271 Y1.0489
G01 X21.7184 Y1.0526
G01 X21.7149 Y1.0529
G01 X20.9586 Y1.0529
G01 X20.9552 Y1.0526
G01 X20.9465 Y1.0489
G01 X20.9418 Y1.0443
G01 X20.9393 Y1.0382
G00 Z2.0000
G00 X20.2689 Y1.1481
G01 F30.00
G01 Z-0.0400
G01 F90.00
G01 X20.5572 Y1.1481
G01 X20.5627 Y1.1484
G01 X20.5682 Y1.1492
G01 X20.5750 Y1.1510
G01 X20.5814 Y1.1535
G01 X20.6512 Y1.1884
G01 X20.6561 Y1.1912
G01 X20.6607 Y1.1944
G01 X20.6650 Y1.1981
G01 X20.6984 Y1.2316
G01 X20.7028 Y1.2371
G01 X20.7071 Y1.2443
G01 X20.7420 Y1.3141
G01 X20.7441 Y1.3192
G01 X20.7460 Y1.3259
G01 X20.7471 Y1.3328
G01 X20.7474 Y1.3384
G01 X20.7474 Y1.4458
G01 X20.7471 Y1.4514
G01 X20.7454 Y1.4609
G01 X20.7420 Y1.4701
G01 X20.7051 Y1.5436
G01 X20.7020 Y1.5483
G01 X20.6974 Y1.5537
G01 X20.6679 Y1.5831
G01 X20.6636 Y1.5866
G01 X20.6590 Y1.5897
G01 X20.6541 Y1.5923
G01 X20.6490 Y1.5945
G01 X20.5318 Y1.6335
G01 X20.5263 Y1.6349
G01 X20.5193 Y1.6359
G01 X20.2647 Y1.6359
G01 X20.2592 Y1.6352
G01 X20.2537 Y1.6340
G01 X20.2484 Y1.6322
G01 X20.2433 Y1.6299
G01 X20.2384 Y1.6272
G01 X20.2338 Y1.6240
G01 X20.2267 Y1.6173
G01 X20.2207 Y1.6095
G01 X20.2162 Y1.6008
G01 X20.2133 Y1.5915
G01 X20.2123 Y1.5860
G01 X20.2119 Y1.5804
G01 X20.2119 Y1.2052
G01 X20.2121 Y1.1996
G01 X20.2130 Y1.1941
G01 X20.2143 Y1.1886
G01 X20.2180 Y1.1795
G01 X20.2207 Y1.1747
G01 X20.2239 Y1.1701
G01 X20.2306 Y1.1629
G01 X20.2349 Y1.1594
G01 X20.2396 Y1.1562
G01 X20.2484 Y1.1520
G01 X20.2578 Y1.1492
G01 X20.2633 Y1.1484
G01 X20.2689 Y1.1481
G00 Z2.0000
G00 X20.2689 Y1.6719
G01 F30.00
G01 Z-0.0400
G01 F90.00
G01 X20.5096 Y1.6719
G01 X20.5151 Y1.6722
G01 X20.5220 Y1.6733
G01 X20.5273 Y1.6748
G01 X20.5338 Y1.6774
G01 X20.6036 Y1.7122
G01 X20.6085 Y1.7150
G01 X20.6131 Y1.7182
G01 X20.6174 Y1.7219
G01 X20.6508 Y1.7554
G01 X20.6560 Y1.7620
G01 X20.6595 Y1.7681
G01 X20.6944 Y1.8379
G01 X20.6977 Y1.8470
G01 X20.6992 Y1.8538
G01 X20.6998 Y1.8608
G01 X20.6998 Y1.9220
G01 X20.6994 Y1.9289
G01 X20.6974 Y1.9385
G01 X20.6944 Y1.9463
G01 X20.6595 Y2.0160
G01 X20.6567 Y2.0209
G01 X20.6535 Y2.0256
G01 X20.6498 Y2.0298
G01 X20.6164 Y2.0632
G01 X20.6108 Y2.0676
G01 X20.6048 Y2.0713
G01 X20.5338 Y2.1068
G01 X20.5287 Y2.1089
G01 X20.5233 Y2.1105
G01 X20.5137 Y2.1121
G01 X20.2647 Y2.1121
G01 X20.2592 Y2.1114
G01 X20.2537 Y2.1102
G01 X20.2484 Y2.1084
G01 X20.2433 Y2.1061
G01 X20.2384 Y2.1034
G01 X20.2338 Y2.1002
G01 X20.2267 Y2.0935
G01 X20.2207 Y2.0857
G01 X20.2162 Y2.0770
G01 X20.2133 Y2.0677
G01 X20.2119 Y2.0580
G01 X20.2119 Y1.7290
G01 X20.2121 Y1.7234
G01 X20.2139 Y1.7138
G01 X20.2157 Y1.7085
G01 X20.2180 Y1.7033
G01 X20.2207 Y1.6985
G01 X20.2239 Y1.6939
G01 X20.2306 Y1.6867
G01 X20.2349 Y1.6832
G01 X20.2396 Y1.6801
G01 X20.2484 Y1.6758
G01 X20.2578 Y1.6730
G01 X20.2633 Y1.6722
G01 X20.2689 Y1.6719
G00 Z2.0000
G00 X20.1760 Y2.1274
G01 F30.00
G01 Z-0.0400
G01 F90.00
G01 X20.1760 Y1.1330
G01 X20.1763 Y1.1296
G01 X20.1799 Y1.1208
G01 X20.1846 Y1.1162
G01 X20.1933 Y1.1126
G01 X20.1967 Y1.1122
G01 X20.5721 Y1.1122
G01 X20.5771 Y1.1127
G01 X20.5807 Y1.1136
G01 X20.5854 Y1.1154
G01 X20.6756 Y1.1605
G01 X20.6804 Y1.1635
G01 X20.6848 Y1.1671
G01 X20.7284 Y1.2107
G01 X20.7320 Y1.2151
G01 X20.7350 Y1.2199
G01 X20.7802 Y1.3101
G01 X20.7820 Y1.3149
G01 X20.7828 Y1.3184
G01 X20.7833 Y1.3235
G01 X20.7833 Y1.4607
G01 X20.7828 Y1.4658
G01 X20.7820 Y1.4693
G01 X20.7802 Y1.4740
G01 X20.7350 Y1.5643
G01 X20.7320 Y1.5691
G01 X20.7284 Y1.5734
G01 X20.6848 Y1.6171
G01 X20.6809 Y1.6203
G01 X20.6717 Y1.6254
G01 X20.6671 Y1.6285
G01 X20.6618 Y1.6330
G01 X20.6579 Y1.6371
G01 X20.6522 Y1.6450
G01 X20.6484 Y1.6525
G01 X20.6455 Y1.6618
G01 X20.6443 Y1.6701
G01 X20.6443 Y1.6785
G01 X20.6455 Y1.6868
G01 X20.6475 Y1.6935
G01 X20.6509 Y1.7012
G01 X20.6538 Y1.7059
G01 X20.6580 Y1.7115
G01 X20.6808 Y1.7346
G01 X20.6844 Y1.7389
G01 X20.6874 Y1.7437
G01 X20.7325 Y1.8339
G01 X20.7343 Y1.8387
G01 X20.7352 Y1.8422
G01 X20.7357 Y1.8473
G01 X20.7357 Y1.9369
G01 X20.7352 Y1.9420
G01 X20.7343 Y1.9455
G01 X20.7325 Y1.9502
G01 X20.6874 Y2.0405
G01 X20.6844 Y2.0453
G01 X20.6808 Y2.0496
G01 X20.6372 Y2.0933
G01 X20.6328 Y2.0969
G01 X20.6280 Y2.0999
G01 X20.5378 Y2.1450
G01 X20.5330 Y2.1468
G01 X20.5295 Y2.1476
G01 X20.5245 Y2.1481
G01 X20.1967 Y2.1481
G01 X20.1933 Y2.1478
G01 X20.1846 Y2.1442
G01 X20.1799 Y2.1395
G01 X20.1763 Y2.1308
G01 X20.1760 Y2.1274
G00 Z2.0000
G00 X19.1284 Y1.6988
G01 F30.00
G01 Z-0.0400
G01 F90.00
G01 X19.1284 Y1.5615
G01 X19.1290 Y1.5546
G01 X19.1758 Y1.3666
G01 X19.1786 Y1.3589
G01 X19.2242 Y1.2675
G01 X19.2272 Y1.2627
G01 X19.2308 Y1.2584
G01 X19.3221 Y1.1671
G01 X19.3260 Y1.1639
G01 X19.3291 Y1.1620
G01 X19.3338 Y1.1599
G01 X19.4713 Y1.1140
G01 X19.4768 Y1.1128
G01 X19.4824 Y1.1122
G01 X19.5721 Y1.1122
G01 X19.5777 Y1.1128
G01 X19.5832 Y1.1140
G01 X19.7207 Y1.1599
G01 X19.7254 Y1.1620
G01 X19.7285 Y1.1639
G01 X19.7324 Y1.1671
G01 X19.7761 Y1.2107
G01 X19.7782 Y1.2134
G01 X19.7819 Y1.2221
G01 X19.7819 Y1.2287
G01 X19.7793 Y1.2348
G01 X19.7747 Y1.2394
G01 X19.7686 Y1.2419
G01 X19.7621 Y1.2419
G01 X19.7533 Y1.2383
G01 X19.7507 Y1.2361
G01 X19.7155 Y1.2011
G01 X19.7090 Y1.1960
G01 X19.7017 Y1.1918
G01 X19.6953 Y1.1892
G01 X19.5807 Y1.1511
G01 X19.5739 Y1.1492
G01 X19.5655 Y1.1482
G01 X19.4918 Y1.1481
G01 X19.4862 Y1.1484
G01 X19.4806 Y1.1492
G01 X19.4738 Y1.1511
G01 X19.3593 Y1.1892
G01 X19.3541 Y1.1912
G01 X19.3491 Y1.1938
G01 X19.3433 Y1.1976
G01 X19.3379 Y1.2020
G01 X19.2628 Y1.2771
G01 X19.2582 Y1.2824
G01 X19.2549 Y1.2870
G01 X19.2522 Y1.2920
G01 X19.2137 Y1.3689
G01 X19.2109 Y1.3753
G01 X19.2093 Y1.3806
G01 X19.1660 Y1.5542
G01 X19.1649 Y1.5596
G01 X19.1643 Y1.5652
G01 X19.1643 Y1.6924
G01 X19.1649 Y1.7007
G01 X19.1660 Y1.7062
G01 X19.2093 Y1.8797
G01 X19.2109 Y1.8851
G01 X19.2137 Y1.8914
G01 X19.2522 Y1.9684
G01 X19.2573 Y1.9768
G01 X19.2628 Y1.9832
G01 X19.3379 Y2.0583
G01 X19.3433 Y2.0628
G01 X19.3479 Y2.0659
G01 X19.3528 Y2.0685
G01 X19.3579 Y2.0707
G01 X19.4738 Y2.1093
G01 X19.4792 Y2.1108
G01 X19.4848 Y2.1118
G01 X19.4904 Y2.1122
G01 X19.5669 Y2.1121
G01 X19.5739 Y2.1111
G01 X19.5807 Y2.1093
G01 X19.6953 Y2.0711
G01 X19.7004 Y2.0691
G01 X19.7090 Y2.0644
G01 X19.7155 Y2.0593
G01 X19.7507 Y2.0242
G01 X19.7533 Y2.0221
G01 X19.7621 Y2.0184
G01 X19.7686 Y2.0184
G01 X19.7747 Y2.0209
G01 X19.7793 Y2.0256
G01 X19.7819 Y2.0317
G01 X19.7819 Y2.0382
G01 X19.7782 Y2.0470
G01 X19.7761 Y2.0496
G01 X19.7324 Y2.0933
G01 X19.7285 Y2.0965
G01 X19.7254 Y2.0984
G01 X19.7207 Y2.1005
G01 X19.5832 Y2.1463
G01 X19.5777 Y2.1476
G01 X19.5721 Y2.1481
G01 X19.4824 Y2.1481
G01 X19.4768 Y2.1476
G01 X19.4713 Y2.1463
G01 X19.3338 Y2.1005
G01 X19.3291 Y2.0984
G01 X19.3260 Y2.0965
G01 X19.3221 Y2.0933
G01 X19.2308 Y2.0020
G01 X19.2272 Y1.9976
G01 X19.2242 Y1.9928
G01 X19.1791 Y1.9026
G01 X19.1759 Y1.8942
G01 X19.1296 Y1.7086
G01 X19.1284 Y1.6988
G00 Z2.0000
G00 X18.1774 Y1.0382
G01 F30.00
G01 Z-0.0400
G01 F90.00
G01 X18.1774 Y1.0317
G01 X18.1799 Y1.0256
G01 X18.1846 Y1.0209
G01 X18.1933 Y1.0173
G01 X18.1967 Y1.0170
G01 X18.9530 Y1.0170
G01 X18.9564 Y1.0173
G01 X18.9652 Y1.0209
G01 X18.9698 Y1.0256
G01 X18.9723 Y1.0317
G01 X18.9723 Y1.0382
G01 X18.9698 Y1.0443
G01 X18.9652 Y1.0489
G01 X18.9564 Y1.0526
G01 X18.9530 Y1.0529
G01 X18.1967 Y1.0529
G01 X18.1933 Y1.0526
G01 X18.1846 Y1.0489
G01 X18.1799 Y1.0443
G01 X18.1774 Y1.0382
G00 Z2.0000
G00 X17.7950 Y1.7940
G01 F30.00
G01 Z-0.0400
G01 F90.00
G01 X17.7950 Y1.1330
G01 X17.7954 Y1.1296
G01 X17.7990 Y1.1208
G01 X17.8036 Y1.1162
G01 X17.8097 Y1.1137
G01 X17.8163 Y1.1137
G01 X17.8223 Y1.1162
G01 X17.8270 Y1.1208
G01 X17.8306 Y1.1296
G01 X17.8309 Y1.1330
G01 X17.8309 Y1.5887
G01 X17.8313 Y1.5956
G01 X17.8323 Y1.6011
G01 X17.8338 Y1.6065
G01 X17.8358 Y1.6117
G01 X17.8712 Y1.6827
G01 X17.8755 Y1.6900
G01 X17.8809 Y1.6965
G01 X17.9123 Y1.7279
G01 X17.9165 Y1.7317
G01 X17.9210 Y1.7351
G01 X17.9271 Y1.7386
G01 X17.9956 Y1.7729
G01 X18.0020 Y1.7756
G01 X18.0074 Y1.7772
G01 X18.0128 Y1.7783
G01 X18.0198 Y1.7789
G01 X18.0959 Y1.7789
G01 X18.0993 Y1.7792
G01 X18.1080 Y1.7829
G01 X18.1127 Y1.7875
G01 X18.1152 Y1.7936
G01 X18.1152 Y1.8001
G01 X18.1127 Y1.8062
G01 X18.1080 Y1.8108
G01 X18.0993 Y1.8145
G01 X18.0959 Y1.8148
G01 X18.0062 Y1.8148
G01 X18.0012 Y1.8143
G01 X17.9977 Y1.8135
G01 X17.9929 Y1.8117
G01 X17.9058 Y1.7682
G01 X17.9006 Y1.7662
G01 X17.8952 Y1.7647
G01 X17.8897 Y1.7638
G01 X17.8841 Y1.7634
G01 X17.8758 Y1.7638
G01 X17.8662 Y1.7658
G01 X17.8571 Y1.7695
G01 X17.8488 Y1.7746
G01 X17.8415 Y1.7811
G01 X17.8362 Y1.7876
G01 X17.8319 Y1.7948
G01 X17.8270 Y1.8062
G01 X17.8223 Y1.8108
G01 X17.8163 Y1.8134
G01 X17.8097 Y1.8134
G01 X17.8036 Y1.8108
G01 X17.7990 Y1.8062
G01 X17.7954 Y1.7975
G01 X17.7950 Y1.7940
G00 Z2.0000
G00 X16.9262 Y1.6363
G01 F30.00
G01 Z-0.0400
G01 F90.00
G01 X16.9262 Y1.5522
G01 X16.9273 Y1.5439
G01 X16.9300 Y1.5345
G01 X16.9336 Y1.5269
G01 X16.9374 Y1.5210
G01 X16.9429 Y1.5146
G01 X16.9492 Y1.5092
G01 X16.9563 Y1.5047
G01 X16.9640 Y1.5013
G01 X16.9721 Y1.4990
G01 X16.9805 Y1.4980
G01 X16.9875 Y1.4981
G01 X16.9944 Y1.4991
G01 X17.3206 Y1.5643
G01 X17.3260 Y1.5657
G01 X17.3338 Y1.5687
G01 X17.3411 Y1.5728
G01 X17.3477 Y1.5780
G01 X17.3544 Y1.5852
G01 X17.3590 Y1.5921
G01 X17.3626 Y1.5997
G01 X17.3651 Y1.6077
G01 X17.3664 Y1.6174
G01 X17.3662 Y1.6418
G01 X17.3648 Y1.6501
G01 X17.3627 Y1.6567
G01 X17.3604 Y1.6618
G01 X17.3313 Y1.7201
G01 X17.3276 Y1.7261
G01 X17.3241 Y1.7306
G01 X17.3170 Y1.7375
G01 X17.3089 Y1.7430
G01 X17.2493 Y1.7729
G01 X17.2443 Y1.7751
G01 X17.2390 Y1.7769
G01 X17.2322 Y1.7783
G01 X17.2266 Y1.7788
G01 X17.0674 Y1.7789
G01 X17.0618 Y1.7785
G01 X17.0550 Y1.7772
G01 X17.0497 Y1.7756
G01 X17.0445 Y1.7735
G01 X16.9837 Y1.7430
G01 X16.9756 Y1.7375
G01 X16.9685 Y1.7306
G01 X16.9650 Y1.7261
G01 X16.9613 Y1.7201
G01 X16.9310 Y1.6593
G01 X16.9290 Y1.6541
G01 X16.9275 Y1.6487
G01 X16.9264 Y1.6418
G01 X16.9262 Y1.6363
G00 Z2.0000
G00 X16.8903 Y1.6512
G01 F30.00
G01 Z-0.0400
G01 F90.00
G01 X16.8903 Y1.2758
G01 X16.8908 Y1.2708
G01 X16.8916 Y1.2673
G01 X16.8934 Y1.2625
G01 X16.9385 Y1.1723
G01 X16.9403 Y1.1694
G01 X16.9474 Y1.1623
G01 X16.9503 Y1.1605
G01 X17.0405 Y1.1154
G01 X17.0453 Y1.1136
G01 X17.0488 Y1.1127
G01 X17.0539 Y1.1122
G01 X17.2387 Y1.1122
G01 X17.2438 Y1.1127
G01 X17.2473 Y1.1136
G01 X17.2521 Y1.1154
G01 X17.3423 Y1.1605
G01 X17.3452 Y1.1623
G01 X17.3514 Y1.1695
G01 X17.3535 Y1.1757
G01 X17.3530 Y1.1822
G01 X17.3501 Y1.1881
G01 X17.3451 Y1.1924
G01 X17.3389 Y1.1945
G01 X17.3295 Y1.1938
G01 X17.3262 Y1.1926
G01 X17.2455 Y1.1524
G01 X17.2403 Y1.1506
G01 X17.2349 Y1.1492
G01 X17.2252 Y1.1481
G01 X17.0688 Y1.1481
G01 X17.0604 Y1.1487
G01 X17.0523 Y1.1506
G01 X17.0445 Y1.1535
G01 X16.9837 Y1.1840
G01 X16.9778 Y1.1878
G01 X16.9724 Y1.1924
G01 X16.9667 Y1.1986
G01 X16.9627 Y1.2045
G01 X16.9322 Y1.2652
G01 X16.9299 Y1.2703
G01 X16.9282 Y1.2756
G01 X16.9268 Y1.2824
G01 X16.9262 Y1.2894
G01 X16.9262 Y1.4020
G01 X16.9270 Y1.4118
G01 X16.9290 Y1.4199
G01 X16.9322 Y1.4277
G01 X16.9374 Y1.4360
G01 X16.9428 Y1.4423
G01 X16.9503 Y1.4486
G01 X16.9588 Y1.4536
G01 X16.9666 Y1.4566
G01 X16.9720 Y1.4580
G01 X17.3852 Y1.5406
G01 X17.3885 Y1.5416
G01 X17.3938 Y1.5446
G01 X17.3964 Y1.5468
G01 X17.3985 Y1.5493
G01 X17.4001 Y1.5523
G01 X17.4020 Y1.5581
G01 X17.4023 Y1.5616
G01 X17.4023 Y1.6512
G01 X17.4019 Y1.6562
G01 X17.4010 Y1.6598
G01 X17.3992 Y1.6645
G01 X17.3541 Y1.7547
G01 X17.3523 Y1.7577
G01 X17.3452 Y1.7647
G01 X17.3423 Y1.7665
G01 X17.2521 Y1.8116
G01 X17.2473 Y1.8135
G01 X17.2438 Y1.8143
G01 X17.2387 Y1.8148
G01 X17.0539 Y1.8148
G01 X17.0488 Y1.8143
G01 X17.0453 Y1.8135
G01 X17.0405 Y1.8117
G01 X16.9503 Y1.7665
G01 X16.9474 Y1.7647
G01 X16.9403 Y1.7577
G01 X16.9385 Y1.7548
G01 X16.8934 Y1.6645
G01 X16.8916 Y1.6598
G01 X16.8908 Y1.6562
G01 X16.8903 Y1.6512
G00 Z2.0000
G00 X16.1006 Y1.1731
G01 F30.00
G01 Z-0.0400
G01 F90.00
G01 X16.1410 Y1.1530
G01 X16.1502 Y1.1498
G01 X16.1584 Y1.1484
G01 X16.1640 Y1.1481
G01 X16.3205 Y1.1481
G01 X16.3288 Y1.1490
G01 X16.3382 Y1.1514
G01 X16.3446 Y1.1542
G01 X16.4144 Y1.1891
G01 X16.4215 Y1.1936
G01 X16.4279 Y1.1991
G01 X16.4593 Y1.2305
G01 X16.4655 Y1.2382
G01 X16.4690 Y1.2443
G01 X16.5050 Y1.3166
G01 X16.5069 Y1.3219
G01 X16.5082 Y1.3273
G01 X16.5090 Y1.3328
G01 X16.5093 Y1.3384
G01 X16.5093 Y1.5901
G01 X16.5082 Y1.5997
G01 X16.5060 Y1.6078
G01 X16.5033 Y1.6142
G01 X16.4684 Y1.6840
G01 X16.4639 Y1.6911
G01 X16.4583 Y1.6975
G01 X16.4269 Y1.7289
G01 X16.4192 Y1.7351
G01 X16.4131 Y1.7386
G01 X16.3408 Y1.7746
G01 X16.3355 Y1.7765
G01 X16.3301 Y1.7778
G01 X16.3205 Y1.7789
G01 X16.1640 Y1.7789
G01 X16.1584 Y1.7786
G01 X16.1529 Y1.7778
G01 X16.1462 Y1.7761
G01 X16.1397 Y1.7735
G01 X16.1006 Y1.7539
G01 X16.0945 Y1.7504
G01 X16.0878 Y1.7452
G01 X16.0820 Y1.7391
G01 X16.0772 Y1.7323
G01 X16.0729 Y1.7235
G01 X16.0701 Y1.7140
G01 X16.0693 Y1.7085
G01 X16.0690 Y1.7029
G01 X16.0691 Y1.2213
G01 X16.0699 Y1.2144
G01 X16.0715 Y1.2076
G01 X16.0745 Y1.1997
G01 X16.0779 Y1.1936
G01 X16.0820 Y1.1879
G01 X16.0878 Y1.1818
G01 X16.0945 Y1.1766
G01 X16.1006 Y1.1731
G00 Z2.0000
G00 X16.0331 Y2.1274
G01 F30.00
G01 Z-0.0400
G01 F90.00
G01 X16.0331 Y1.1330
G01 X16.0335 Y1.1296
G01 X16.0371 Y1.1208
G01 X16.0417 Y1.1162
G01 X16.0478 Y1.1137
G01 X16.0543 Y1.1137
G01 X16.0616 Y1.1167
G01 X16.0669 Y1.1203
G01 X16.0718 Y1.1229
G01 X16.0796 Y1.1259
G01 X16.0878 Y1.1278
G01 X16.0962 Y1.1284
G01 X16.1045 Y1.1278
G01 X16.1127 Y1.1260
G01 X16.1192 Y1.1236
G01 X16.1358 Y1.1154
G01 X16.1405 Y1.1136
G01 X16.1440 Y1.1127
G01 X16.1491 Y1.1122
G01 X16.3340 Y1.1122
G01 X16.3390 Y1.1127
G01 X16.3426 Y1.1136
G01 X16.3473 Y1.1154
G01 X16.4375 Y1.1605
G01 X16.4423 Y1.1635
G01 X16.4467 Y1.1671
G01 X16.4903 Y1.2107
G01 X16.4939 Y1.2151
G01 X16.4969 Y1.2199
G01 X16.5421 Y1.3101
G01 X16.5439 Y1.3149
G01 X16.5447 Y1.3184
G01 X16.5452 Y1.3235
G01 X16.5452 Y1.6036
G01 X16.5447 Y1.6086
G01 X16.5439 Y1.6122
G01 X16.5421 Y1.6169
G01 X16.4969 Y1.7071
G01 X16.4939 Y1.7119
G01 X16.4903 Y1.7163
G01 X16.4467 Y1.7599
G01 X16.4423 Y1.7635
G01 X16.4375 Y1.7665
G01 X16.3473 Y1.8116
G01 X16.3426 Y1.8135
G01 X16.3390 Y1.8143
G01 X16.3340 Y1.8148
G01 X16.1491 Y1.8148
G01 X16.1314 Y1.8122
G01 X16.1217 Y1.8121
G01 X16.1120 Y1.8137
G01 X16.1028 Y1.8169
G01 X16.0978 Y1.8194
G01 X16.0931 Y1.8224
G01 X16.0857 Y1.8288
G01 X16.0794 Y1.8362
G01 X16.0764 Y1.8410
G01 X16.0739 Y1.8460
G01 X16.0707 Y1.8552
G01 X16.0696 Y1.8607
G01 X16.0691 Y1.8662
G01 X16.0690 Y2.1274
G01 X16.0687 Y2.1308
G01 X16.0651 Y2.1395
G01 X16.0604 Y2.1442
G01 X16.0543 Y2.1467
G01 X16.0478 Y2.1467
G01 X16.0417 Y2.1442
G01 X16.0371 Y2.1395
G01 X16.0335 Y2.1308
G01 X16.0331 Y2.1274
G00 Z2.0000
G00 X15.0807 Y1.3655
G01 F30.00
G01 Z-0.0400
G01 F90.00
G01 X15.0807 Y1.2758
G01 X15.0812 Y1.2708
G01 X15.0821 Y1.2673
G01 X15.0839 Y1.2625
G01 X15.1290 Y1.1723
G01 X15.1308 Y1.1694
G01 X15.1379 Y1.1623
G01 X15.1408 Y1.1605
G01 X15.2310 Y1.1154
G01 X15.2358 Y1.1136
G01 X15.2393 Y1.1127
G01 X15.2443 Y1.1122
G01 X15.4768 Y1.1122
G01 X15.4819 Y1.1127
G01 X15.4854 Y1.1136
G01 X15.4902 Y1.1154
G01 X15.5067 Y1.1236
G01 X15.5132 Y1.1260
G01 X15.5214 Y1.1278
G01 X15.5298 Y1.1284
G01 X15.5395 Y1.1275
G01 X15.5489 Y1.1250
G01 X15.5566 Y1.1216
G01 X15.5643 Y1.1167
G01 X15.5716 Y1.1137
G01 X15.5782 Y1.1137
G01 X15.5842 Y1.1162
G01 X15.5889 Y1.1208
G01 X15.5925 Y1.1296
G01 X15.5928 Y1.1330
G01 X15.5928 Y1.6512
G01 X15.5923 Y1.6562
G01 X15.5915 Y1.6598
G01 X15.5897 Y1.6645
G01 X15.5446 Y1.7547
G01 X15.5427 Y1.7577
G01 X15.5357 Y1.7647
G01 X15.5328 Y1.7665
G01 X15.4426 Y1.8116
G01 X15.4378 Y1.8135
G01 X15.4343 Y1.8143
G01 X15.4292 Y1.8148
G01 X15.2443 Y1.8148
G01 X15.2393 Y1.8143
G01 X15.2358 Y1.8135
G01 X15.2310 Y1.8117
G01 X15.1408 Y1.7665
G01 X15.1379 Y1.7647
G01 X15.1317 Y1.7576
G01 X15.1296 Y1.7513
G01 X15.1301 Y1.7448
G01 X15.1330 Y1.7389
G01 X15.1380 Y1.7346
G01 X15.1442 Y1.7325
G01 X15.1536 Y1.7332
G01 X15.1568 Y1.7344
G01 X15.2350 Y1.7735
G01 X15.2428 Y1.7765
G01 X15.2509 Y1.7783
G01 X15.2592 Y1.7789
G01 X15.4157 Y1.7789
G01 X15.4213 Y1.7785
G01 X15.4267 Y1.7775
G01 X15.4360 Y1.7746
G01 X15.5006 Y1.7423
G01 X15.5064 Y1.7383
G01 X15.5107 Y1.7347
G01 X15.5146 Y1.7306
G01 X15.5188 Y1.7249
G01 X15.5224 Y1.7188
G01 X15.5509 Y1.6618
G01 X15.5545 Y1.6528
G01 X15.5561 Y1.6460
G01 X15.5569 Y1.6377
G01 X15.5569 Y1.6037
G01 X15.5563 Y1.5967
G01 X15.5540 Y1.5872
G01 X15.5520 Y1.5819
G01 X15.5495 Y1.5769
G01 X15.5465 Y1.5722
G01 X15.5430 Y1.5678
G01 X15.5360 Y1.5609
G01 X15.5315 Y1.5576
G01 X15.5266 Y1.5547
G01 X15.4874 Y1.5351
G01 X15.4810 Y1.5324
G01 X15.4744 Y1.5305
G01 X15.4689 Y1.5295
G01 X15.4619 Y1.5291
G01 X15.2443 Y1.5291
G01 X15.2393 Y1.5286
G01 X15.2358 Y1.5278
G01 X15.2310 Y1.5259
G01 X15.1408 Y1.4808
G01 X15.1379 Y1.4790
G01 X15.1308 Y1.4719
G01 X15.1290 Y1.4690
G01 X15.0839 Y1.3788
G01 X15.0821 Y1.3741
G01 X15.0812 Y1.3705
G01 X15.0807 Y1.3655
G00 Z2.0000
G00 X15.1227 Y1.2652
G01 F30.00
G01 Z-0.0400
G01 F90.00
G01 X15.1525 Y1.2057
G01 X15.1572 Y1.1986
G01 X15.1629 Y1.1924
G01 X15.1683 Y1.1878
G01 X15.1754 Y1.1833
G01 X15.2337 Y1.1542
G01 X15.2428 Y1.1506
G01 X15.2509 Y1.1487
G01 X15.2592 Y1.1481
G01 X15.4633 Y1.1481
G01 X15.4703 Y1.1487
G01 X15.4757 Y1.1498
G01 X15.4810 Y1.1514
G01 X15.4862 Y1.1535
G01 X15.5266 Y1.1738
G01 X15.5326 Y1.1774
G01 X15.5370 Y1.1809
G01 X15.5439 Y1.1879
G01 X15.5488 Y1.1948
G01 X15.5531 Y1.2036
G01 X15.5558 Y1.2130
G01 X15.5566 Y1.2185
G01 X15.5569 Y1.2242
G01 X15.5569 Y1.4404
G01 X15.5565 Y1.4459
G01 X15.5555 Y1.4515
G01 X15.5536 Y1.4582
G01 X15.5515 Y1.4633
G01 X15.5473 Y1.4706
G01 X15.5431 Y1.4762
G01 X15.5382 Y1.4812
G01 X15.5316 Y1.4864
G01 X15.5256 Y1.4899
G01 X15.5178 Y1.4931
G01 X15.5110 Y1.4949
G01 X15.5041 Y1.4959
G01 X15.4943 Y1.4957
G01 X15.4768 Y1.4932
G01 X15.2579 Y1.4932
G01 X15.2523 Y1.4928
G01 X15.2455 Y1.4915
G01 X15.2401 Y1.4899
G01 X15.2350 Y1.4878
G01 X15.1767 Y1.4586
G01 X15.1706 Y1.4551
G01 X15.1650 Y1.4508
G01 X15.1599 Y1.4459
G01 X15.1547 Y1.4392
G01 X15.1512 Y1.4331
G01 X15.1220 Y1.3748
G01 X15.1195 Y1.3684
G01 X15.1175 Y1.3603
G01 X15.1166 Y1.3506
G01 X15.1167 Y1.2880
G01 X15.1172 Y1.2824
G01 X15.1183 Y1.2770
G01 X15.1199 Y1.2716
G01 X15.1227 Y1.2652
G00 Z2.0000
G00 X14.2712 Y1.6512
G01 F30.00
G01 Z-0.0400
G01 F90.00
G01 X14.2712 Y1.6092
G01 X14.2717 Y1.6041
G01 X14.2725 Y1.6006
G01 X14.2744 Y1.5958
G01 X14.3195 Y1.5056
G01 X14.3213 Y1.5027
G01 X14.3283 Y1.4957
G01 X14.3313 Y1.4938
G01 X14.4215 Y1.4487
G01 X14.4262 Y1.4469
G01 X14.4298 Y1.4461
G01 X14.4348 Y1.4456
G01 X14.5572 Y1.4456
G01 X14.5669 Y1.4447
G01 X14.5750 Y1.4427
G01 X14.5814 Y1.4401
G01 X14.6410 Y1.4104
G01 X14.6481 Y1.4059
G01 X14.6535 Y1.4013
G01 X14.6592 Y1.3950
G01 X14.6639 Y1.3880
G01 X14.6955 Y1.3247
G01 X14.6974 Y1.3194
G01 X14.6987 Y1.3140
G01 X14.6995 Y1.3085
G01 X14.6998 Y1.3030
G01 X14.6998 Y1.2894
G01 X14.6994 Y1.2838
G01 X14.6981 Y1.2770
G01 X14.6960 Y1.2703
G01 X14.6938 Y1.2652
G01 X14.6646 Y1.2069
G01 X14.6617 Y1.2021
G01 X14.6583 Y1.1975
G01 X14.6514 Y1.1905
G01 X14.6470 Y1.1870
G01 X14.6422 Y1.1840
G01 X14.5827 Y1.1542
G01 X14.5736 Y1.1506
G01 X14.5655 Y1.1487
G01 X14.5572 Y1.1481
G01 X14.4021 Y1.1481
G01 X14.3938 Y1.1487
G01 X14.3856 Y1.1506
G01 X14.3778 Y1.1535
G01 X14.2997 Y1.1926
G01 X14.2965 Y1.1938
G01 X14.2871 Y1.1945
G01 X14.2808 Y1.1924
G01 X14.2759 Y1.1881
G01 X14.2729 Y1.1822
G01 X14.2725 Y1.1757
G01 X14.2745 Y1.1695
G01 X14.2807 Y1.1623
G01 X14.2836 Y1.1605
G01 X14.3739 Y1.1154
G01 X14.3786 Y1.1136
G01 X14.3821 Y1.1127
G01 X14.3872 Y1.1122
G01 X14.5721 Y1.1122
G01 X14.5771 Y1.1127
G01 X14.5807 Y1.1136
G01 X14.5854 Y1.1154
G01 X14.6756 Y1.1605
G01 X14.6785 Y1.1623
G01 X14.6856 Y1.1694
G01 X14.6874 Y1.1723
G01 X14.7325 Y1.2625
G01 X14.7343 Y1.2672
G01 X14.7352 Y1.2708
G01 X14.7357 Y1.2758
G01 X14.7357 Y1.3179
G01 X14.7352 Y1.3229
G01 X14.7343 Y1.3264
G01 X14.7325 Y1.3312
G01 X14.6874 Y1.4214
G01 X14.6856 Y1.4243
G01 X14.6785 Y1.4314
G01 X14.6756 Y1.4332
G01 X14.5854 Y1.4783
G01 X14.5807 Y1.4801
G01 X14.5771 Y1.4810
G01 X14.5721 Y1.4815
G01 X14.4497 Y1.4815
G01 X14.4400 Y1.4823
G01 X14.4319 Y1.4843
G01 X14.4255 Y1.4869
G01 X14.3647 Y1.5173
G01 X14.3588 Y1.5212
G01 X14.3534 Y1.5257
G01 X14.3485 Y1.5309
G01 X14.3444 Y1.5366
G01 X14.3417 Y1.5415
G01 X14.3125 Y1.5998
G01 X14.3095 Y1.6076
G01 X14.3077 Y1.6158
G01 X14.3071 Y1.6227
G01 X14.3071 Y1.6363
G01 X14.3074 Y1.6418
G01 X14.3082 Y1.6474
G01 X14.3100 Y1.6541
G01 X14.3119 Y1.6593
G01 X14.3423 Y1.7201
G01 X14.3460 Y1.7261
G01 X14.3504 Y1.7316
G01 X14.3576 Y1.7383
G01 X14.3659 Y1.7437
G01 X14.4242 Y1.7729
G01 X14.4319 Y1.7761
G01 X14.4400 Y1.7781
G01 X14.4483 Y1.7789
G01 X14.5572 Y1.7789
G01 X14.5627 Y1.7786
G01 X14.5682 Y1.7778
G01 X14.5750 Y1.7761
G01 X14.5814 Y1.7735
G01 X14.6596 Y1.7344
G01 X14.6628 Y1.7332
G01 X14.6722 Y1.7325
G01 X14.6784 Y1.7346
G01 X14.6834 Y1.7389
G01 X14.6863 Y1.7448
G01 X14.6868 Y1.7513
G01 X14.6847 Y1.7576
G01 X14.6785 Y1.7647
G01 X14.6756 Y1.7665
G01 X14.5854 Y1.8116
G01 X14.5807 Y1.8135
G01 X14.5771 Y1.8143
G01 X14.5721 Y1.8148
G01 X14.4348 Y1.8148
G01 X14.4298 Y1.8143
G01 X14.4262 Y1.8135
G01 X14.4215 Y1.8117
G01 X14.3313 Y1.7665
G01 X14.3283 Y1.7647
G01 X14.3213 Y1.7577
G01 X14.3195 Y1.7548
G01 X14.2744 Y1.6645
G01 X14.2725 Y1.6598
G01 X14.2717 Y1.6562
G01 X14.2712 Y1.6512
G00 Z2.0000
G00 X2.1500 Y17.2050
G01 F30.00
G01 Z-0.0400
G01 F90.00
G01 X3.8500 Y17.2050
G01 X3.8718 Y17.2055
G01 X3.8827 Y17.2062
G01 X3.9045 Y17.2084
G01 X3.9261 Y17.2116
G01 X3.9475 Y17.2158
G01 X3.9581 Y17.2183
G01 X3.9792 Y17.2242
G01 X3.9999 Y17.2310
G01 X4.0203 Y17.2389
G01 X4.0303 Y17.2432
G01 X4.0501 Y17.2525
G01 X4.0598 Y17.2576
G01 X4.8156 Y17.6798
G01 X6.6603 Y17.6798
G01 X8.3797 Y15.9604
G01 X8.3787 Y14.0089
G01 X8.2692 Y13.1613
G01 X8.2608 Y13.1035
G01 X8.2596 Y13.0926
G01 X8.2580 Y13.0708
G01 X8.2555 Y13.0218
G01 X8.2550 Y13.0000
G01 X8.2555 Y12.9782
G01 X8.2586 Y12.9183
G01 X8.2596 Y12.9074
G01 X8.2622 Y12.8857
G01 X8.2694 Y12.8372
G01 X8.2732 Y12.8156
G01 X8.2780 Y12.7943
G01 X8.2899 Y12.7467
G01 X8.2957 Y12.7257
G01 X8.3026 Y12.7049
G01 X8.3229 Y12.6485
G01 X8.3312 Y12.6283
G01 X8.3358 Y12.6184
G01 X8.3568 Y12.5740
G01 X8.3666 Y12.5545
G01 X8.3774 Y12.5355
G01 X8.4026 Y12.4934
G01 X8.4143 Y12.4750
G01 X8.4268 Y12.4571
G01 X8.4561 Y12.4177
G01 X8.4695 Y12.4005
G01 X8.4765 Y12.3921
G01 X8.5242 Y12.3396
G01 X8.5396 Y12.3242
G01 X8.5476 Y12.3167
G01 X8.5840 Y12.2838
G01 X8.6005 Y12.2695
G01 X8.6177 Y12.2561
G01 X8.6571 Y12.2268
G01 X8.6750 Y12.2143
G01 X8.6841 Y12.2083
G01 X8.7355 Y12.1774
G01 X8.7545 Y12.1666
G01 X8.7740 Y12.1568
G01 X8.8283 Y12.1312
G01 X8.8485 Y12.1229
G01 X8.8587 Y12.1191
G01 X8.9049 Y12.1026
G01 X8.9257 Y12.0957
G01 X8.9467 Y12.0899
G01 X8.9943 Y12.0780
G01 X9.0156 Y12.0732
G01 X9.0264 Y12.0712
G01 X9.0857 Y12.0622
G01 X9.1074 Y12.0596
G01 X9.1292 Y12.0580
G01 X9.1891 Y12.0551
G01 X9.2000 Y12.0550
G01 X9.2218 Y12.0555
G01 X9.2708 Y12.0580
G01 X9.2926 Y12.0596
G01 X9.3143 Y12.0622
G01 X9.3628 Y12.0694
G01 X9.3844 Y12.0732
G01 X9.3950 Y12.0754
G01 X9.4638 Y12.0927
G01 X9.4847 Y12.0990
G01 X9.4951 Y12.1026
G01 X9.5413 Y12.1191
G01 X9.5616 Y12.1269
G01 X9.5816 Y12.1358
G01 X9.6358 Y12.1616
G01 X9.6455 Y12.1666
G01 X9.6645 Y12.1774
G01 X9.7066 Y12.2026
G01 X9.7250 Y12.2143
G01 X9.7429 Y12.2268
G01 X9.7823 Y12.2561
G01 X9.7910 Y12.2627
G01 X9.8079 Y12.2765
G01 X9.8524 Y12.3167
G01 X9.8682 Y12.3318
G01 X9.8833 Y12.3476
G01 X9.9235 Y12.3921
G01 X9.9305 Y12.4005
G01 X9.9439 Y12.4177
G01 X9.9732 Y12.4571
G01 X9.9857 Y12.4750
G01 X9.9974 Y12.4934
G01 X10.0226 Y12.5355
G01 X10.0334 Y12.5545
G01 X10.0384 Y12.5642
G01 X10.0642 Y12.6184
G01 X10.0731 Y12.6384
G01 X10.0809 Y12.6587
G01 X10.1010 Y12.7153
G01 X10.1073 Y12.7362
G01 X10.1101 Y12.7467
G01 X10.1220 Y12.7943
G01 X10.1268 Y12.8156
G01 X10.1306 Y12.8372
G01 X10.1392 Y12.8965
G01 X10.1414 Y12.9183
G01 X10.1445 Y12.9782
G01 X10.1450 Y13.0000
G01 X10.1449 Y13.0109
G01 X10.1420 Y13.0708
G01 X10.1404 Y13.0926
G01 X10.1392 Y13.1035
G01 X10.1312 Y13.1587
G01 X10.0202 Y14.0176
G01 X10.0200 Y16.3109
G01 X10.0178 Y16.3586
G01 X10.0162 Y16.3804
G01 X10.0136 Y16.4021
G01 X10.0082 Y16.4385
G01 X10.0044 Y16.4600
G01 X9.9996 Y16.4813
G01 X9.9907 Y16.5170
G01 X9.9849 Y16.5381
G01 X9.9780 Y16.5588
G01 X9.9618 Y16.6037
G01 X9.9534 Y16.6239
G01 X9.9489 Y16.6338
G01 X9.9332 Y16.6671
G01 X9.9233 Y16.6866
G01 X9.9126 Y16.7056
G01 X9.8936 Y16.7372
G01 X9.8820 Y16.7557
G01 X9.8694 Y16.7735
G01 X9.8474 Y16.8031
G01 X9.8340 Y16.8203
G01 X9.8197 Y16.8369
G01 X9.7950 Y16.8641
G01 X9.7800 Y16.8800
G01 X7.5800 Y19.0800
G01 X7.5641 Y19.0950
G01 X7.5287 Y19.1270
G01 X7.5203 Y19.1340
G01 X7.5031 Y19.1474
G01 X7.4735 Y19.1694
G01 X7.4557 Y19.1820
G01 X7.4372 Y19.1936
G01 X7.4056 Y19.2126
G01 X7.3866 Y19.2233
G01 X7.3769 Y19.2284
G01 X7.3338 Y19.2489
G01 X7.3139 Y19.2577
G01 X7.2935 Y19.2656
G01 X7.2588 Y19.2780
G01 X7.2381 Y19.2849
G01 X7.2276 Y19.2879
G01 X7.1707 Y19.3022
G01 X7.1600 Y19.3044
G01 X7.1385 Y19.3082
G01 X7.1021 Y19.3136
G01 X7.0804 Y19.3162
G01 X7.0586 Y19.3178
G01 X7.0218 Y19.3196
G01 X7.0006 Y19.3202
G01 X4.8102 Y19.3232
G01 X4.0576 Y19.7436
G01 X4.0382 Y19.7532
G01 X4.0184 Y19.7619
G01 X3.9983 Y19.7696
G01 X3.9777 Y19.7763
G01 X3.9569 Y19.7820
G01 X3.9358 Y19.7866
G01 X3.9146 Y19.7903
G01 X3.8931 Y19.7929
G01 X3.8716 Y19.7945
G01 X3.8500 Y19.7950
G01 X2.1391 Y19.7949
G01 X2.1173 Y19.7938
G01 X2.1064 Y19.7928
G01 X2.0847 Y19.7902
G01 X2.0632 Y19.7864
G01 X2.0419 Y19.7817
G01 X2.0208 Y19.7758
G01 X2.0001 Y19.7690
G01 X1.9899 Y19.7652
G01 X1.9697 Y19.7568
G01 X1.9597 Y19.7523
G01 X1.9499 Y19.7475
G01 X1.9307 Y19.7372
G01 X1.9119 Y19.7260
G01 X1.9028 Y19.7200
G01 X1.8849 Y19.7074
G01 X1.8762 Y19.7008
G01 X1.8593 Y19.6870
G01 X1.8432 Y19.6723
G01 X1.8277 Y19.6568
G01 X1.8203 Y19.6488
G01 X1.8060 Y19.6323
G01 X1.7992 Y19.6238
G01 X1.7862 Y19.6062
G01 X1.7800 Y19.5972
G01 X1.7740 Y19.5881
G01 X1.7628 Y19.5693
G01 X1.7576 Y19.5598
G01 X1.7477 Y19.5403
G01 X1.7389 Y19.5203
G01 X1.7310 Y19.4999
G01 X1.7275 Y19.4896
G01 X1.7211 Y19.4687
G01 X1.7183 Y19.4581
G01 X1.7136 Y19.4368
G01 X1.7116 Y19.4261
G01 X1.7084 Y19.4045
G01 X1.7072 Y19.3936
G01 X1.7055 Y19.3718
G01 X1.7050 Y19.3500
G01 X1.7050 Y17.6500
G01 X1.7051 Y17.6391
G01 X1.7062 Y17.6173
G01 X1.7084 Y17.5955
G01 X1.7116 Y17.5739
G01 X1.7158 Y17.5525
G01 X1.7211 Y17.5313
G01 X1.7275 Y17.5104
G01 X1.7348 Y17.4899
G01 X1.7432 Y17.4697
G01 X1.7525 Y17.4499
G01 X1.7628 Y17.4307
G01 X1.7683 Y17.4212
G01 X1.7800 Y17.4028
G01 X1.7926 Y17.3849
G01 X1.8060 Y17.3677
G01 X1.8203 Y17.3512
G01 X1.8353 Y17.3353
G01 X1.8512 Y17.3203
G01 X1.8593 Y17.3130
G01 X1.8762 Y17.2992
G01 X1.8938 Y17.2862
G01 X1.9119 Y17.2740
G01 X1.9307 Y17.2628
G01 X1.9499 Y17.2525
G01 X1.9697 Y17.2432
G01 X1.9899 Y17.2348
G01 X2.0104 Y17.2275
G01 X2.0313 Y17.2211
G01 X2.0525 Y17.2158
G01 X2.0739 Y17.2116
G01 X2.0955 Y17.2084
G01 X2.1064 Y17.2072
G01 X2.1282 Y17.2055
G01 X2.1500 Y17.2050
G00 Z2.0000
G00 X2.1500 Y17.3020
G01 F30.00
G01 Z-0.0400
G01 F90.00
G01 X3.8500 Y17.3020
G01 X3.8671 Y17.3024
G01 X3.8841 Y17.3037
G01 X3.9095 Y17.3071
G01 X3.9346 Y17.3124
G01 X3.9592 Y17.3196
G01 X3.9752 Y17.3253
G01 X3.9910 Y17.3318
G01 X4.0140 Y17.3431
G01 X4.7903 Y17.7768
G01 X6.7004 Y17.7768
G01 X8.4767 Y16.0005
G01 X8.4757 Y14.0027
G01 X8.3653 Y13.1483
G01 X8.3570 Y13.0916
G01 X8.3548 Y13.0661
G01 X8.3524 Y13.0171
G01 X8.3520 Y13.0000
G01 X8.3524 Y12.9829
G01 X8.3553 Y12.9254
G01 X8.3582 Y12.8999
G01 X8.3654 Y12.8514
G01 X8.3683 Y12.8346
G01 X8.3720 Y12.8179
G01 X8.3840 Y12.7703
G01 X8.3885 Y12.7538
G01 X8.3939 Y12.7376
G01 X8.4134 Y12.6834
G01 X8.4235 Y12.6599
G01 X8.4444 Y12.6155
G01 X8.4521 Y12.6003
G01 X8.4605 Y12.5854
G01 X8.4858 Y12.5433
G01 X8.4997 Y12.5218
G01 X8.5340 Y12.4755
G01 X8.5445 Y12.4620
G01 X8.5556 Y12.4491
G01 X8.5944 Y12.4065
G01 X8.6127 Y12.3886
G01 X8.6491 Y12.3556
G01 X8.6620 Y12.3445
G01 X8.6755 Y12.3340
G01 X8.7149 Y12.3047
G01 X8.7360 Y12.2903
G01 X8.7854 Y12.2605
G01 X8.8003 Y12.2521
G01 X8.8155 Y12.2444
G01 X8.8676 Y12.2199
G01 X8.8914 Y12.2104
G01 X8.9376 Y12.1939
G01 X8.9538 Y12.1885
G01 X8.9703 Y12.1840
G01 X9.0179 Y12.1720
G01 X9.0430 Y12.1667
G01 X9.0999 Y12.1582
G01 X9.1169 Y12.1561
G01 X9.1339 Y12.1548
G01 X9.1829 Y12.1524
G01 X9.2000 Y12.1520
G01 X9.2171 Y12.1524
G01 X9.2661 Y12.1548
G01 X9.2831 Y12.1561
G01 X9.3001 Y12.1582
G01 X9.3570 Y12.1667
G01 X9.3821 Y12.1720
G01 X9.4297 Y12.1840
G01 X9.4462 Y12.1885
G01 X9.4624 Y12.1939
G01 X9.5086 Y12.2104
G01 X9.5324 Y12.2199
G01 X9.5845 Y12.2444
G01 X9.5997 Y12.2521
G01 X9.6146 Y12.2605
G01 X9.6640 Y12.2903
G01 X9.6851 Y12.3047
G01 X9.7245 Y12.3340
G01 X9.7380 Y12.3445
G01 X9.7509 Y12.3556
G01 X9.7873 Y12.3886
G01 X9.8056 Y12.4065
G01 X9.8444 Y12.4491
G01 X9.8555 Y12.4620
G01 X9.8660 Y12.4755
G01 X9.9003 Y12.5218
G01 X9.9142 Y12.5433
G01 X9.9395 Y12.5854
G01 X9.9479 Y12.6003
G01 X9.9556 Y12.6155
G01 X9.9765 Y12.6599
G01 X9.9866 Y12.6834
G01 X10.0061 Y12.7376
G01 X10.0115 Y12.7538
G01 X10.0160 Y12.7703
G01 X10.0299 Y12.8262
G01 X10.0346 Y12.8514
G01 X10.0418 Y12.8999
G01 X10.0439 Y12.9169
G01 X10.0452 Y12.9339
G01 X10.0476 Y12.9829
G01 X10.0480 Y13.0000
G01 X10.0476 Y13.0171
G01 X10.0452 Y13.0661
G01 X10.0430 Y13.0916
G01 X10.0351 Y13.1454
G01 X9.9232 Y14.0113
G01 X9.9231 Y16.3085
G01 X9.9210 Y16.3539
G01 X9.9197 Y16.3709
G01 X9.9176 Y16.3878
G01 X9.9122 Y16.4243
G01 X9.9093 Y16.4411
G01 X9.9056 Y16.4578
G01 X9.8966 Y16.4935
G01 X9.8921 Y16.5099
G01 X9.8867 Y16.5262
G01 X9.8713 Y16.5688
G01 X9.8612 Y16.5924
G01 X9.8455 Y16.6257
G01 X9.8378 Y16.6409
G01 X9.8294 Y16.6558
G01 X9.8105 Y16.6874
G01 X9.8013 Y16.7018
G01 X9.7915 Y16.7157
G01 X9.7695 Y16.7453
G01 X9.7590 Y16.7588
G01 X9.7479 Y16.7717
G01 X9.7232 Y16.7990
G01 X9.7114 Y16.8114
G01 X7.5114 Y19.0114
G01 X7.4990 Y19.0232
G01 X7.4717 Y19.0479
G01 X7.4521 Y19.0644
G01 X7.4088 Y19.0965
G01 X7.3874 Y19.1105
G01 X7.3558 Y19.1294
G01 X7.3409 Y19.1378
G01 X7.3257 Y19.1455
G01 X7.2924 Y19.1612
G01 X7.2688 Y19.1713
G01 X7.2262 Y19.1867
G01 X7.2099 Y19.1921
G01 X7.1935 Y19.1966
G01 X7.1494 Y19.2075
G01 X7.1243 Y19.2122
G01 X7.0878 Y19.2176
G01 X7.0709 Y19.2197
G01 X7.0539 Y19.2210
G01 X7.0171 Y19.2228
G01 X7.0000 Y19.2232
G01 X4.7903 Y19.2232
G01 X4.0140 Y19.6569
G01 X3.9988 Y19.6646
G01 X3.9832 Y19.6715
G01 X3.9672 Y19.6777
G01 X3.9510 Y19.6830
G01 X3.9346 Y19.6876
G01 X3.9179 Y19.6913
G01 X3.9011 Y19.6942
G01 X3.8841 Y19.6963
G01 X3.8671 Y19.6976
G01 X3.8500 Y19.6980
G01 X2.1500 Y19.6980
G01 X2.1329 Y19.6976
G01 X2.1159 Y19.6963
G01 X2.0905 Y19.6929
G01 X2.0654 Y19.6876
G01 X2.0490 Y19.6830
G01 X2.0328 Y19.6777
G01 X2.0090 Y19.6681
G01 X1.9860 Y19.6569
G01 X1.9638 Y19.6440
G01 X1.9427 Y19.6295
G01 X1.9227 Y19.6135
G01 X1.9039 Y19.5961
G01 X1.8921 Y19.5837
G01 X1.8757 Y19.5641
G01 X1.8606 Y19.5433
G01 X1.8515 Y19.5289
G01 X1.8392 Y19.5065
G01 X1.8285 Y19.4832
G01 X1.8196 Y19.4592
G01 X1.8146 Y19.4428
G01 X1.8087 Y19.4179
G01 X1.8046 Y19.3926
G01 X1.8024 Y19.3671
G01 X1.8020 Y19.3500
G01 X1.8020 Y17.6500
G01 X1.8024 Y17.6329
G01 X1.8046 Y17.6074
G01 X1.8071 Y17.5905
G01 X1.8105 Y17.5738
G01 X1.8146 Y17.5572
G01 X1.8196 Y17.5408
G01 X1.8253 Y17.5248
G01 X1.8319 Y17.5090
G01 X1.8392 Y17.4935
G01 X1.8472 Y17.4785
G01 X1.8560 Y17.4638
G01 X1.8655 Y17.4496
G01 X1.8757 Y17.4359
G01 X1.8865 Y17.4227
G01 X1.8980 Y17.4100
G01 X1.9100 Y17.3980
G01 X1.9227 Y17.3865
G01 X1.9359 Y17.3757
G01 X1.9496 Y17.3655
G01 X1.9638 Y17.3560
G01 X1.9785 Y17.3472
G01 X1.9935 Y17.3392
