(G-CODE GENERATED BY FLATCAM v8.994 - www.flatcam.org - Version Date: 2020/11/7)

(Name: Saber Connector Board_V1-Edge_Cuts.gbr_cutout_cnc)
(Type: G-code from Geometry)
(Units: MM)

(Created on Wednesday, 25 March 2026 at 20:54)

(This preprocessor is the default preprocessor used by FlatCAM.)
(It is made to work with MACH3 compatible motion controllers.)

(TOOL DIAMETER: 2.0 mm)
(Feedrate_XY: 90.0 mm/min)
(Feedrate_Z: 60.0 mm/min)
(Feedrate rapids 1500.0 mm/min)

(Z_Cut: -2.2 mm)
(DepthPerCut: 0.6 mm <=>4 passes)
(Z_Move: 2.0 mm)
(Z Start: None mm)
(Z End: 15.0 mm)
(X,Y End: None mm)
(Steps per circle: 64)
(Preprocessor Geometry: default)

(X range:   -1.1250 ...   26.1250  mm)
(Y range:   -1.1250 ...   26.1250  mm)

(Spindle Speed: 10000.0 RPM)
G21
G90
G94

G01 F90.00

M5
G00 Z15.0000
G00 X0.0000 Y0.0000
T1
M6    
(MSG, Change to Tool Dia = 2.0000)
M0
G00 Z15.0000

M03 S10000.0
G01 F90.00
G00 X11.3500 Y-1.1250
G01 F60.00
G01 Z-0.6000
G01 F90.00
G01 X-0.0250 Y-1.1250
G01 X-0.1328 Y-1.1197
G01 X-0.2396 Y-1.1039
G01 X-0.3443 Y-1.0776
G01 X-0.4460 Y-1.0413
G01 X-0.5435 Y-0.9951
G01 X-0.6361 Y-0.9396
G01 X-0.7228 Y-0.8753
G01 X-0.8028 Y-0.8028
G01 X-0.8753 Y-0.7228
G01 X-0.9396 Y-0.6361
G01 X-0.9951 Y-0.5435
G01 X-1.0413 Y-0.4460
G01 X-1.0776 Y-0.3443
G01 X-1.1039 Y-0.2396
G01 X-1.1197 Y-0.1328
G01 X-1.1250 Y-0.0250
G01 X-1.1250 Y11.3500
G00 X-1.1250 Y11.3500
G01 F60.00
G01 Z-1.2000
G01 F90.00
G01 X-1.1250 Y-0.0250
G01 X-1.1197 Y-0.1328
G01 X-1.1039 Y-0.2396
G01 X-1.0776 Y-0.3443
G01 X-1.0413 Y-0.4460
G01 X-0.9951 Y-0.5435
G01 X-0.9396 Y-0.6361
G01 X-0.8753 Y-0.7228
G01 X-0.8028 Y-0.8028
G01 X-0.7228 Y-0.8753
G01 X-0.6361 Y-0.9396
G01 X-0.5435 Y-0.9951
G01 X-0.4460 Y-1.0413
G01 X-0.3443 Y-1.0776
G01 X-0.2396 Y-1.1039
G01 X-0.1328 Y-1.1197
G01 X-0.0250 Y-1.1250
G01 X11.3500 Y-1.1250
G00 X11.3500 Y-1.1250
G01 F60.00
G01 Z-1.8000
G01 F90.00
G01 X-0.0250 Y-1.1250
G01 X-0.1328 Y-1.1197
G01 X-0.2396 Y-1.1039
G01 X-0.3443 Y-1.0776
G01 X-0.4460 Y-1.0413
G01 X-0.5435 Y-0.9951
G01 X-0.6361 Y-0.9396
G01 X-0.7228 Y-0.8753
G01 X-0.8028 Y-0.8028
G01 X-0.8753 Y-0.7228
G01 X-0.9396 Y-0.6361
G01 X-0.9951 Y-0.5435
G01 X-1.0413 Y-0.4460
G01 X-1.0776 Y-0.3443
G01 X-1.1039 Y-0.2396
G01 X-1.1197 Y-0.1328
G01 X-1.1250 Y-0.0250
G01 X-1.1250 Y11.3500
G00 X-1.1250 Y11.3500
G01 F60.00
G01 Z-2.2000
G01 F90.00
G01 X-1.1250 Y-0.0250
G01 X-1.1197 Y-0.1328
G01 X-1.1039 Y-0.2396
G01 X-1.0776 Y-0.3443
G01 X-1.0413 Y-0.4460
G01 X-0.9951 Y-0.5435
G01 X-0.9396 Y-0.6361
G01 X-0.8753 Y-0.7228
G01 X-0.8028 Y-0.8028
G01 X-0.7228 Y-0.8753
G01 X-0.6361 Y-0.9396
G01 X-0.5435 Y-0.9951
G01 X-0.4460 Y-1.0413
G01 X-0.3443 Y-1.0776
G01 X-0.2396 Y-1.1039
G01 X-0.1328 Y-1.1197
G01 X-0.0250 Y-1.1250
G01 X11.3500 Y-1.1250
G00 Z2.0000
G00 X-1.1250 Y13.8500
G01 F60.00
G01 Z-0.6000
G01 F90.00
G01 X-1.1250 Y25.0250
G01 X-1.1197 Y25.1328
G01 X-1.1039 Y25.2396
G01 X-1.0776 Y25.3443
G01 X-1.0413 Y25.4460
G01 X-0.9951 Y25.5435
G01 X-0.9396 Y25.6361
G01 X-0.8753 Y25.7228
G01 X-0.8028 Y25.8028
G01 X-0.7228 Y25.8753
G01 X-0.6361 Y25.9396
G01 X-0.5435 Y25.9951
G01 X-0.4460 Y26.0413
G01 X-0.3443 Y26.0776
G01 X-0.2396 Y26.1039
G01 X-0.1328 Y26.1197
G01 X-0.0250 Y26.1250
G01 X11.3500 Y26.1250
G00 X11.3500 Y26.1250
G01 F60.00
G01 Z-1.2000
G01 F90.00
G01 X-0.0250 Y26.1250
G01 X-0.1328 Y26.1197
G01 X-0.2396 Y26.1039
G01 X-0.3443 Y26.0776
G01 X-0.4460 Y26.0413
G01 X-0.5435 Y25.9951
G01 X-0.6361 Y25.9396
G01 X-0.7228 Y25.8753
G01 X-0.8028 Y25.8028
G01 X-0.8753 Y25.7228
G01 X-0.9396 Y25.6361
G01 X-0.9951 Y25.5435
G01 X-1.0413 Y25.4460
G01 X-1.0776 Y25.3443
G01 X-1.1039 Y25.2396
G01 X-1.1197 Y25.1328
G01 X-1.1250 Y25.0250
G01 X-1.1250 Y13.8500
G00 X-1.1250 Y13.8500
G01 F60.00
G01 Z-1.8000
G01 F90.00
G01 X-1.1250 Y25.0250
G01 X-1.1197 Y25.1328
G01 X-1.1039 Y25.2396
G01 X-1.0776 Y25.3443
G01 X-1.0413 Y25.4460
G01 X-0.9951 Y25.5435
G01 X-0.9396 Y25.6361
G01 X-0.8753 Y25.7228
G01 X-0.8028 Y25.8028
G01 X-0.7228 Y25.8753
G01 X-0.6361 Y25.9396
G01 X-0.5435 Y25.9951
G01 X-0.4460 Y26.0413
G01 X-0.3443 Y26.0776
G01 X-0.2396 Y26.1039
G01 X-0.1328 Y26.1197
G01 X-0.0250 Y26.1250
G01 X11.3500 Y26.1250
G00 X11.3500 Y26.1250
G01 F60.00
G01 Z-2.2000
G01 F90.00
G01 X-0.0250 Y26.1250
G01 X-0.1328 Y26.1197
G01 X-0.2396 Y26.1039
G01 X-0.3443 Y26.0776
G01 X-0.4460 Y26.0413
G01 X-0.5435 Y25.9951
G01 X-0.6361 Y25.9396
G01 X-0.7228 Y25.8753
G01 X-0.8028 Y25.8028
G01 X-0.8753 Y25.7228
G01 X-0.9396 Y25.6361
G01 X-0.9951 Y25.5435
G01 X-1.0413 Y25.4460
G01 X-1.0776 Y25.3443
G01 X-1.1039 Y25.2396
G01 X-1.1197 Y25.1328
G01 X-1.1250 Y25.0250
G01 X-1.1250 Y13.8500
G00 Z2.0000
G00 X13.8500 Y26.1250
G01 F60.00
G01 Z-0.6000
G01 F90.00
G01 X25.0250 Y26.1250
G01 X25.1328 Y26.1197
G01 X25.2396 Y26.1039
G01 X25.3443 Y26.0776
G01 X25.4460 Y26.0413
G01 X25.5435 Y25.9951
G01 X25.6361 Y25.9396
G01 X25.7228 Y25.8753
G01 X25.8028 Y25.8028
G01 X25.8753 Y25.7228
G01 X25.9396 Y25.6361
G01 X25.9951 Y25.5435
G01 X26.0413 Y25.4460
G01 X26.0776 Y25.3443
G01 X26.1039 Y25.2396
G01 X26.1197 Y25.1328
G01 X26.1250 Y25.0250
G01 X26.1250 Y13.8500
G00 X26.1250 Y13.8500
G01 F60.00
G01 Z-1.2000
G01 F90.00
G01 X26.1250 Y25.0250
G01 X26.1197 Y25.1328
G01 X26.1039 Y25.2396
G01 X26.0776 Y25.3443
G01 X26.0413 Y25.4460
G01 X25.9951 Y25.5435
G01 X25.9396 Y25.6361
G01 X25.8753 Y25.7228
G01 X25.8028 Y25.8028
G01 X25.7228 Y25.8753
G01 X25.6361 Y25.9396
G01 X25.5435 Y25.9951
G01 X25.4460 Y26.0413
G01 X25.3443 Y26.0776
G01 X25.2396 Y26.1039
G01 X25.1328 Y26.1197
G01 X25.0250 Y26.1250
G01 X13.8500 Y26.1250
G00 X13.8500 Y26.1250
G01 F60.00
G01 Z-1.8000
G01 F90.00
G01 X25.0250 Y26.1250
G01 X25.1328 Y26.1197
G01 X25.2396 Y26.1039
G01 X25.3443 Y26.0776
G01 X25.4460 Y26.0413
G01 X25.5435 Y25.9951
G01 X25.6361 Y25.9396
G01 X25.7228 Y25.8753
G01 X25.8028 Y25.8028
G01 X25.8753 Y25.7228
G01 X25.9396 Y25.6361
G01 X25.9951 Y25.5435
G01 X26.0413 Y25.4460
G01 X26.0776 Y25.3443
G01 X26.1039 Y25.2396
G01 X26.1197 Y25.1328
G01 X26.1250 Y25.0250
G01 X26.1250 Y13.8500
G00 X26.1250 Y13.8500
G01 F60.00
G01 Z-2.2000
G01 F90.00
G01 X26.1250 Y25.0250
G01 X26.1197 Y25.1328
G01 X26.1039 Y25.2396
G01 X26.0776 Y25.3443
G01 X26.0413 Y25.4460
G01 X25.9951 Y25.5435
G01 X25.9396 Y25.6361
G01 X25.8753 Y25.7228
G01 X25.8028 Y25.8028
G01 X25.7228 Y25.8753
G01 X25.6361 Y25.9396
G01 X25.5435 Y25.9951
G01 X25.4460 Y26.0413
G01 X25.3443 Y26.0776
G01 X25.2396 Y26.1039
G01 X25.1328 Y26.1197
G01 X25.0250 Y26.1250
G01 X13.8500 Y26.1250
G00 Z2.0000
G00 X26.1250 Y11.3500
G01 F60.00
G01 Z-0.6000
G01 F90.00
G01 X26.1250 Y-0.0250
G01 X26.1197 Y-0.1328
G01 X26.1039 Y-0.2396
G01 X26.0776 Y-0.3443
G01 X26.0413 Y-0.4460
G01 X25.9951 Y-0.5435
G01 X25.9396 Y-0.6361
G01 X25.8753 Y-0.7228
G01 X25.8028 Y-0.8028
G01 X25.7228 Y-0.8753
G01 X25.6361 Y-0.9396
G01 X25.5435 Y-0.9951
G01 X25.4460 Y-1.0413
G01 X25.3443 Y-1.0776
G01 X25.2396 Y-1.1039
G01 X25.1328 Y-1.1197
G01 X25.0250 Y-1.1250
G01 X13.8500 Y-1.1250
G00 X13.8500 Y-1.1250
G01 F60.00
G01 Z-1.2000
G01 F90.00
G01 X25.0250 Y-1.1250
G01 X25.1328 Y-1.1197
G01 X25.2396 Y-1.1039
G01 X25.3443 Y-1.0776
G01 X25.4460 Y-1.0413
G01 X25.5435 Y-0.9951
G01 X25.6361 Y-0.9396
G01 X25.7228 Y-0.8753
G01 X25.8028 Y-0.8028
G01 X25.8753 Y-0.7228
G01 X25.9396 Y-0.6361
G01 X25.9951 Y-0.5435
G01 X26.0413 Y-0.4460
G01 X26.0776 Y-0.3443
G01 X26.1039 Y-0.2396
G01 X26.1197 Y-0.1328
G01 X26.1250 Y-0.0250
G01 X26.1250 Y11.3500
G00 X26.1250 Y11.3500
G01 F60.00
G01 Z-1.8000
G01 F90.00
G01 X26.1250 Y-0.0250
G01 X26.1197 Y-0.1328
G01 X26.1039 Y-0.2396
G01 X26.0776 Y-0.3443
G01 X26.0413 Y-0.4460
G01 X25.9951 Y-0.5435
G01 X25.9396 Y-0.6361
G01 X25.8753 Y-0.7228
G01 X25.8028 Y-0.8028
G01 X25.7228 Y-0.8753
G01 X25.6361 Y-0.9396
G01 X25.5435 Y-0.9951
G01 X25.4460 Y-1.0413
G01 X25.3443 Y-1.0776
G01 X25.2396 Y-1.1039
G01 X25.1328 Y-1.1197
G01 X25.0250 Y-1.1250
G01 X13.8500 Y-1.1250
G00 X13.8500 Y-1.1250
G01 F60.00
G01 Z-2.2000
G01 F90.00
G01 X25.0250 Y-1.1250
G01 X25.1328 Y-1.1197
G01 X25.2396 Y-1.1039
G01 X25.3443 Y-1.0776
G01 X25.4460 Y-1.0413
G01 X25.5435 Y-0.9951
G01 X25.6361 Y-0.9396
G01 X25.7228 Y-0.8753
G01 X25.8028 Y-0.8028
G01 X25.8753 Y-0.7228
G01 X25.9396 Y-0.6361
G01 X25.9951 Y-0.5435
G01 X26.0413 Y-0.4460
G01 X26.0776 Y-0.3443
G01 X26.1039 Y-0.2396
G01 X26.1197 Y-0.1328
G01 X26.1250 Y-0.0250
G01 X26.1250 Y11.3500
G00 Z2.0000
M05
G00 Z2.0000
G00 Z15.00


