(G-CODE GENERATED BY FLATCAM v8.994 - www.flatcam.org - Version Date: 2020/11/7)

(Name: Zoetrope Carusel V4 - External Power Switch_V1-F_Cu.gbr_0.1176_iso_cnc)
(Type: G-code from Geometry)
(Units: MM)

(Created on Saturday, 07 March 2026 at 16:21)

(This preprocessor is the default preprocessor used by FlatCAM.)
(It is made to work with MACH3 compatible motion controllers.)

(TOOL DIAMETER: 0.1176 mm)
(Feedrate_XY: 120.0 mm/min)
(Feedrate_Z: 60.0 mm/min)
(Feedrate rapids 1500.0 mm/min)

(Z_Cut: -0.0499 mm)
(Z_Move: 2.0 mm)
(Z Start: None mm)
(Z End: 20.0 mm)
(X,Y End: None mm)
(Steps per circle: 64)
(Preprocessor Geometry: default)

(X range:    0.6405 ...   19.9452  mm)
(Y range:    0.8476 ...   29.6524  mm)

(Spindle Speed: 10000.0 RPM)
G21
G90
G94

G01 F120.00

M5
G00 Z15.0000
G00 X0.0000 Y0.0000
T2
M6    
(MSG, Change to Tool Dia = 0.1176)
M0
G00 Z15.0000

M03 S10000.0
G01 F120.00
G00 X9.8559 Y3.6193
G01 F60.00
G01 Z-0.0499
G01 F120.00
G01 X10.0097 Y3.5683
G01 X10.1030 Y3.5588
G01 X10.3912 Y3.5588
G01 X10.3912 Y3.9412
G01 X10.1486 Y3.9412
G01 X10.1197 Y3.9427
G01 X10.0869 Y3.9478
G01 X10.0604 Y3.9545
G01 X10.0318 Y3.9647
G01 X10.0044 Y3.9777
G01 X9.9809 Y3.9917
G01 X9.9541 Y4.0113
G01 X9.9337 Y4.0297
G01 X9.9297 Y4.0337
G01 X9.9095 Y4.0564
G01 X9.8932 Y4.0784
G01 X9.8791 Y4.1019
G01 X9.8647 Y4.1318
G01 X9.8545 Y4.1604
G01 X9.8478 Y4.1869
G01 X9.8466 Y4.1926
G01 X9.8425 Y4.2226
G01 X9.8412 Y4.2500
G01 X9.8412 Y5.1912
G01 X9.4588 Y5.1912
G01 X9.4588 Y4.2030
G01 X9.4683 Y4.1097
G01 X9.5193 Y3.9559
G01 X9.6041 Y3.8184
G01 X9.7184 Y3.7041
G01 X9.8559 Y3.6193
G00 Z2.0000
G00 X9.8959 Y3.7051
G01 F60.00
G01 Z-0.0499
G01 F120.00
G01 X10.0295 Y3.6609
G01 X10.1078 Y3.6529
G01 X10.2971 Y3.6529
G01 X10.2971 Y3.8471
G01 X10.1500 Y3.8471
G01 X10.1105 Y3.8491
G01 X10.0714 Y3.8549
G01 X10.0403 Y3.8625
G01 X10.0259 Y3.8668
G01 X9.9958 Y3.8778
G01 X9.9601 Y3.8947
G01 X9.9325 Y3.9110
G01 X9.9200 Y3.9193
G01 X9.8973 Y3.9362
G01 X9.8887 Y3.9435
G01 X9.8651 Y3.9651
G01 X9.8386 Y3.9944
G01 X9.8150 Y4.0262
G01 X9.7984 Y4.0536
G01 X9.7913 Y4.0668
G01 X9.7778 Y4.0958
G01 X9.7645 Y4.1331
G01 X9.7549 Y4.1714
G01 X9.7500 Y4.2031
G01 X9.7485 Y4.2180
G01 X9.7471 Y4.2500
G01 X9.7471 Y5.0971
G01 X9.5529 Y5.0971
G01 X9.5529 Y4.2078
G01 X9.5609 Y4.1295
G01 X9.6051 Y3.9959
G01 X9.6784 Y3.8771
G01 X9.7771 Y3.7784
G01 X9.8959 Y3.7051
G00 Z2.0000
G00 X11.0088 Y3.9412
G01 F60.00
G01 Z-0.0499
G01 F120.00
G01 X11.0088 Y3.5588
G01 X11.2970 Y3.5588
G01 X11.3903 Y3.5683
G01 X11.5441 Y3.6193
G01 X11.6816 Y3.7041
G01 X11.7959 Y3.8184
G01 X11.8807 Y3.9559
G01 X11.9317 Y4.1097
G01 X11.9412 Y4.2030
G01 X11.9412 Y4.7612
G01 X11.9420 Y4.7710
G01 X11.9436 Y4.7778
G01 X11.9637 Y4.8462
G01 X11.9670 Y4.8544
G01 X11.9723 Y4.8631
G01 X11.9760 Y4.8676
G01 X11.9801 Y4.8717
G01 X12.0362 Y4.9203
G01 X12.0422 Y4.9245
G01 X12.0474 Y4.9272
G01 X12.0542 Y4.9299
G01 X12.0612 Y4.9317
G01 X12.1347 Y4.9424
G01 X12.1435 Y4.9427
G01 X12.1507 Y4.9421
G01 X12.1579 Y4.9405
G01 X12.1647 Y4.9381
G01 X12.2335 Y4.9065
G01 X12.2407 Y4.9019
G01 X12.2471 Y4.8962
G01 X12.2753 Y4.8633
G01 X12.2796 Y4.8572
G01 X12.3037 Y4.8181
G01 X12.4181 Y4.7037
G01 X12.5557 Y4.6188
G01 X12.7096 Y4.5678
G01 X12.8030 Y4.5583
G01 X13.3970 Y4.5583
G01 X13.4904 Y4.5678
G01 X13.6443 Y4.6188
G01 X13.7819 Y4.7037
G01 X13.8963 Y4.8181
G01 X13.9444 Y4.8961
G01 X13.9484 Y4.9018
G01 X13.9551 Y4.9090
G01 X14.0093 Y4.9576
G01 X14.0140 Y4.9610
G01 X14.0203 Y4.9647
G01 X14.0257 Y4.9670
G01 X14.0327 Y4.9691
G01 X14.1059 Y4.9812
G01 X14.1161 Y4.9820
G01 X14.1263 Y4.9810
G01 X14.1319 Y4.9796
G01 X14.1375 Y4.9777
G01 X14.2042 Y4.9487
G01 X14.2119 Y4.9444
G01 X14.2188 Y4.9391
G01 X14.2239 Y4.9339
G01 X14.2533 Y4.8995
G01 X14.3037 Y4.8181
G01 X14.4181 Y4.7037
G01 X14.5557 Y4.6188
G01 X14.7096 Y4.5678
G01 X14.8030 Y4.5583
G01 X15.3970 Y4.5583
G01 X15.4904 Y4.5678
G01 X15.6443 Y4.6188
G01 X15.7819 Y4.7037
G01 X15.8963 Y4.8181
G01 X15.9212 Y4.8584
G01 X15.9244 Y4.8629
G01 X15.9281 Y4.8671
G01 X15.9831 Y4.9168
G01 X15.9876 Y4.9205
G01 X15.9925 Y4.9237
G01 X15.9977 Y4.9264
G01 X16.0045 Y4.9291
G01 X16.0101 Y4.9306
G01 X16.0834 Y4.9425
G01 X16.0892 Y4.9430
G01 X16.0950 Y4.9430
G01 X16.1051 Y4.9415
G01 X16.1135 Y4.9388
G01 X16.1802 Y4.9098
G01 X16.1866 Y4.9063
G01 X16.1926 Y4.9020
G01 X16.1989 Y4.8960
G01 X16.2035 Y4.8903
G01 X16.2432 Y4.8311
G01 X16.2474 Y4.8236
G01 X16.2509 Y4.8143
G01 X16.2524 Y4.8073
G01 X16.2581 Y4.7701
G01 X16.2588 Y4.7627
G01 X16.2588 Y4.2030
G01 X16.2683 Y4.1097
G01 X16.3193 Y3.9559
G01 X16.4041 Y3.8184
G01 X16.5184 Y3.7041
G01 X16.6559 Y3.6193
G01 X16.8097 Y3.5683
G01 X16.9030 Y3.5588
G01 X17.1912 Y3.5588
G01 X17.1912 Y3.9412
G01 X16.9500 Y3.9412
G01 X16.9212 Y3.9426
G01 X16.8898 Y3.9471
G01 X16.8631 Y3.9537
G01 X16.8345 Y3.9637
G01 X16.8292 Y3.9659
G01 X16.8044 Y3.9777
G01 X16.7809 Y3.9917
G01 X16.7564 Y4.0095
G01 X16.7316 Y4.0316
G01 X16.7113 Y4.0541
G01 X16.6917 Y4.0809
G01 X16.6777 Y4.1044
G01 X16.6659 Y4.1292
G01 X16.6545 Y4.1604
G01 X16.6469 Y4.1912
G01 X16.6427 Y4.2197
G01 X16.6412 Y4.2500
G01 X16.6412 Y6.7500
G01 X16.6430 Y6.7831
G01 X16.6471 Y6.8102
G01 X16.6537 Y6.8369
G01 X16.6647 Y6.8682
G01 X16.6791 Y6.8981
G01 X16.6932 Y6.9216
G01 X16.7095 Y6.9436
G01 X16.7316 Y6.9684
G01 X16.7564 Y6.9905
G01 X16.7784 Y7.0068
G01 X16.8032 Y7.0216
G01 X16.8318 Y7.0353
G01 X16.8604 Y7.0455
G01 X16.8898 Y7.0529
G01 X16.9197 Y7.0573
G01 X16.9500 Y7.0588
G01 X17.1912 Y7.0588
G01 X17.1912 Y7.4412
G01 X16.9030 Y7.4412
G01 X16.8097 Y7.4317
G01 X16.6559 Y7.3807
G01 X16.5184 Y7.2959
G01 X16.4041 Y7.1816
G01 X16.3793 Y7.1415
G01 X16.3752 Y7.1358
G01 X16.3714 Y7.1317
G01 X16.3140 Y7.0803
G01 X16.3093 Y7.0769
G01 X16.3028 Y7.0735
G01 X16.2974 Y7.0713
G01 X16.2918 Y7.0696
G01 X16.2171 Y7.0573
G01 X16.2098 Y7.0568
G01 X16.2026 Y7.0571
G01 X16.1940 Y7.0588
G01 X16.1870 Y7.0611
G01 X16.1203 Y7.0901
G01 X16.1139 Y7.0936
G01 X16.1091 Y7.0969
G01 X16.1036 Y7.1017
G01 X16.0987 Y7.1072
G01 X16.0565 Y7.1700
G01 X16.0537 Y7.1750
G01 X16.0514 Y7.1802
G01 X16.0496 Y7.1856
G01 X16.0483 Y7.1912
G01 X16.0422 Y7.2312
G01 X16.0417 Y7.2386
G01 X16.0417 Y10.2970
G01 X16.0320 Y10.3918
G01 X16.0299 Y10.4057
G01 X16.0302 Y10.4161
G01 X16.0282 Y10.4738
G01 X16.0289 Y10.4837
G01 X16.0313 Y10.4933
G01 X16.0352 Y10.5023
G01 X16.0691 Y10.5616
G01 X16.0731 Y10.5675
G01 X16.0778 Y10.5729
G01 X18.7344 Y13.2294
G01 X18.8238 Y13.3631
G01 X18.8853 Y13.5118
G01 X18.9167 Y13.6696
G01 X18.9167 Y21.7304
G01 X18.8853 Y21.8882
G01 X18.8238 Y22.0368
G01 X18.7344 Y22.1706
G01 X15.9122 Y24.9927
G01 X15.9085 Y24.9969
G01 X15.9051 Y25.0014
G01 X15.9022 Y25.0061
G01 X15.8668 Y25.0714
G01 X15.8646 Y25.0769
G01 X15.8627 Y25.0839
G01 X15.8618 Y25.0897
G01 X15.8615 Y25.0956
G01 X15.8629 Y25.1555
G01 X15.8635 Y25.1625
G01 X15.8649 Y25.1693
G01 X15.8979 Y25.2924
G01 X15.9292 Y25.5301
G01 X15.9292 Y25.7699
G01 X15.8979 Y26.0076
G01 X15.8358 Y26.2392
G01 X15.7441 Y26.4608
G01 X15.6242 Y26.6684
G01 X15.4782 Y26.8587
G01 X15.3087 Y27.0282
G01 X15.1184 Y27.1742
G01 X14.9108 Y27.2941
G01 X14.6892 Y27.3858
G01 X14.4576 Y27.4479
G01 X14.2199 Y27.4792
G01 X13.9801 Y27.4792
G01 X13.7424 Y27.4479
G01 X13.5108 Y27.3858
G01 X13.2892 Y27.2941
G01 X13.0816 Y27.1742
G01 X12.8913 Y27.0282
G01 X12.7218 Y26.8587
G01 X12.5758 Y26.6684
G01 X12.4559 Y26.4608
G01 X12.3642 Y26.2392
G01 X12.3021 Y26.0076
G01 X12.2708 Y25.7699
G01 X12.2708 Y25.5301
G01 X12.3021 Y25.2924
G01 X12.3642 Y25.0608
G01 X12.4559 Y24.8392
G01 X12.5758 Y24.6316
G01 X12.7218 Y24.4413
G01 X12.8913 Y24.2718
G01 X13.0816 Y24.1258
G01 X13.2892 Y24.0059
G01 X13.5108 Y23.9142
G01 X13.7424 Y23.8521
G01 X13.9801 Y23.8208
G01 X14.2199 Y23.8208
G01 X14.4576 Y23.8521
G01 X14.5820 Y23.8854
G01 X14.5889 Y23.8867
G01 X14.5959 Y23.8871
G01 X14.6686 Y23.8853
G01 X14.6744 Y23.8848
G01 X14.6816 Y23.8832
G01 X14.6885 Y23.8808
G01 X14.6951 Y23.8776
G01 X14.7486 Y23.8449
G01 X14.7531 Y23.8415
G01 X14.7573 Y23.8378
G01 X17.2298 Y21.3653
G01 X17.2353 Y21.3589
G01 X17.2391 Y21.3531
G01 X17.2752 Y21.2867
G01 X17.2782 Y21.2785
G01 X17.2798 Y21.2715
G01 X17.2830 Y21.2423
G01 X17.2833 Y21.2360
G01 X17.2833 Y14.1640
G01 X17.2827 Y14.1556
G01 X17.2809 Y14.1474
G01 X17.2612 Y14.0804
G01 X17.2588 Y14.0736
G01 X17.2555 Y14.0672
G01 X17.2524 Y14.0624
G01 X17.2340 Y14.0394
G01 X17.2298 Y14.0347
G01 X14.4656 Y11.2706
G01 X14.3763 Y11.1369
G01 X14.3147 Y10.9882
G01 X14.2833 Y10.8304
G01 X14.2833 Y10.6992
G01 X14.2821 Y10.6889
G01 X14.2787 Y10.6764
G01 X14.2789 Y10.6660
G01 X14.2782 Y10.6586
G01 X14.2765 Y10.6514
G01 X14.2746 Y10.6458
G01 X14.2581 Y10.6083
G01 X14.2524 Y10.5992
G01 X14.2459 Y10.5919
G01 X14.1918 Y10.5433
G01 X14.1859 Y10.5389
G01 X14.1796 Y10.5353
G01 X14.1715 Y10.5320
G01 X14.1630 Y10.5300
G01 X14.0926 Y10.5186
G01 X14.0867 Y10.5181
G01 X14.0795 Y10.5182
G01 X14.0708 Y10.5197
G01 X14.0625 Y10.5223
G01 X13.9957 Y10.5514
G01 X13.9906 Y10.5541
G01 X13.9857 Y10.5573
G01 X13.9812 Y10.5610
G01 X13.9770 Y10.5651
G01 X13.9483 Y10.5983
G01 X13.9444 Y10.6038
G01 X13.9411 Y10.6098
G01 X13.9383 Y10.6167
G01 X13.9356 Y10.6259
G01 X13.9291 Y10.6364
G01 X13.9254 Y10.6459
G01 X13.9240 Y10.6515
G01 X13.9231 Y10.6573
G01 X13.9227 Y10.6713
G01 X13.9185 Y10.6860
G01 X13.9174 Y10.6918
G01 X13.9167 Y10.7007
G01 X13.9167 Y11.8304
G01 X13.8853 Y11.9882
G01 X13.8238 Y12.1368
G01 X13.7344 Y12.2706
G01 X11.4702 Y14.5347
G01 X11.4656 Y14.5400
G01 X11.4609 Y14.5469
G01 X11.4254 Y14.6120
G01 X11.4222 Y14.6201
G01 X11.4202 Y14.6285
G01 X11.4170 Y14.6577
G01 X11.4167 Y14.6640
G01 X11.4167 Y17.3360
G01 X11.4171 Y17.3430
G01 X11.4187 Y17.3512
G01 X11.4392 Y17.4210
G01 X11.4431 Y17.4303
G01 X11.4485 Y17.4388
G01 X11.4660 Y17.4606
G01 X11.4702 Y17.4652
G01 X12.7309 Y18.7259
G01 X12.7365 Y18.7308
G01 X12.7414 Y18.7343
G01 X12.7982 Y18.7675
G01 X12.8050 Y18.7707
G01 X12.8107 Y18.7726
G01 X14.0286 Y19.1147
G01 X14.0674 Y19.1202
G01 X14.0741 Y19.1208
G01 X14.2199 Y19.1208
G01 X14.4576 Y19.1521
G01 X14.6892 Y19.2142
G01 X14.9108 Y19.3059
G01 X15.1184 Y19.4258
G01 X15.3087 Y19.5718
G01 X15.4782 Y19.7413
G01 X15.6242 Y19.9316
G01 X15.7441 Y20.1392
G01 X15.8358 Y20.3608
G01 X15.8979 Y20.5924
G01 X15.9292 Y20.8301
G01 X15.9292 Y21.0699
G01 X15.8979 Y21.3076
G01 X15.8358 Y21.5392
G01 X15.7441 Y21.7608
G01 X15.6242 Y21.9684
G01 X15.5778 Y22.0289
G01 X15.4782 Y22.1587
G01 X15.3087 Y22.3282
G01 X15.1184 Y22.4742
G01 X14.9108 Y22.5941
G01 X14.6892 Y22.6858
G01 X14.4576 Y22.7479
G01 X14.2199 Y22.7792
G01 X13.9801 Y22.7792
G01 X13.7424 Y22.7479
G01 X13.5108 Y22.6858
G01 X13.2892 Y22.5941
G01 X13.0816 Y22.4742
G01 X12.8913 Y22.3282
G01 X12.7218 Y22.1587
G01 X12.5758 Y21.9684
G01 X12.4559 Y21.7608
G01 X12.3642 Y21.5392
G01 X12.3021 Y21.3076
G01 X12.2974 Y21.2721
G01 X12.2961 Y21.2652
G01 X12.2831 Y21.2227
G01 X12.2800 Y21.2148
G01 X11.6504 Y19.9683
G01 X11.6465 Y19.9616
G01 X11.6226 Y19.9286
G01 X11.6165 Y19.9215
G01 X9.9656 Y18.2706
G01 X9.8763 Y18.1369
G01 X9.8147 Y17.9882
G01 X9.7833 Y17.8304
G01 X9.7833 Y14.1696
G01 X9.8147 Y14.0118
G01 X9.8762 Y13.8632
G01 X9.9656 Y13.7294
G01 X12.2307 Y11.4643
G01 X12.2353 Y11.4589
G01 X12.2391 Y11.4531
G01 X12.2733 Y11.3905
G01 X12.2758 Y11.3853
G01 X12.2782 Y11.3785
G01 X12.2798 Y11.3715
G01 X12.2831 Y11.3407
G01 X12.2833 Y10.7007
G01 X12.2828 Y10.6933
G01 X12.2811 Y10.6846
G01 X12.2612 Y10.6153
G01 X12.2568 Y10.6060
G01 X12.2188 Y10.5443
G01 X12.1678 Y10.3904
G01 X12.1583 Y10.2970
G01 X12.1583 Y7.2386
G01 X12.1579 Y7.2316
G01 X12.1563 Y7.2234
G01 X12.1358 Y7.1536
G01 X12.1331 Y7.1468
G01 X12.1297 Y7.1404
G01 X12.1254 Y7.1345
G01 X12.1205 Y7.1291
G01 X12.0644 Y7.0804
G01 X12.0585 Y7.0762
G01 X12.0534 Y7.0733
G01 X12.0453 Y7.0700
G01 X12.0368 Y7.0679
G01 X11.9648 Y7.0575
G01 X11.9546 Y7.0572
G01 X11.9488 Y7.0578
G01 X11.9430 Y7.0590
G01 X11.9334 Y7.0624
G01 X11.8699 Y7.0914
G01 X11.8636 Y7.0948
G01 X11.8577 Y7.0989
G01 X11.8504 Y7.1057
G01 X11.8233 Y7.1378
G01 X11.8199 Y7.1427
G01 X11.7959 Y7.1816
G01 X11.6816 Y7.2959
G01 X11.5441 Y7.3807
G01 X11.3903 Y7.4317
G01 X11.2970 Y7.4412
G01 X11.0088 Y7.4412
G01 X11.0088 Y7.0588
G01 X11.2500 Y7.0588
G01 X11.2788 Y7.0574
G01 X11.3102 Y7.0529
G01 X11.3369 Y7.0463
G01 X11.3655 Y7.0363
G01 X11.3708 Y7.0341
G01 X11.3956 Y7.0223
G01 X11.4191 Y7.0083
G01 X11.4436 Y6.9905
G01 X11.4684 Y6.9684
G01 X11.4887 Y6.9459
G01 X11.5083 Y6.9191
G01 X11.5223 Y6.8956
G01 X11.5341 Y6.8708
G01 X11.5455 Y6.8396
G01 X11.5531 Y6.8088
G01 X11.5573 Y6.7803
G01 X11.5588 Y6.7500
G01 X11.5588 Y4.2500
G01 X11.5570 Y4.2169
G01 X11.5529 Y4.1898
G01 X11.5463 Y4.1631
G01 X11.5353 Y4.1318
G01 X11.5209 Y4.1019
G01 X11.5068 Y4.0784
G01 X11.4905 Y4.0564
G01 X11.4684 Y4.0316
G01 X11.4436 Y4.0095
G01 X11.4216 Y3.9932
G01 X11.3968 Y3.9784
G01 X11.3682 Y3.9647
G01 X11.3396 Y3.9545
G01 X11.3102 Y3.9471
G01 X11.2803 Y3.9427
G01 X11.2500 Y3.9412
G01 X11.0088 Y3.9412
G00 Z2.0000
G00 X11.1029 Y3.8471
G01 F60.00
G01 Z-0.0499
G01 F120.00
G01 X11.1029 Y3.6529
G01 X11.2922 Y3.6529
G01 X11.3705 Y3.6609
G01 X11.5041 Y3.7051
G01 X11.6229 Y3.7784
G01 X11.7216 Y3.8771
G01 X11.7949 Y3.9959
G01 X11.8391 Y4.1295
G01 X11.8471 Y4.2078
G01 X11.8471 Y4.7612
G01 X11.8475 Y4.7721
G01 X11.8487 Y4.7830
G01 X11.8506 Y4.7937
G01 X11.8523 Y4.8008
G01 X11.8730 Y4.8713
G01 X11.8780 Y4.8857
G01 X11.8827 Y4.8961
G01 X11.8881 Y4.9061
G01 X11.8942 Y4.9157
G01 X11.9011 Y4.9248
G01 X11.9086 Y4.9333
G01 X11.9167 Y4.9413
G01 X11.9724 Y4.9896
G01 X11.9812 Y4.9967
G01 X11.9939 Y5.0051
G01 X12.0073 Y5.0123
G01 X12.0213 Y5.0181
G01 X12.0358 Y5.0225
G01 X12.0507 Y5.0254
G01 X12.1274 Y5.0362
G01 X12.1426 Y5.0369
G01 X12.1502 Y5.0366
G01 X12.1615 Y5.0356
G01 X12.1690 Y5.0344
G01 X12.1801 Y5.0319
G01 X12.1910 Y5.0287
G01 X12.1982 Y5.0260
G01 X12.2754 Y4.9908
G01 X12.2851 Y4.9853
G01 X12.2974 Y4.9769
G01 X12.3088 Y4.9674
G01 X12.3167 Y4.9595
G01 X12.3460 Y4.9254
G01 X12.3532 Y4.9162
G01 X12.3597 Y4.9066
G01 X12.3780 Y4.8768
G01 X12.4768 Y4.7780
G01 X12.5957 Y4.7047
G01 X12.7294 Y4.6604
G01 X12.8078 Y4.6524
G01 X13.3922 Y4.6524
G01 X13.4706 Y4.6604
G01 X13.6043 Y4.7047
G01 X13.7232 Y4.7780
G01 X13.8220 Y4.8768
G01 X13.8663 Y4.9486
G01 X13.8726 Y4.9575
G01 X13.8819 Y4.9687
G01 X13.8922 Y4.9789
G01 X13.9442 Y5.0256
G01 X13.9529 Y5.0329
G01 X13.9622 Y5.0396
G01 X13.9752 Y5.0473
G01 X13.9855 Y5.0522
G01 X13.9961 Y5.0563
G01 X14.0107 Y5.0606
G01 X14.0219 Y5.0629
G01 X14.0946 Y5.0746
G01 X14.1059 Y5.0758
G01 X14.1173 Y5.0761
G01 X14.1324 Y5.0751
G01 X14.1437 Y5.0734
G01 X14.1548 Y5.0709
G01 X14.1693 Y5.0663
G01 X14.2473 Y5.0324
G01 X14.2605 Y5.0250
G01 X14.2730 Y5.0163
G01 X14.2817 Y5.0090
G01 X14.2925 Y4.9983
G01 X14.3211 Y4.9654
G01 X14.3277 Y4.9571
G01 X14.3357 Y4.9455
G01 X14.3780 Y4.8768
G01 X14.4768 Y4.7780
G01 X14.5957 Y4.7047
G01 X14.7294 Y4.6604
G01 X14.8078 Y4.6524
G01 X15.3922 Y4.6524
G01 X15.4706 Y4.6604
G01 X15.6043 Y4.7047
G01 X15.7232 Y4.7780
G01 X15.8220 Y4.8768
G01 X15.8443 Y4.9127
G01 X15.8508 Y4.9215
G01 X15.8604 Y4.9324
G01 X15.8682 Y4.9400
G01 X15.9230 Y4.9892
G01 X15.9319 Y4.9963
G01 X15.9382 Y5.0006
G01 X15.9479 Y5.0066
G01 X15.9615 Y5.0133
G01 X15.9721 Y5.0174
G01 X15.9867 Y5.0217
G01 X15.9979 Y5.0240
G01 X16.0706 Y5.0357
G01 X16.0819 Y5.0369
G01 X16.0971 Y5.0371
G01 X16.1084 Y5.0362
G01 X16.1234 Y5.0338
G01 X16.1345 Y5.0310
G01 X16.1488 Y5.0260
G01 X16.2233 Y4.9935
G01 X16.2365 Y4.9861
G01 X16.2490 Y4.9774
G01 X16.2577 Y4.9701
G01 X16.2659 Y4.9622
G01 X16.2735 Y4.9536
G01 X16.2804 Y4.9446
G01 X16.3253 Y4.8771
G01 X16.3290 Y4.8707
G01 X16.3339 Y4.8606
G01 X16.3393 Y4.8468
G01 X16.3433 Y4.8325
G01 X16.3454 Y4.8215
G01 X16.3517 Y4.7806
G01 X16.3528 Y4.7651
G01 X16.3529 Y4.2078
G01 X16.3609 Y4.1295
G01 X16.4051 Y3.9959
G01 X16.4784 Y3.8771
G01 X16.5771 Y3.7784
G01 X16.6959 Y3.7051
G01 X16.8295 Y3.6609
G01 X16.9078 Y3.6529
G01 X17.0971 Y3.6529
G01 X17.0971 Y3.8471
G01 X16.9462 Y3.8472
G01 X16.9105 Y3.8491
G01 X16.8751 Y3.8542
G01 X16.8641 Y3.8565
G01 X16.8331 Y3.8645
G01 X16.7993 Y3.8764
G01 X16.7890 Y3.8808
G01 X16.7634 Y3.8930
G01 X16.7536 Y3.8984
G01 X16.7325 Y3.9110
G01 X16.7200 Y3.9193
G01 X16.6944 Y3.9386
G01 X16.6651 Y3.9651
G01 X16.6386 Y3.9944
G01 X16.6150 Y4.0262
G01 X16.5947 Y4.0601
G01 X16.5778 Y4.0958
G01 X16.5645 Y4.1331
G01 X16.5565 Y4.1641
G01 X16.5542 Y4.1751
G01 X16.5491 Y4.2105
G01 X16.5471 Y4.2500
G01 X16.5471 Y6.7500
G01 X16.5491 Y6.7895
G01 X16.5536 Y6.8212
G01 X16.5565 Y6.8359
G01 X16.5645 Y6.8669
G01 X16.5751 Y6.8972
G01 X16.5808 Y6.9110
G01 X16.5947 Y6.9399
G01 X16.6150 Y6.9738
G01 X16.6340 Y6.9997
G01 X16.6435 Y7.0113
G01 X16.6625 Y7.0322
G01 X16.6706 Y7.0401
G01 X16.6944 Y7.0614
G01 X16.7200 Y7.0807
G01 X16.7325 Y7.0890
G01 X16.7601 Y7.1053
G01 X16.7958 Y7.1222
G01 X16.8331 Y7.1355
G01 X16.8714 Y7.1451
G01 X16.9105 Y7.1509
G01 X16.9462 Y7.1528
G01 X17.0971 Y7.1529
G01 X17.0971 Y7.3471
G01 X16.9078 Y7.3471
G01 X16.8295 Y7.3391
G01 X16.6959 Y7.2949
G01 X16.5771 Y7.2216
G01 X16.4784 Y7.1229
G01 X16.4562 Y7.0872
G01 X16.4474 Y7.0756
G01 X16.4401 Y7.0674
G01 X16.4323 Y7.0599
G01 X16.3746 Y7.0082
G01 X16.3655 Y7.0013
G01 X16.3591 Y6.9972
G01 X16.3492 Y6.9915
G01 X16.3424 Y6.9881
G01 X16.3319 Y6.9837
G01 X16.3211 Y6.9801
G01 X16.3101 Y6.9773
G01 X16.3026 Y6.9759
G01 X16.2262 Y6.9637
G01 X16.2148 Y6.9628
G01 X16.2072 Y6.9627
G01 X16.1996 Y6.9630
G01 X16.1883 Y6.9641
G01 X16.1771 Y6.9661
G01 X16.1697 Y6.9679
G01 X16.1552 Y6.9725
G01 X16.0772 Y7.0064
G01 X16.0672 Y7.0118
G01 X16.0608 Y7.0159
G01 X16.0485 Y7.0248
G01 X16.0373 Y7.0350
G01 X16.0320 Y7.0405
G01 X16.0247 Y7.0492
G01 X16.0180 Y7.0584
G01 X15.9771 Y7.1196
G01 X15.9698 Y7.1325
G01 X15.9651 Y7.1426
G01 X15.9624 Y7.1496
G01 X15.9590 Y7.1602
G01 X15.9557 Y7.1747
G01 X15.9488 Y7.2193
G01 X15.9481 Y7.2270
G01 X15.9476 Y7.2386
G01 X15.9476 Y10.2922
G01 X15.9388 Y10.3781
G01 X15.9368 Y10.3911
G01 X15.9359 Y10.4020
G01 X15.9341 Y10.4745
G01 X15.9345 Y10.4858
G01 X15.9364 Y10.5007
G01 X15.9388 Y10.5118
G01 X15.9432 Y10.5262
G01 X15.9474 Y10.5367
G01 X15.9524 Y10.5469
G01 X15.9905 Y10.6134
G01 X15.9946 Y10.6195
G01 X16.0013 Y10.6284
G01 X16.0113 Y10.6394
G01 X18.6613 Y13.2894
G01 X18.7404 Y13.4077
G01 X18.7949 Y13.5392
G01 X18.8226 Y13.6788
G01 X18.8226 Y21.7212
G01 X18.7949 Y21.8608
G01 X18.7404 Y21.9923
G01 X18.6613 Y22.1106
G01 X15.8457 Y24.9262
G01 X15.8359 Y24.9370
G01 X15.8272 Y24.9486
G01 X15.8196 Y24.9611
G01 X15.7862 Y25.0224
G01 X15.7795 Y25.0361
G01 X15.7743 Y25.0504
G01 X15.7713 Y25.0615
G01 X15.7687 Y25.0765
G01 X15.7675 Y25.0917
G01 X15.7689 Y25.1577
G01 X15.7695 Y25.1686
G01 X15.7704 Y25.1759
G01 X15.7716 Y25.1830
G01 X15.7741 Y25.1937
G01 X15.8054 Y25.3108
G01 X15.8351 Y25.5363
G01 X15.8351 Y25.7637
G01 X15.8054 Y25.9892
G01 X15.7466 Y26.2089
G01 X15.6595 Y26.4191
G01 X15.5458 Y26.6160
G01 X15.4073 Y26.7965
G01 X15.2465 Y26.9573
G01 X15.0661 Y27.0958
G01 X14.8691 Y27.2095
G01 X14.6589 Y27.2966
G01 X14.4392 Y27.3554
G01 X14.2137 Y27.3851
G01 X13.9863 Y27.3851
G01 X13.7608 Y27.3554
G01 X13.5411 Y27.2966
G01 X13.3309 Y27.2095
G01 X13.1340 Y27.0958
G01 X12.9535 Y26.9573
G01 X12.7927 Y26.7965
G01 X12.6542 Y26.6161
G01 X12.5405 Y26.4191
G01 X12.4534 Y26.2089
G01 X12.3946 Y25.9892
G01 X12.3649 Y25.7637
G01 X12.3649 Y25.5363
G01 X12.3946 Y25.3108
G01 X12.4534 Y25.0911
G01 X12.5405 Y24.8809
G01 X12.6542 Y24.6840
G01 X12.7927 Y24.5035
G01 X12.9535 Y24.3427
G01 X13.1340 Y24.2042
G01 X13.3309 Y24.0905
G01 X13.5411 Y24.0034
G01 X13.7608 Y23.9446
G01 X13.9863 Y23.9149
G01 X14.2137 Y23.9149
G01 X14.4392 Y23.9446
G01 X14.5599 Y23.9768
G01 X14.5670 Y23.9784
G01 X14.5778 Y23.9801
G01 X14.5886 Y23.9810
G01 X14.5959 Y23.9812
G01 X14.6770 Y23.9791
G01 X14.6846 Y23.9783
G01 X14.6959 Y23.9765
G01 X14.7106 Y23.9728
G01 X14.7250 Y23.9676
G01 X14.7319 Y23.9644
G01 X14.7420 Y23.9591
G01 X14.7983 Y23.9248
G01 X14.8102 Y23.9164
G01 X14.8185 Y23.9093
G01 X14.8238 Y23.9043
G01 X17.2963 Y21.4318
G01 X17.3013 Y21.4265
G01 X17.3084 Y21.4182
G01 X17.3148 Y21.4094
G01 X17.3187 Y21.4032
G01 X17.3558 Y21.3356
G01 X17.3609 Y21.3256
G01 X17.3651 Y21.3151
G01 X17.3676 Y21.3080
G01 X17.3705 Y21.2972
G01 X17.3721 Y21.2898
G01 X17.3737 Y21.2787
G01 X17.3765 Y21.2523
G01 X17.3774 Y21.2360
G01 X17.3774 Y14.1640
G01 X17.3770 Y14.1531
G01 X17.3758 Y14.1422
G01 X17.3739 Y14.1315
G01 X17.3722 Y14.1244
G01 X17.3515 Y14.0539
G01 X17.3479 Y14.0432
G01 X17.3436 Y14.0328
G01 X17.3366 Y14.0195
G01 X17.3284 Y14.0070
G01 X17.3072 Y13.9804
G01 X17.2991 Y13.9712
G01 X14.5387 Y11.2106
G01 X14.4596 Y11.0923
G01 X14.4052 Y10.9608
G01 X14.3774 Y10.8212
G01 X14.3773 Y10.6968
G01 X14.3762 Y10.6815
G01 X14.3750 Y10.6739
G01 X14.3729 Y10.6640
G01 X14.3725 Y10.6553
G01 X14.3711 Y10.6438
G01 X14.3679 Y10.6287
G01 X14.3632 Y10.6141
G01 X14.3447 Y10.5712
G01 X14.3380 Y10.5583
G01 X14.3316 Y10.5483
G01 X14.3252 Y10.5395
G01 X14.3181 Y10.5312
G01 X14.3104 Y10.5235
G01 X14.2500 Y10.4694
G01 X14.2377 Y10.4604
G01 X14.2247 Y10.4527
G01 X14.2144 Y10.4478
G01 X14.2038 Y10.4436
G01 X14.1929 Y10.4403
G01 X14.1818 Y10.4378
G01 X14.1053 Y10.4254
G01 X14.0902 Y10.4240
G01 X14.0750 Y10.4242
G01 X14.0637 Y10.4254
G01 X14.0525 Y10.4273
G01 X14.0378 Y10.4313
G01 X14.0271 Y10.4351
G01 X13.9527 Y10.4677
G01 X13.9460 Y10.4712
G01 X13.9362 Y10.4771
G01 X13.9270 Y10.4838
G01 X13.9211 Y10.4885
G01 X13.9127 Y10.4963
G01 X13.9075 Y10.5017
G01 X13.8789 Y10.5346
G01 X13.8702 Y10.5456
G01 X13.8639 Y10.5552
G01 X13.8565 Y10.5687
G01 X13.8518 Y10.5792
G01 X13.8492 Y10.5865
G01 X13.8450 Y10.5942
G01 X13.8403 Y10.6045
G01 X13.8352 Y10.6188
G01 X13.8316 Y10.6336
G01 X13.8299 Y10.6448
G01 X13.8289 Y10.6572
G01 X13.8257 Y10.6701
G01 X13.8238 Y10.6815
G01 X13.8231 Y10.6891
G01 X13.8226 Y10.7007
G01 X13.8226 Y11.8212
G01 X13.7949 Y11.9608
G01 X13.7404 Y12.0923
G01 X13.6613 Y12.2106
G01 X11.4012 Y14.4708
G01 X11.3939 Y14.4790
G01 X11.3894 Y14.4847
G01 X11.3813 Y14.4968
G01 X11.3407 Y14.5711
G01 X11.3362 Y14.5814
G01 X11.3336 Y14.5884
G01 X11.3304 Y14.5992
G01 X11.3279 Y14.6102
G01 X11.3263 Y14.6213
G01 X11.3235 Y14.6477
G01 X11.3226 Y14.6640
G01 X11.3226 Y17.3360
G01 X11.3228 Y17.3433
G01 X11.3237 Y17.3541
G01 X11.3247 Y17.3613
G01 X11.3269 Y17.3720
G01 X11.3496 Y17.4497
G01 X11.3534 Y17.4603
G01 X11.3580 Y17.4705
G01 X11.3634 Y17.4805
G01 X11.3716 Y17.4930
G01 X11.3954 Y17.5227
G01 X11.4037 Y17.5318
G01 X12.6643 Y18.7924
G01 X12.6759 Y18.8029
G01 X12.6886 Y18.8121
G01 X12.7527 Y18.8499
G01 X12.7632 Y18.8551
G01 X12.7704 Y18.8582
G01 X12.7852 Y18.8632
G01 X14.0073 Y19.2063
G01 X14.0210 Y19.2088
G01 X14.0580 Y19.2139
G01 X14.0684 Y19.2147
G01 X14.2137 Y19.2149
G01 X14.4392 Y19.2446
G01 X14.6589 Y19.3034
G01 X14.8691 Y19.3905
G01 X15.0660 Y19.5042
G01 X15.2465 Y19.6427
G01 X15.4073 Y19.8035
G01 X15.5458 Y19.9840
G01 X15.6595 Y20.1809
G01 X15.7466 Y20.3911
G01 X15.8054 Y20.6108
G01 X15.8351 Y20.8363
G01 X15.8351 Y21.0637
G01 X15.8054 Y21.2892
G01 X15.7466 Y21.5089
G01 X15.6595 Y21.7191
G01 X15.5458 Y21.9160
G01 X15.5031 Y21.9716
G01 X15.4073 Y22.0965
G01 X15.2465 Y22.2573
G01 X15.0661 Y22.3958
G01 X14.8691 Y22.5095
G01 X14.6589 Y22.5966
G01 X14.4392 Y22.6554
G01 X14.2137 Y22.6851
G01 X13.9863 Y22.6851
G01 X13.7608 Y22.6554
G01 X13.5411 Y22.5966
G01 X13.3309 Y22.5095
G01 X13.1340 Y22.3958
G01 X12.9535 Y22.2573
G01 X12.7927 Y22.0965
G01 X12.6542 Y21.9161
G01 X12.5405 Y21.7191
G01 X12.4534 Y21.5089
G01 X12.3946 Y21.2892
G01 X12.3902 Y21.2562
G01 X12.3872 Y21.2418
G01 X12.3718 Y21.1915
G01 X12.3693 Y21.1846
G01 X12.3649 Y21.1744
G01 X11.7344 Y19.9259
G01 X11.7305 Y19.9188
G01 X11.7241 Y19.9085
G01 X11.6988 Y19.8734
G01 X11.6913 Y19.8639
G01 X11.6830 Y19.8550
G01 X10.0387 Y18.2106
G01 X9.9596 Y18.0923
G01 X9.9052 Y17.9608
G01 X9.8774 Y17.8212
G01 X9.8774 Y14.1788
G01 X9.9051 Y14.0392
G01 X9.9596 Y13.9077
G01 X10.0387 Y13.7894
G01 X12.2988 Y11.5292
G01 X12.3061 Y11.5210
G01 X12.3106 Y11.5153
G01 X12.3187 Y11.5032
G01 X12.3558 Y11.4356
G01 X12.3624 Y11.4221
G01 X12.3676 Y11.4080
G01 X12.3713 Y11.3935
G01 X12.3732 Y11.3824
G01 X12.3769 Y11.3483
G01 X12.3774 Y11.3360
G01 X12.3774 Y10.7007
G01 X12.3769 Y10.6892
G01 X12.3762 Y10.6815
G01 X12.3750 Y10.6739
G01 X12.3726 Y10.6627
G01 X12.3531 Y10.5939
G01 X12.3496 Y10.5829
G01 X12.3436 Y10.5688
G01 X12.3381 Y10.5586
G01 X12.3047 Y10.5043
G01 X12.2604 Y10.3706
G01 X12.2524 Y10.2922
G01 X12.2524 Y7.2386
G01 X12.2522 Y7.2313
G01 X12.2513 Y7.2205
G01 X12.2503 Y7.2133
G01 X12.2481 Y7.2026
G01 X12.2254 Y7.1249
G01 X12.2200 Y7.1107
G01 X12.2168 Y7.1038
G01 X12.2114 Y7.0938
G01 X12.2030 Y7.0811
G01 X12.1984 Y7.0751
G01 X12.1909 Y7.0665
G01 X12.1799 Y7.0560
G01 X12.1242 Y7.0078
G01 X12.1120 Y6.9988
G01 X12.0990 Y6.9910
G01 X12.0888 Y6.9860
G01 X12.0782 Y6.9818
G01 X12.0710 Y6.9794
G01 X12.0600 Y6.9765
G01 X12.0488 Y6.9745
G01 X11.9796 Y6.9646
G01 X11.9645 Y6.9631
G01 X11.9531 Y6.9631
G01 X11.9417 Y6.9639
G01 X11.9267 Y6.9662
G01 X11.9121 Y6.9700
G01 X11.8978 Y6.9753
G01 X11.8308 Y7.0058
G01 X11.8241 Y7.0091
G01 X11.8144 Y7.0146
G01 X11.8082 Y7.0186
G01 X11.7992 Y7.0252
G01 X11.7907 Y7.0325
G01 X11.7828 Y7.0403
G01 X11.7510 Y7.0775
G01 X11.7419 Y7.0900
G01 X11.7216 Y7.1229
G01 X11.6229 Y7.2216
G01 X11.5041 Y7.2949
G01 X11.3705 Y7.3391
G01 X11.2922 Y7.3471
G01 X11.1029 Y7.3471
G01 X11.1029 Y7.1529
G01 X11.2538 Y7.1528
G01 X11.2895 Y7.1509
G01 X11.3249 Y7.1458
G01 X11.3359 Y7.1435
G01 X11.3669 Y7.1355
G01 X11.4007 Y7.1236
G01 X11.4110 Y7.1192
G01 X11.4366 Y7.1070
G01 X11.4464 Y7.1016
G01 X11.4675 Y7.0890
G01 X11.4800 Y7.0807
G01 X11.5056 Y7.0614
G01 X11.5349 Y7.0349
G01 X11.5614 Y7.0056
G01 X11.5850 Y6.9738
G01 X11.6053 Y6.9399
G01 X11.6222 Y6.9042
G01 X11.6355 Y6.8669
G01 X11.6435 Y6.8359
G01 X11.6458 Y6.8249
G01 X11.6509 Y6.7895
G01 X11.6529 Y6.7500
G01 X11.6529 Y4.2500
G01 X11.6509 Y4.2105
G01 X11.6464 Y4.1788
G01 X11.6435 Y4.1641
G01 X11.6355 Y4.1331
G01 X11.6249 Y4.1028
G01 X11.6192 Y4.0890
G01 X11.6053 Y4.0601
G01 X11.5850 Y4.0262
G01 X11.5660 Y4.0003
G01 X11.5565 Y3.9887
G01 X11.5375 Y3.9678
G01 X11.5294 Y3.9599
G01 X11.5056 Y3.9386
G01 X11.4800 Y3.9193
G01 X11.4675 Y3.9110
G01 X11.4399 Y3.8947
G01 X11.4042 Y3.8778
G01 X11.3669 Y3.8645
G01 X11.3286 Y3.8549
G01 X11.2895 Y3.8491
G01 X11.2538 Y3.8472
G01 X11.1029 Y3.8471
G00 Z2.0000
G00 X9.5529 Y6.7922
G01 F60.00
G01 Z-0.0499
G01 F120.00
G01 X9.5529 Y5.9029
G01 X9.7471 Y5.9029
G01 X9.7472 Y6.7538
G01 X9.7491 Y6.7895
G01 X9.7549 Y6.8286
G01 X9.7645 Y6.8669
G01 X9.7764 Y6.9007
G01 X9.7808 Y6.9110
G01 X9.7947 Y6.9399
G01 X9.8130 Y6.9707
G01 X9.8193 Y6.9800
G01 X9.8362 Y7.0027
G01 X9.8435 Y7.0113
G01 X9.8599 Y7.0294
G01 X9.8678 Y7.0375
G01 X9.8915 Y7.0590
G01 X9.9003 Y7.0660
G01 X9.9200 Y7.0807
G01 X9.9325 Y7.0890
G01 X9.9568 Y7.1035
G01 X9.9668 Y7.1087
G01 X9.9958 Y7.1222
G01 X10.0331 Y7.1355
G01 X10.0714 Y7.1451
G01 X10.1068 Y7.1505
G01 X10.1180 Y7.1515
G01 X10.1462 Y7.1528
G01 X10.2971 Y7.1529
G01 X10.2971 Y7.3471
G01 X10.1078 Y7.3471
G01 X10.0295 Y7.3391
G01 X9.8959 Y7.2949
G01 X9.7771 Y7.2216
G01 X9.6784 Y7.1229
G01 X9.6051 Y7.0041
G01 X9.5609 Y6.8705
G01 X9.5529 Y6.7922
G00 Z2.0000
G00 X9.4588 Y6.7970
G01 F60.00
G01 Z-0.0499
G01 F120.00
G01 X9.4588 Y5.8088
G01 X9.8412 Y5.8088
G01 X9.8412 Y6.7514
G01 X9.8427 Y6.7803
G01 X9.8466 Y6.8074
G01 X9.8478 Y6.8131
G01 X9.8549 Y6.8410
G01 X9.8647 Y6.8682
G01 X9.8791 Y6.8981
G01 X9.8932 Y6.9216
G01 X9.9095 Y6.9436
G01 X9.9297 Y6.9663
G01 X9.9541 Y6.9887
G01 X9.9784 Y7.0068
G01 X10.0044 Y7.0223
G01 X10.0318 Y7.0353
G01 X10.0604 Y7.0455
G01 X10.0869 Y7.0522
G01 X10.0926 Y7.0534
G01 X10.1212 Y7.0574
G01 X10.1500 Y7.0588
G01 X10.3912 Y7.0588
G01 X10.3912 Y7.4412
G01 X10.1030 Y7.4412
G01 X10.0097 Y7.4317
G01 X9.8559 Y7.3807
G01 X9.7184 Y7.2959
G01 X9.6041 Y7.1816
G01 X9.5193 Y7.0441
G01 X9.4683 Y6.8903
G01 X9.4588 Y6.7970
G00 Z2.0000
G00 X17.8088 Y7.0588
G01 F60.00
G01 Z-0.0499
G01 F120.00
G01 X18.0514 Y7.0588
G01 X18.0803 Y7.0573
G01 X18.1131 Y7.0522
G01 X18.1396 Y7.0455
G01 X18.1682 Y7.0353
G01 X18.1956 Y7.0223
G01 X18.2191 Y7.0083
G01 X18.2459 Y6.9887
G01 X18.2663 Y6.9703
G01 X18.2703 Y6.9663
G01 X18.2905 Y6.9436
G01 X18.3068 Y6.9216
G01 X18.3209 Y6.8981
G01 X18.3353 Y6.8682
G01 X18.3455 Y6.8396
G01 X18.3522 Y6.8131
G01 X18.3534 Y6.8074
G01 X18.3575 Y6.7774
G01 X18.3588 Y6.7500
G01 X18.3588 Y5.8088
G01 X18.7412 Y5.8088
G01 X18.7412 Y6.7970
G01 X18.7317 Y6.8903
G01 X18.6807 Y7.0441
G01 X18.5959 Y7.1816
G01 X18.4816 Y7.2959
G01 X18.3441 Y7.3807
G01 X18.1903 Y7.4317
G01 X18.0970 Y7.4412
G01 X17.8088 Y7.4412
G01 X17.8088 Y7.0588
G00 Z2.0000
G00 X17.9029 Y7.1529
G01 F60.00
G01 Z-0.0499
G01 F120.00
G01 X18.0500 Y7.1529
G01 X18.0895 Y7.1509
G01 X18.1286 Y7.1451
G01 X18.1597 Y7.1375
G01 X18.1741 Y7.1332
G01 X18.2042 Y7.1222
G01 X18.2399 Y7.1053
G01 X18.2675 Y7.0890
G01 X18.2800 Y7.0807
G01 X18.3027 Y7.0638
G01 X18.3113 Y7.0565
G01 X18.3349 Y7.0349
G01 X18.3614 Y7.0056
G01 X18.3850 Y6.9738
G01 X18.4016 Y6.9464
G01 X18.4087 Y6.9332
G01 X18.4222 Y6.9042
G01 X18.4355 Y6.8669
G01 X18.4451 Y6.8286
G01 X18.4500 Y6.7969
G01 X18.4515 Y6.7820
G01 X18.4529 Y6.7500
G01 X18.4529 Y5.9029
G01 X18.6471 Y5.9029
G01 X18.6471 Y6.7922
G01 X18.6391 Y6.8705
G01 X18.5949 Y7.0041
G01 X18.5216 Y7.1229
G01 X18.4229 Y7.2216
G01 X18.3041 Y7.2949
G01 X18.1705 Y7.3391
G01 X18.0922 Y7.3471
G01 X17.9029 Y7.3471
G01 X17.9029 Y7.1529
G00 Z2.0000
G00 X18.1424 Y3.9554
G01 F60.00
G01 Z-0.0499
G01 F120.00
G01 X18.1369 Y3.9537
G01 X18.1074 Y3.9466
G01 X18.0803 Y3.9427
G01 X18.0529 Y3.9413
G01 X17.8088 Y3.9412
G01 X17.8088 Y3.5588
G01 X18.0970 Y3.5588
G01 X18.1903 Y3.5683
G01 X18.3441 Y3.6193
G01 X18.4816 Y3.7041
G01 X18.5959 Y3.8184
G01 X18.6807 Y3.9559
G01 X18.7317 Y4.1097
G01 X18.7412 Y4.2030
G01 X18.7412 Y5.1912
G01 X18.3588 Y5.1912
G01 X18.3588 Y4.2500
G01 X18.3573 Y4.2197
G01 X18.3531 Y4.1912
G01 X18.3463 Y4.1631
G01 X18.3446 Y4.1576
G01 X18.3353 Y4.1318
G01 X18.3236 Y4.1070
G01 X18.3068 Y4.0784
G01 X18.2868 Y4.0519
G01 X18.2684 Y4.0316
G01 X18.2481 Y4.0132
G01 X18.2216 Y3.9932
G01 X18.1930 Y3.9764
G01 X18.1682 Y3.9647
G01 X18.1424 Y3.9554
G00 Z2.0000
G00 X18.1741 Y3.8668
G01 F60.00
G01 Z-0.0499
G01 F120.00
G01 X18.1597 Y3.8625
G01 X18.1286 Y3.8549
G01 X18.0969 Y3.8500
G01 X18.0858 Y3.8487
G01 X18.0500 Y3.8471
G01 X17.9029 Y3.8471
G01 X17.9029 Y3.6529
G01 X18.0922 Y3.6529
G01 X18.1705 Y3.6609
G01 X18.3041 Y3.7051
G01 X18.4229 Y3.7784
G01 X18.5216 Y3.8771
G01 X18.5949 Y3.9959
G01 X18.6391 Y4.1295
G01 X18.6471 Y4.2078
G01 X18.6471 Y5.0971
G01 X18.4529 Y5.0971
G01 X18.4529 Y4.2500
G01 X18.4509 Y4.2105
G01 X18.4464 Y4.1788
G01 X18.4444 Y4.1677
G01 X18.4355 Y4.1331
G01 X18.4249 Y4.1028
G01 X18.4207 Y4.0924
G01 X18.4070 Y4.0634
G01 X18.4016 Y4.0536
G01 X18.3850 Y4.0262
G01 X18.3660 Y4.0003
G01 X18.3565 Y3.9887
G01 X18.3349 Y3.9651
G01 X18.3113 Y3.9435
G01 X18.2997 Y3.9340
G01 X18.2738 Y3.9150
G01 X18.2464 Y3.8984
G01 X18.2332 Y3.8913
G01 X18.2042 Y3.8778
G01 X18.1741 Y3.8668
G00 Z2.0000
G00 X13.5175 Y14.8242
G01 F60.00
G01 Z-0.0499
G01 F120.00
G01 X13.6529 Y14.7759
G01 X13.7995 Y14.7392
G01 X13.9490 Y14.7170
G01 X14.1000 Y14.7096
G01 X14.2510 Y14.7170
G01 X14.4005 Y14.7392
G01 X14.5471 Y14.7759
G01 X14.6895 Y14.8269
G01 X14.8261 Y14.8915
G01 X14.9558 Y14.9692
G01 X15.0772 Y15.0593
G01 X15.1892 Y15.1608
G01 X15.2907 Y15.2728
G01 X15.3808 Y15.3942
G01 X15.4585 Y15.5239
G01 X15.5231 Y15.6605
G01 X15.5741 Y15.8029
G01 X15.6108 Y15.9495
G01 X15.6330 Y16.0990
G01 X15.6404 Y16.2500
G01 X15.6330 Y16.4010
G01 X15.6108 Y16.5505
G01 X15.5741 Y16.6971
G01 X15.5231 Y16.8395
G01 X15.4585 Y16.9761
G01 X15.3808 Y17.1058
G01 X15.2907 Y17.2272
G01 X15.1892 Y17.3392
G01 X15.0772 Y17.4407
G01 X14.9558 Y17.5308
G01 X14.8261 Y17.6085
G01 X14.6895 Y17.6731
G01 X14.5471 Y17.7241
G01 X14.4005 Y17.7608
G01 X14.2510 Y17.7830
G01 X14.1000 Y17.7904
G01 X13.9490 Y17.7830
G01 X13.7995 Y17.7608
G01 X13.6529 Y17.7241
G01 X13.5105 Y17.6731
G01 X13.3739 Y17.6085
G01 X13.2442 Y17.5308
G01 X13.1228 Y17.4407
G01 X13.0108 Y17.3392
G01 X12.9093 Y17.2272
G01 X12.8192 Y17.1058
G01 X12.7415 Y16.9761
G01 X12.6769 Y16.8395
G01 X12.6259 Y16.6971
G01 X12.5892 Y16.5505
G01 X12.5670 Y16.4010
G01 X12.5596 Y16.2500
G01 X12.5670 Y16.0990
G01 X12.5892 Y15.9495
G01 X12.6259 Y15.8029
G01 X12.6769 Y15.6605
G01 X12.7415 Y15.5239
G01 X12.8192 Y15.3942
G01 X12.9093 Y15.2728
G01 X13.0108 Y15.1608
G01 X13.1228 Y15.0593
G01 X13.2442 Y14.9692
G01 X13.3739 Y14.8915
G01 X13.5037 Y14.8299
G01 X13.5175 Y14.8242
G00 Z2.0000
G00 X13.5492 Y14.9128
G01 F60.00
G01 Z-0.0499
G01 F120.00
G01 X13.6802 Y14.8660
G01 X13.8178 Y14.8315
G01 X13.9582 Y14.8107
G01 X14.1000 Y14.8037
G01 X14.2418 Y14.8107
G01 X14.3822 Y14.8315
G01 X14.5198 Y14.8660
G01 X14.6535 Y14.9138
G01 X14.7818 Y14.9745
G01 X14.9035 Y15.0474
G01 X15.0175 Y15.1320
G01 X15.1227 Y15.2273
G01 X15.2180 Y15.3325
G01 X15.3026 Y15.4465
G01 X15.3755 Y15.5682
G01 X15.4362 Y15.6965
G01 X15.4840 Y15.8302
G01 X15.5185 Y15.9678
G01 X15.5393 Y16.1082
G01 X15.5463 Y16.2500
G01 X15.5393 Y16.3918
G01 X15.5185 Y16.5322
G01 X15.4840 Y16.6698
G01 X15.4362 Y16.8035
G01 X15.3755 Y16.9318
G01 X15.3026 Y17.0535
G01 X15.2180 Y17.1675
G01 X15.1227 Y17.2727
G01 X15.0175 Y17.3680
G01 X14.9035 Y17.4526
G01 X14.7818 Y17.5255
G01 X14.6535 Y17.5862
G01 X14.5198 Y17.6340
G01 X14.3822 Y17.6685
G01 X14.2418 Y17.6893
G01 X14.1000 Y17.6963
G01 X13.9582 Y17.6893
G01 X13.8178 Y17.6685
G01 X13.6802 Y17.6340
G01 X13.5465 Y17.5862
G01 X13.4182 Y17.5255
G01 X13.2965 Y17.4526
G01 X13.1825 Y17.3680
G01 X13.0773 Y17.2727
G01 X12.9820 Y17.1675
G01 X12.8974 Y17.0535
G01 X12.8245 Y16.9318
G01 X12.7638 Y16.8035
G01 X12.7160 Y16.6698
G01 X12.6815 Y16.5322
G01 X12.6607 Y16.3918
G01 X12.6537 Y16.2500
G01 X12.6607 Y16.1082
G01 X12.6815 Y15.9678
G01 X12.7160 Y15.8302
G01 X12.7638 Y15.6965
G01 X12.8245 Y15.5682
G01 X12.8974 Y15.4465
G01 X12.9820 Y15.3325
G01 X13.0773 Y15.2273
G01 X13.1825 Y15.1320
G01 X13.2965 Y15.0474
G01 X13.4182 Y14.9745
G01 X13.5439 Y14.9150
G01 X13.5492 Y14.9128
G00 Z2.0000
G00 X12.3649 Y16.3637
G01 F60.00
G01 Z-0.0499
G01 F120.00
G01 X12.3649 Y16.1363
G01 X12.3946 Y15.9108
G01 X12.4534 Y15.6911
G01 X12.5405 Y15.4809
G01 X12.6542 Y15.2840
G01 X12.7927 Y15.1035
G01 X12.9535 Y14.9427
G01 X13.1340 Y14.8042
G01 X13.3309 Y14.6905
G01 X13.5411 Y14.6034
G01 X13.7608 Y14.5446
G01 X13.9863 Y14.5149
G01 X14.2137 Y14.5149
G01 X14.4392 Y14.5446
G01 X14.6589 Y14.6034
G01 X14.8691 Y14.6905
G01 X15.0660 Y14.8042
G01 X15.2465 Y14.9427
G01 X15.4073 Y15.1035
G01 X15.5458 Y15.2840
G01 X15.6595 Y15.4809
G01 X15.7466 Y15.6911
G01 X15.8054 Y15.9108
G01 X15.8351 Y16.1363
G01 X15.8351 Y16.3637
G01 X15.8054 Y16.5892
G01 X15.7466 Y16.8089
G01 X15.6595 Y17.0191
G01 X15.5458 Y17.2160
G01 X15.4073 Y17.3965
G01 X15.2465 Y17.5573
G01 X15.0661 Y17.6958
G01 X14.8691 Y17.8095
G01 X14.6589 Y17.8966
G01 X14.4392 Y17.9554
G01 X14.2137 Y17.9851
G01 X13.9863 Y17.9851
G01 X13.7608 Y17.9554
G01 X13.5411 Y17.8966
G01 X13.3309 Y17.8095
G01 X13.1340 Y17.6958
G01 X12.9535 Y17.5573
G01 X12.7927 Y17.3965
G01 X12.6542 Y17.2161
G01 X12.5405 Y17.0191
G01 X12.4534 Y16.8089
G01 X12.3946 Y16.5892
G01 X12.3649 Y16.3637
G00 Z2.0000
G00 X12.2708 Y16.3699
G01 F60.00
G01 Z-0.0499
G01 F120.00
G01 X12.2708 Y16.1301
G01 X12.3021 Y15.8924
G01 X12.3642 Y15.6608
G01 X12.4559 Y15.4392
G01 X12.5758 Y15.2316
G01 X12.7218 Y15.0413
G01 X12.8913 Y14.8718
G01 X13.0816 Y14.7258
G01 X13.2892 Y14.6059
G01 X13.5108 Y14.5142
G01 X13.7424 Y14.4521
G01 X13.9801 Y14.4208
G01 X14.2199 Y14.4208
G01 X14.4576 Y14.4521
G01 X14.6892 Y14.5142
G01 X14.9108 Y14.6059
G01 X15.1184 Y14.7258
G01 X15.3087 Y14.8718
G01 X15.4782 Y15.0413
G01 X15.6242 Y15.2316
G01 X15.7441 Y15.4392
G01 X15.8358 Y15.6608
G01 X15.8979 Y15.8924
G01 X15.9292 Y16.1301
G01 X15.9292 Y16.3699
G01 X15.8979 Y16.6076
G01 X15.8358 Y16.8392
G01 X15.7441 Y17.0608
G01 X15.6242 Y17.2684
G01 X15.4782 Y17.4587
G01 X15.3087 Y17.6282
G01 X15.1184 Y17.7742
G01 X14.9108 Y17.8941
G01 X14.6892 Y17.9858
G01 X14.4576 Y18.0479
G01 X14.2199 Y18.0792
G01 X13.9801 Y18.0792
G01 X13.7424 Y18.0479
G01 X13.5108 Y17.9858
G01 X13.2892 Y17.8941
G01 X13.0816 Y17.7742
G01 X12.8913 Y17.6282
G01 X12.7218 Y17.4587
G01 X12.5758 Y17.2684
G01 X12.4559 Y17.0608
G01 X12.3642 Y16.8392
G01 X12.3021 Y16.6076
G01 X12.2708 Y16.3699
G00 Z2.0000
G00 X10.1660 Y17.7500
G01 F60.00
G01 Z-0.0499
G01 F120.00
G01 X10.1660 Y14.2500
G01 X10.1681 Y14.2075
G01 X10.1744 Y14.1653
G01 X10.1847 Y14.1240
G01 X10.1990 Y14.0839
G01 X10.2173 Y14.0454
G01 X10.2392 Y14.0089
G01 X10.2645 Y13.9747
G01 X10.2931 Y13.9431
G01 X12.6660 Y11.5702
G01 X12.6660 Y10.4976
G01 X12.6530 Y10.4878
G01 X12.6327 Y10.4694
G01 X12.6122 Y10.4470
G01 X12.5932 Y10.4216
G01 X12.5770 Y10.3943
G01 X12.5637 Y10.3655
G01 X12.5545 Y10.3396
G01 X12.5478 Y10.3131
G01 X12.5427 Y10.2803
G01 X12.5412 Y10.2514
G01 X12.5412 Y5.2500
G01 X12.5428 Y5.2183
G01 X12.5471 Y5.1898
G01 X12.5537 Y5.1631
G01 X12.5647 Y5.1318
G01 X12.5777 Y5.1044
G01 X12.5917 Y5.0809
G01 X12.6113 Y5.0541
G01 X12.6337 Y5.0297
G01 X12.6541 Y5.0113
G01 X12.6784 Y4.9932
G01 X12.7070 Y4.9764
G01 X12.7318 Y4.9647
G01 X12.7604 Y4.9545
G01 X12.7898 Y4.9471
G01 X12.8169 Y4.9430
G01 X12.8500 Y4.9412
G01 X13.3514 Y4.9412
G01 X13.3831 Y4.9430
G01 X13.4102 Y4.9471
G01 X13.4369 Y4.9537
G01 X13.4424 Y4.9554
G01 X13.4708 Y4.9659
G01 X13.4956 Y4.9777
G01 X13.5216 Y4.9932
G01 X13.5459 Y5.0113
G01 X13.5663 Y5.0297
G01 X13.5703 Y5.0337
G01 X13.5905 Y5.0564
G01 X13.6068 Y5.0784
G01 X13.6223 Y5.1044
G01 X13.6353 Y5.1318
G01 X13.6446 Y5.1576
G01 X13.6522 Y5.1869
G01 X13.6534 Y5.1926
G01 X13.6573 Y5.2197
G01 X13.6588 Y5.2486
G01 X13.6588 Y10.2514
G01 X13.6573 Y10.2803
G01 X13.6522 Y10.3131
G01 X13.6455 Y10.3396
G01 X13.6363 Y10.3655
G01 X13.6230 Y10.3943
G01 X13.6068 Y10.4216
G01 X13.5878 Y10.4470
G01 X13.5673 Y10.4694
G01 X13.5470 Y10.4878
G01 X13.5340 Y10.4976
G01 X13.5340 Y11.7500
G01 X13.5319 Y11.7925
G01 X13.5256 Y11.8347
G01 X13.5153 Y11.8760
G01 X13.5020 Y11.9134
G01 X13.4998 Y11.9187
G01 X13.4827 Y11.9546
G01 X13.4624 Y11.9887
G01 X13.4592 Y11.9935
G01 X13.4355 Y12.0253
G01 X13.4079 Y12.0558
G01 X11.0340 Y14.4298
G01 X11.0340 Y17.5702
G01 X12.5723 Y19.1085
G01 X13.9968 Y19.5087
G01 X14.1000 Y19.5037
G01 X14.2418 Y19.5107
G01 X14.3822 Y19.5315
G01 X14.5212 Y19.5664
G01 X14.6508 Y19.6128
G01 X14.6561 Y19.6150
G01 X14.7818 Y19.6745
G01 X14.9011 Y19.7459
G01 X14.9059 Y19.7491
G01 X15.0175 Y19.8320
G01 X15.1237 Y19.9283
G01 X15.2180 Y20.0325
G01 X15.3026 Y20.1465
G01 X15.3755 Y20.2682
G01 X15.4362 Y20.3965
G01 X15.4840 Y20.5302
G01 X15.5185 Y20.6678
G01 X15.5393 Y20.8082
G01 X15.5462 Y20.9471
G01 X15.5462 Y20.9529
G01 X15.5395 Y21.0889
G01 X15.5390 Y21.0946
G01 X15.5185 Y21.2322
G01 X15.4848 Y21.3671
G01 X15.4831 Y21.3726
G01 X15.4362 Y21.5035
G01 X15.3755 Y21.6318
G01 X15.3026 Y21.7535
G01 X15.2180 Y21.8675
G01 X15.1227 Y21.9727
G01 X15.0175 Y22.0680
G01 X14.9035 Y22.1526
G01 X14.7818 Y22.2255
G01 X14.6535 Y22.2862
G01 X14.5198 Y22.3340
G01 X14.3822 Y22.3685
G01 X14.2418 Y22.3893
G01 X14.1000 Y22.3963
G01 X13.9582 Y22.3893
G01 X13.8178 Y22.3685
G01 X13.6802 Y22.3340
G01 X13.5465 Y22.2862
G01 X13.4182 Y22.2255
G01 X13.2965 Y22.1526
G01 X13.1825 Y22.0680
G01 X13.0773 Y21.9727
G01 X12.9820 Y21.8675
G01 X12.8974 Y21.7535
G01 X12.8245 Y21.6318
G01 X12.7638 Y21.5035
G01 X12.7160 Y21.3698
G01 X12.6815 Y21.2322
G01 X12.6639 Y21.1146
G01 X11.9629 Y19.7267
G01 X10.2911 Y18.0548
G01 X10.2645 Y18.0253
G01 X10.2392 Y17.9911
G01 X10.2173 Y17.9546
G01 X10.1990 Y17.9161
G01 X10.1847 Y17.8760
G01 X10.1744 Y17.8347
G01 X10.1681 Y17.7925
G01 X10.1660 Y17.7500
G00 Z2.0000
G00 X10.0719 Y17.7500
G01 F60.00
G01 Z-0.0499
G01 F120.00
G01 X10.0719 Y14.2500
G01 X10.0739 Y14.2057
G01 X10.0754 Y14.1908
G01 X10.0821 Y14.1470
G01 X10.0927 Y14.1039
G01 X10.0970 Y14.0896
G01 X10.1121 Y14.0479
G01 X10.1309 Y14.0078
G01 X10.1380 Y13.9945
G01 X10.1609 Y13.9566
G01 X10.1872 Y13.9209
G01 X10.1942 Y13.9121
G01 X10.2240 Y13.8793
G01 X12.5719 Y11.5313
G01 X12.5719 Y10.5413
G01 X12.5625 Y10.5322
G01 X12.5410 Y10.5085
G01 X12.5340 Y10.4997
G01 X12.5171 Y10.4769
G01 X12.5110 Y10.4675
G01 X12.4947 Y10.4399
G01 X12.4793 Y10.4076
G01 X12.4751 Y10.3972
G01 X12.4645 Y10.3669
G01 X12.4549 Y10.3286
G01 X12.4491 Y10.2895
G01 X12.4472 Y10.2538
G01 X12.4471 Y5.2500
G01 X12.4485 Y5.2180
G01 X12.4495 Y5.2068
G01 X12.4549 Y5.1714
G01 X12.4625 Y5.1403
G01 X12.4668 Y5.1259
G01 X12.4778 Y5.0958
G01 X12.4947 Y5.0601
G01 X12.5110 Y5.0325
G01 X12.5193 Y5.0200
G01 X12.5386 Y4.9944
G01 X12.5599 Y4.9706
G01 X12.5706 Y4.9599
G01 X12.5944 Y4.9386
G01 X12.6262 Y4.9150
G01 X12.6536 Y4.8984
G01 X12.6668 Y4.8913
G01 X12.6958 Y4.8778
G01 X12.7295 Y4.8656
G01 X12.7403 Y4.8625
G01 X12.7641 Y4.8565
G01 X12.7788 Y4.8536
G01 X12.8105 Y4.8491
G01 X12.8500 Y4.8471
G01 X13.3538 Y4.8472
G01 X13.3858 Y4.8487
G01 X13.3969 Y4.8500
G01 X13.4286 Y4.8549
G01 X13.4597 Y4.8625
G01 X13.4741 Y4.8668
G01 X13.5007 Y4.8764
G01 X13.5110 Y4.8808
G01 X13.5399 Y4.8947
G01 X13.5738 Y4.9150
G01 X13.6056 Y4.9386
G01 X13.6294 Y4.9599
G01 X13.6401 Y4.9706
G01 X13.6565 Y4.9887
G01 X13.6638 Y4.9973
G01 X13.6850 Y5.0262
G01 X13.7053 Y5.0601
G01 X13.7222 Y5.0958
G01 X13.7332 Y5.1259
G01 X13.7375 Y5.1403
G01 X13.7435 Y5.1641
G01 X13.7458 Y5.1751
G01 X13.7509 Y5.2105
G01 X13.7528 Y5.2462
G01 X13.7528 Y10.2538
G01 X13.7509 Y10.2895
G01 X13.7451 Y10.3286
G01 X13.7355 Y10.3669
G01 X13.7249 Y10.3972
G01 X13.7207 Y10.4076
G01 X13.7053 Y10.4399
G01 X13.6890 Y10.4675
G01 X13.6829 Y10.4769
G01 X13.6660 Y10.4997
G01 X13.6590 Y10.5085
G01 X13.6375 Y10.5322
G01 X13.6281 Y10.5413
G01 X13.6281 Y11.7500
G01 X13.6255 Y11.8018
G01 X13.6186 Y11.8493
G01 X13.6163 Y11.8603
G01 X13.6073 Y11.8961
G01 X13.6030 Y11.9104
G01 X13.5879 Y11.9521
G01 X13.5657 Y11.9989
G01 X13.5431 Y12.0370
G01 X13.5348 Y12.0495
G01 X13.5082 Y12.0850
G01 X13.4760 Y12.1207
G01 X11.1281 Y14.4687
G01 X11.1281 Y17.5313
G01 X12.6214 Y19.0246
G01 X14.0075 Y19.4140
G01 X14.0925 Y19.4098
G01 X14.1038 Y19.4097
G01 X14.2435 Y19.4165
G01 X14.2547 Y19.4175
G01 X14.4005 Y19.4392
G01 X14.5399 Y19.4739
G01 X14.5507 Y19.4771
G01 X14.6825 Y19.5242
G01 X14.6963 Y19.5299
G01 X14.8261 Y19.5915
G01 X14.9494 Y19.6652
G01 X14.9619 Y19.6735
G01 X15.0772 Y19.7593
G01 X15.1838 Y19.8556
G01 X15.1918 Y19.8635
G01 X15.2907 Y19.9728
G01 X15.3808 Y20.0942
G01 X15.4585 Y20.2239
G01 X15.5231 Y20.3605
G01 X15.5741 Y20.5029
G01 X15.6108 Y20.6495
G01 X15.6330 Y20.7990
G01 X15.6402 Y20.9425
G01 X15.6402 Y20.9575
G01 X15.6335 Y21.0935
G01 X15.6320 Y21.1084
G01 X15.6108 Y21.2505
G01 X15.5761 Y21.3899
G01 X15.5717 Y21.4043
G01 X15.5231 Y21.5395
G01 X15.4585 Y21.6761
G01 X15.3808 Y21.8058
G01 X15.2931 Y21.9243
G01 X15.2858 Y21.9329
G01 X15.1892 Y22.0392
G01 X15.0772 Y22.1407
G01 X14.9558 Y22.2308
G01 X14.8261 Y22.3085
G01 X14.6895 Y22.3731
G01 X14.5471 Y22.4241
G01 X14.4005 Y22.4608
G01 X14.2510 Y22.4830
G01 X14.1000 Y22.4904
G01 X13.9490 Y22.4830
G01 X13.7995 Y22.4608
G01 X13.6529 Y22.4241
G01 X13.5105 Y22.3731
G01 X13.3739 Y22.3085
G01 X13.2442 Y22.2308
G01 X13.1257 Y22.1431
G01 X13.1171 Y22.1358
G01 X13.0108 Y22.0392
G01 X12.9093 Y21.9272
G01 X12.8192 Y21.8058
G01 X12.7415 Y21.6761
G01 X12.6769 Y21.5395
G01 X12.6259 Y21.3971
G01 X12.5892 Y21.2505
G01 X12.5731 Y21.1435
G01 X11.8857 Y19.7825
G01 X10.2266 Y18.1234
G01 X10.1967 Y18.0907
G01 X10.1895 Y18.0821
G01 X10.1631 Y18.0465
G01 X10.1569 Y18.0370
G01 X10.1380 Y18.0055
G01 X10.1309 Y17.9922
G01 X10.1136 Y17.9555
G01 X10.1094 Y17.9451
G01 X10.0947 Y17.9033
G01 X10.0821 Y17.8530
G01 X10.0745 Y17.8018
G01 X10.0719 Y17.7500
G00 Z2.0000
G00 X13.5175 Y24.2242
G01 F60.00
G01 Z-0.0499
G01 F120.00
G01 X13.6529 Y24.1759
G01 X13.7995 Y24.1392
G01 X13.9490 Y24.1170
G01 X14.0925 Y24.1098
G01 X14.1038 Y24.1097
G01 X14.2510 Y24.1170
G01 X14.3931 Y24.1379
G01 X14.4042 Y24.1400
G01 X14.5399 Y24.1739
G01 X14.5507 Y24.1771
G01 X14.6860 Y24.2255
G01 X14.6963 Y24.2299
G01 X14.7486 Y24.2546
G01 X17.5719 Y21.4313
G01 X17.5719 Y13.9687
G01 X14.7266 Y11.1234
G01 X14.6942 Y11.0879
G01 X14.6872 Y11.0791
G01 X14.6609 Y11.0434
G01 X14.6380 Y11.0055
G01 X14.6309 Y10.9922
G01 X14.6121 Y10.9521
G01 X14.5970 Y10.9104
G01 X14.5936 Y10.8997
G01 X14.5829 Y10.8567
G01 X14.5808 Y10.8456
G01 X14.5745 Y10.8018
G01 X14.5720 Y10.7538
G01 X14.5719 Y10.5413
G01 X14.5599 Y10.5294
G01 X14.5410 Y10.5085
G01 X14.5340 Y10.4997
G01 X14.5193 Y10.4800
G01 X14.5130 Y10.4707
G01 X14.4984 Y10.4464
G01 X14.4930 Y10.4366
G01 X14.4778 Y10.4042
G01 X14.4645 Y10.3669
G01 X14.4549 Y10.3286
G01 X14.4495 Y10.2932
G01 X14.4485 Y10.2820
G01 X14.4471 Y10.2500
G01 X14.4471 Y5.2500
G01 X14.4491 Y5.2105
G01 X14.4542 Y5.1751
G01 X14.4565 Y5.1641
G01 X14.4645 Y5.1331
G01 X14.4751 Y5.1028
G01 X14.4808 Y5.0890
G01 X14.4947 Y5.0601
G01 X14.5130 Y5.0293
G01 X14.5193 Y5.0200
G01 X14.5340 Y5.0003
G01 X14.5410 Y4.9915
G01 X14.5651 Y4.9651
G01 X14.5887 Y4.9435
G01 X14.6003 Y4.9340
G01 X14.6262 Y4.9150
G01 X14.6536 Y4.8984
G01 X14.6668 Y4.8913
G01 X14.6958 Y4.8778
G01 X14.7259 Y4.8668
G01 X14.7403 Y4.8625
G01 X14.7641 Y4.8565
G01 X14.7751 Y4.8542
G01 X14.8105 Y4.8491
G01 X14.8462 Y4.8472
G01 X15.3500 Y4.8471
G01 X15.3895 Y4.8491
G01 X15.4286 Y4.8549
G01 X15.4669 Y4.8645
G01 X15.5042 Y4.8778
G01 X15.5332 Y4.8913
G01 X15.5464 Y4.8984
G01 X15.5707 Y4.9130
G01 X15.5800 Y4.9193
G01 X15.5997 Y4.9340
G01 X15.6085 Y4.9410
G01 X15.6322 Y4.9625
G01 X15.6401 Y4.9706
G01 X15.6614 Y4.9944
G01 X15.6850 Y5.0262
G01 X15.7053 Y5.0601
G01 X15.7222 Y5.0958
G01 X15.7355 Y5.1331
G01 X15.7451 Y5.1714
G01 X15.7509 Y5.2105
G01 X15.7527 Y5.2425
G01 X15.7528 Y10.2538
G01 X15.7509 Y10.2895
G01 X15.7451 Y10.3286
G01 X15.7355 Y10.3669
G01 X15.7222 Y10.4042
G01 X15.7053 Y10.4399
G01 X15.6850 Y10.4738
G01 X15.6614 Y10.5056
G01 X15.6401 Y10.5294
G01 X15.6333 Y10.5365
G01 X18.4760 Y13.3793
G01 X18.5082 Y13.4150
G01 X18.5348 Y13.4505
G01 X18.5431 Y13.4630
G01 X18.5657 Y13.5011
G01 X18.5848 Y13.5411
G01 X18.5906 Y13.5549
G01 X18.6053 Y13.5967
G01 X18.6179 Y13.6470
G01 X18.6255 Y13.6982
G01 X18.6281 Y13.7500
G01 X18.6281 Y21.6500
G01 X18.6255 Y21.7018
G01 X18.6179 Y21.7530
G01 X18.6073 Y21.7961
G01 X18.6042 Y21.8069
G01 X18.5906 Y21.8451
G01 X18.5848 Y21.8589
G01 X18.5657 Y21.8989
G01 X18.5391 Y21.9434
G01 X18.5082 Y21.9850
G01 X18.4760 Y22.0207
G01 X15.4954 Y25.0014
G01 X15.5201 Y25.0537
G01 X15.5245 Y25.0640
G01 X15.5729 Y25.1993
G01 X15.5761 Y25.2101
G01 X15.6100 Y25.3458
G01 X15.6121 Y25.3569
G01 X15.6330 Y25.4990
G01 X15.6403 Y25.6462
G01 X15.6402 Y25.6575
G01 X15.6330 Y25.8010
G01 X15.6108 Y25.9505
G01 X15.5741 Y26.0971
G01 X15.5245 Y26.2360
G01 X15.5201 Y26.2463
G01 X15.4585 Y26.3761
G01 X15.3808 Y26.5058
G01 X15.2907 Y26.6272
G01 X15.1892 Y26.7392
G01 X15.0772 Y26.8407
G01 X14.9558 Y26.9308
G01 X14.8261 Y27.0085
G01 X14.6895 Y27.0731
G01 X14.5471 Y27.1241
G01 X14.4005 Y27.1608
G01 X14.2510 Y27.1830
G01 X14.1000 Y27.1904
G01 X13.9490 Y27.1830
G01 X13.7995 Y27.1608
G01 X13.6529 Y27.1241
G01 X13.5105 Y27.0731
G01 X13.3739 Y27.0085
G01 X13.2442 Y26.9308
G01 X13.1228 Y26.8407
G01 X13.0108 Y26.7392
G01 X12.9093 Y26.6272
G01 X12.8192 Y26.5058
G01 X12.7415 Y26.3761
G01 X12.6769 Y26.2395
G01 X12.6259 Y26.0971
G01 X12.5892 Y25.9505
G01 X12.5670 Y25.8010
G01 X12.5596 Y25.6500
G01 X12.5670 Y25.4990
G01 X12.5892 Y25.3495
G01 X12.6259 Y25.2029
G01 X12.6769 Y25.0605
G01 X12.7415 Y24.9239
G01 X12.8192 Y24.7942
G01 X12.9093 Y24.6728
G01 X13.0108 Y24.5608
G01 X13.1228 Y24.4593
G01 X13.2442 Y24.3692
G01 X13.3739 Y24.2915
G01 X13.5037 Y24.2299
G01 X13.5175 Y24.2242
G00 Z2.0000
G00 X13.5492 Y24.3128
G01 F60.00
G01 Z-0.0499
G01 F120.00
G01 X13.6802 Y24.2660
G01 X13.8178 Y24.2315
G01 X13.9582 Y24.2107
G01 X14.0971 Y24.2038
G01 X14.1029 Y24.2038
G01 X14.2418 Y24.2107
G01 X14.3793 Y24.2310
G01 X14.3850 Y24.2321
G01 X14.5171 Y24.2652
G01 X14.5226 Y24.2669
G01 X14.6535 Y24.3138
G01 X14.7682 Y24.3680
G01 X17.6660 Y21.4702
G01 X17.6660 Y13.9298
G01 X14.7931 Y11.0569
G01 X14.7655 Y11.0264
G01 X14.7392 Y10.9911
G01 X14.7187 Y10.9571
G01 X14.7160 Y10.9520
G01 X14.6990 Y10.9161
G01 X14.6856 Y10.8787
G01 X14.6839 Y10.8732
G01 X14.6744 Y10.8347
G01 X14.6681 Y10.7925
G01 X14.6660 Y10.7514
G01 X14.6660 Y10.4976
G01 X14.6530 Y10.4878
G01 X14.6327 Y10.4694
G01 X14.6122 Y10.4470
G01 X14.5932 Y10.4216
G01 X14.5784 Y10.3968
G01 X14.5647 Y10.3682
G01 X14.5545 Y10.3396
G01 X14.5471 Y10.3102
G01 X14.5430 Y10.2831
G01 X14.5412 Y10.2500
G01 X14.5412 Y5.2500
G01 X14.5427 Y5.2197
G01 X14.5466 Y5.1926
G01 X14.5545 Y5.1604
G01 X14.5659 Y5.1292
G01 X14.5777 Y5.1044
G01 X14.5917 Y5.0809
G01 X14.5949 Y5.0761
G01 X14.6132 Y5.0519
G01 X14.6316 Y5.0316
G01 X14.6519 Y5.0132
G01 X14.6784 Y4.9932
G01 X14.7070 Y4.9764
G01 X14.7318 Y4.9647
G01 X14.7604 Y4.9545
G01 X14.7926 Y4.9466
G01 X14.8197 Y4.9427
G01 X14.8486 Y4.9412
G01 X15.3500 Y4.9412
G01 X15.3803 Y4.9427
G01 X15.4102 Y4.9471
G01 X15.4396 Y4.9545
G01 X15.4682 Y4.9647
G01 X15.4930 Y4.9764
G01 X15.5191 Y4.9917
G01 X15.5239 Y4.9949
G01 X15.5459 Y5.0113
G01 X15.5703 Y5.0337
G01 X15.5887 Y5.0541
G01 X15.6068 Y5.0784
G01 X15.6223 Y5.1044
G01 X15.6353 Y5.1318
G01 X15.6455 Y5.1604
G01 X15.6529 Y5.1898
G01 X15.6573 Y5.2197
G01 X15.6588 Y5.2486
G01 X15.6588 Y10.2514
G01 X15.6573 Y10.2803
G01 X15.6522 Y10.3131
G01 X15.6455 Y10.3396
G01 X15.6363 Y10.3655
G01 X15.6230 Y10.3943
G01 X15.6068 Y10.4216
G01 X15.5878 Y10.4470
G01 X15.5673 Y10.4694
G01 X15.5470 Y10.4878
G01 X15.5340 Y10.4976
G01 X15.5340 Y10.5702
G01 X18.4079 Y13.4442
G01 X18.4355 Y13.4747
G01 X18.4592 Y13.5065
G01 X18.4624 Y13.5113
G01 X18.4827 Y13.5454
G01 X18.4998 Y13.5813
G01 X18.5020 Y13.5866
G01 X18.5153 Y13.6240
G01 X18.5256 Y13.6653
G01 X18.5319 Y13.7075
G01 X18.5340 Y13.7500
G01 X18.5340 Y21.6500
G01 X18.5319 Y21.6925
G01 X18.5256 Y21.7347
G01 X18.5161 Y21.7732
G01 X18.5020 Y21.8134
G01 X18.4998 Y21.8187
G01 X18.4827 Y21.8546
G01 X18.4608 Y21.8911
G01 X18.4355 Y21.9253
G01 X18.4079 Y21.9558
G01 X15.3820 Y24.9818
G01 X15.4362 Y25.0965
G01 X15.4831 Y25.2274
G01 X15.4848 Y25.2329
G01 X15.5179 Y25.3650
G01 X15.5190 Y25.3707
G01 X15.5393 Y25.5082
G01 X15.5462 Y25.6471
G01 X15.5462 Y25.6529
G01 X15.5393 Y25.7918
G01 X15.5185 Y25.9322
G01 X15.4840 Y26.0698
G01 X15.4372 Y26.2008
G01 X15.4350 Y26.2061
G01 X15.3755 Y26.3318
G01 X15.3026 Y26.4535
G01 X15.2180 Y26.5675
G01 X15.1227 Y26.6727
G01 X15.0175 Y26.7680
G01 X14.9035 Y26.8526
G01 X14.7818 Y26.9255
G01 X14.6535 Y26.9862
G01 X14.5198 Y27.0340
G01 X14.3822 Y27.0685
G01 X14.2418 Y27.0893
G01 X14.1000 Y27.0963
G01 X13.9582 Y27.0893
G01 X13.8178 Y27.0685
G01 X13.6802 Y27.0340
G01 X13.5465 Y26.9862
G01 X13.4182 Y26.9255
G01 X13.2965 Y26.8526
G01 X13.1825 Y26.7680
G01 X13.0773 Y26.6727
G01 X12.9820 Y26.5675
G01 X12.8974 Y26.4535
G01 X12.8245 Y26.3318
G01 X12.7638 Y26.2035
G01 X12.7160 Y26.0698
G01 X12.6815 Y25.9322
G01 X12.6607 Y25.7918
G01 X12.6537 Y25.6500
G01 X12.6607 Y25.5082
G01 X12.6815 Y25.3678
G01 X12.7160 Y25.2302
G01 X12.7638 Y25.0965
G01 X12.8245 Y24.9682
G01 X12.8974 Y24.8465
G01 X12.9820 Y24.7325
G01 X13.0773 Y24.6273
G01 X13.1825 Y24.5320
G01 X13.2965 Y24.4474
G01 X13.4182 Y24.3745
G01 X13.5439 Y24.3150
G01 X13.5492 Y24.3128
G00 Z2.0000
G00 X0.7346 Y29.3755
G01 F60.00
G01 Z-0.0499
G01 F120.00
G01 X0.7346 Y1.1245
G01 X0.7348 Y1.1189
G01 X0.7356 Y1.1134
G01 X0.7474 Y1.0591
G01 X0.7507 Y1.0493
G01 X0.7557 Y1.0403
G01 X0.7601 Y1.0345
G01 X0.8068 Y0.9806
G01 X0.8121 Y0.9755
G01 X0.8191 Y0.9703
G01 X0.8256 Y0.9669
G01 X0.8324 Y0.9642
G01 X0.9008 Y0.9441
G01 X0.9090 Y0.9423
G01 X0.9174 Y0.9417
G01 X19.6684 Y0.9417
G01 X19.6739 Y0.9420
G01 X19.6795 Y0.9428
G01 X19.7338 Y0.9546
G01 X19.7435 Y0.9579
G01 X19.7525 Y0.9628
G01 X19.7584 Y0.9673
G01 X19.8123 Y1.0140
G01 X19.8173 Y1.0192
G01 X19.8225 Y1.0263
G01 X19.8260 Y1.0327
G01 X19.8287 Y1.0395
G01 X19.8488 Y1.1079
G01 X19.8506 Y1.1161
G01 X19.8512 Y1.1245
G01 X19.8512 Y29.3755
G01 X19.8509 Y29.3811
G01 X19.8501 Y29.3866
G01 X19.8383 Y29.4409
G01 X19.8350 Y29.4507
G01 X19.8300 Y29.4597
G01 X19.8256 Y29.4655
G01 X19.7789 Y29.5194
G01 X19.7725 Y29.5254
G01 X19.7666 Y29.5297
G01 X19.7602 Y29.5331
G01 X19.7534 Y29.5358
G01 X19.6849 Y29.5559
G01 X19.6767 Y29.5577
G01 X19.6684 Y29.5583
G01 X0.9174 Y29.5583
G01 X0.9118 Y29.5580
G01 X0.9062 Y29.5572
G01 X0.8533 Y29.5458
G01 X0.8463 Y29.5437
G01 X0.8395 Y29.5409
G01 X0.8332 Y29.5372
G01 X0.8285 Y29.5337
G01 X0.7713 Y29.4840
G01 X0.7665 Y29.4785
G01 X0.7632 Y29.4737
G01 X0.7597 Y29.4673
G01 X0.7575 Y29.4619
G01 X0.7366 Y29.3907
G01 X0.7350 Y29.3825
G01 X0.7346 Y29.3755
G00 Z2.0000
G00 X0.6405 Y29.3755
G01 F60.00
G01 Z-0.0499
G01 F120.00
G01 X0.6405 Y1.1245
G01 X0.6412 Y1.1100
G01 X0.6432 Y1.0956
G01 X0.6570 Y1.0331
G01 X0.6604 Y1.0221
G01 X0.6646 Y1.0115
G01 X0.6714 Y0.9978
G01 X0.6774 Y0.9881
G01 X0.6842 Y0.9788
G01 X0.6890 Y0.9729
G01 X0.7399 Y0.9145
G01 X0.7481 Y0.9065
G01 X0.7568 Y0.8992
G01 X0.7629 Y0.8947
G01 X0.7725 Y0.8886
G01 X0.7859 Y0.8815
G01 X0.8000 Y0.8758
G01 X0.8743 Y0.8538
G01 X0.8849 Y0.8511
G01 X0.8956 Y0.8492
G01 X0.9064 Y0.8480
G01 X0.9174 Y0.8476
G01 X19.6684 Y0.8476
G01 X19.6829 Y0.8483
G01 X19.6973 Y0.8504
G01 X19.7598 Y0.8641
G01 X19.7707 Y0.8675
G01 X19.7814 Y0.8717
G01 X19.7950 Y0.8786
G01 X19.8048 Y0.8846
G01 X19.8110 Y0.8890
G01 X19.8200 Y0.8962
G01 X19.8784 Y0.9470
G01 X19.8863 Y0.9552
G01 X19.8936 Y0.9640
G01 X19.9002 Y0.9732
G01 X19.9043 Y0.9797
G01 X19.9113 Y0.9931
G01 X19.9170 Y1.0072
G01 X19.9390 Y1.0814
G01 X19.9417 Y1.0920
G01 X19.9437 Y1.1027
G01 X19.9448 Y1.1136
G01 X19.9452 Y1.1245
G01 X19.9452 Y29.3755
G01 X19.9445 Y29.3900
G01 X19.9425 Y29.4044
G01 X19.9287 Y29.4669
G01 X19.9253 Y29.4779
G01 X19.9195 Y29.4920
G01 X19.9143 Y29.5022
G01 X19.9083 Y29.5119
G01 X19.9039 Y29.5182
G01 X19.8967 Y29.5271
G01 X19.8458 Y29.5855
G01 X19.8376 Y29.5935
G01 X19.8289 Y29.6008
G01 X19.8228 Y29.6053
G01 X19.8132 Y29.6114
G01 X19.7998 Y29.6185
G01 X19.7857 Y29.6242
G01 X19.7114 Y29.6462
G01 X19.7009 Y29.6489
G01 X19.6901 Y29.6508
G01 X19.6793 Y29.6520
G01 X19.6684 Y29.6524
G01 X0.9174 Y29.6524
G01 X0.9028 Y29.6517
G01 X0.8920 Y29.6503
G01 X0.8333 Y29.6377
G01 X0.8186 Y29.6337
G01 X0.8078 Y29.6297
G01 X0.8008 Y29.6267
G01 X0.7907 Y29.6214
G01 X0.7841 Y29.6175
G01 X0.7716 Y29.6087
G01 X0.7129 Y29.5581
G01 X0.7046 Y29.5503
G01 X0.6945 Y29.5390
G01 X0.6898 Y29.5330
G01 X0.6834 Y29.5236
G01 X0.6760 Y29.5103
G01 X0.6700 Y29.4964
G01 X0.6664 Y29.4856
G01 X0.6448 Y29.4115
G01 X0.6432 Y29.4044
G01 X0.6416 Y29.3937
G01 X0.6406 Y29.3828
G01 X0.6405 Y29.3755
G00 Z2.0000
M05
G00 Z2.0000
G00 Z20.00


