(G-CODE GENERATED BY FLATCAM v8.994 - www.flatcam.org - Version Date: 2020/11/7)

(Name: Zoetrope Carusel V4 - External Power Switch_V1-F_Cu.gbr_iso_combined_cnc)
(Type: G-code from Geometry)
(Units: MM)

(Created on Saturday, 07 March 2026 at 14:51)

(This preprocessor is the default preprocessor used by FlatCAM.)
(It is made to work with MACH3 compatible motion controllers.)

(TOOL DIAMETER: 0.1176 mm)
(Feedrate_XY: 100.0 mm/min)
(Feedrate_Z: 60.0 mm/min)
(Feedrate rapids 1500.0 mm/min)

(Z_Cut: -0.0499 mm)
(Z_Move: 2.0 mm)
(Z Start: None mm)
(Z End: 20.0 mm)
(X,Y End: None mm)
(Steps per circle: 64)
(Preprocessor Geometry: default)

(X range:    0.5370 ...   20.0488  mm)
(Y range:    0.7441 ...   29.7559  mm)

(Spindle Speed: 1000.0 RPM)
G21
G90
G94

G01 F100.00

M5
G00 Z15.0000
G00 X0.0000 Y0.0000
T1
M6    
(MSG, Change to Tool Dia = 0.1176)
M0
G00 Z15.0000

M03 S1000.0
G01 F100.00
G00 X9.8582 Y3.6241
G01 F60.00
G01 Z-0.0499
G01 F100.00
G01 X10.0108 Y3.5735
G01 X10.1033 Y3.5641
G01 X10.3859 Y3.5641
G01 X10.3859 Y3.9359
G01 X10.1469 Y3.9360
G01 X10.1192 Y3.9374
G01 X10.0918 Y3.9414
G01 X10.0857 Y3.9426
G01 X10.0603 Y3.9490
G01 X10.0298 Y3.9598
G01 X10.0047 Y3.9716
G01 X9.9782 Y3.9872
G01 X9.9729 Y3.9906
G01 X9.9507 Y4.0072
G01 X9.9279 Y4.0279
G01 X9.9072 Y4.0507
G01 X9.8906 Y4.0729
G01 X9.8872 Y4.0782
G01 X9.8716 Y4.1047
G01 X9.8598 Y4.1298
G01 X9.8504 Y4.1558
G01 X9.8486 Y4.1619
G01 X9.8419 Y4.1887
G01 X9.8378 Y4.2161
G01 X9.8372 Y4.2224
G01 X9.8359 Y4.2500
G01 X9.8359 Y5.1859
G01 X9.4641 Y5.1859
G01 X9.4641 Y4.2033
G01 X9.4735 Y4.1108
G01 X9.5241 Y3.9582
G01 X9.6083 Y3.8217
G01 X9.7217 Y3.7083
G01 X9.8582 Y3.6241
G00 Z2.0000
G00 X9.8991 Y3.7119
G01 F60.00
G01 Z-0.0499
G01 F100.00
G01 X10.0310 Y3.6681
G01 X10.1082 Y3.6603
G01 X10.2897 Y3.6603
G01 X10.2897 Y3.8398
G01 X10.1500 Y3.8398
G01 X10.1098 Y3.8417
G01 X10.0700 Y3.8476
G01 X10.0385 Y3.8553
G01 X10.0234 Y3.8599
G01 X9.9930 Y3.8710
G01 X9.9566 Y3.8882
G01 X9.9287 Y3.9047
G01 X9.9156 Y3.9134
G01 X9.8928 Y3.9304
G01 X9.8838 Y3.9380
G01 X9.8599 Y3.9599
G01 X9.8329 Y3.9897
G01 X9.8089 Y4.0221
G01 X9.7921 Y4.0498
G01 X9.7847 Y4.0636
G01 X9.7710 Y4.0930
G01 X9.7574 Y4.1309
G01 X9.7476 Y4.1700
G01 X9.7427 Y4.2020
G01 X9.7411 Y4.2176
G01 X9.7398 Y4.2500
G01 X9.7398 Y5.0898
G01 X9.5603 Y5.0898
G01 X9.5603 Y4.2082
G01 X9.5681 Y4.1310
G01 X9.6119 Y3.9991
G01 X9.6842 Y3.8817
G01 X9.7817 Y3.7842
G01 X9.8991 Y3.7119
G00 Z2.0000
G00 X11.0141 Y3.9359
G01 F60.00
G01 Z-0.0499
G01 F100.00
G01 X11.0141 Y3.5641
G01 X11.2967 Y3.5641
G01 X11.3892 Y3.5735
G01 X11.5418 Y3.6241
G01 X11.6783 Y3.7083
G01 X11.7917 Y3.8217
G01 X11.8759 Y3.9582
G01 X11.9265 Y4.1108
G01 X11.9359 Y4.2033
G01 X11.9359 Y4.7612
G01 X11.9368 Y4.7719
G01 X11.9385 Y4.7793
G01 X11.9586 Y4.8479
G01 X11.9630 Y4.8581
G01 X11.9680 Y4.8662
G01 X11.9720 Y4.8711
G01 X11.9765 Y4.8757
G01 X12.0330 Y4.9245
G01 X12.0395 Y4.9290
G01 X12.0466 Y4.9327
G01 X12.0525 Y4.9349
G01 X12.0602 Y4.9369
G01 X12.1341 Y4.9476
G01 X12.1420 Y4.9481
G01 X12.1516 Y4.9473
G01 X12.1593 Y4.9456
G01 X12.1668 Y4.9429
G01 X12.2360 Y4.9112
G01 X12.2439 Y4.9061
G01 X12.2509 Y4.8999
G01 X12.2794 Y4.8666
G01 X12.2841 Y4.8600
G01 X12.3079 Y4.8214
G01 X12.4214 Y4.7079
G01 X12.5579 Y4.6237
G01 X12.7107 Y4.5731
G01 X12.8033 Y4.5636
G01 X13.3967 Y4.5636
G01 X13.4893 Y4.5731
G01 X13.6421 Y4.6237
G01 X13.7786 Y4.7079
G01 X13.8921 Y4.8214
G01 X13.9399 Y4.8989
G01 X13.9443 Y4.9051
G01 X13.9516 Y4.9129
G01 X14.0060 Y4.9617
G01 X14.0124 Y4.9663
G01 X14.0180 Y4.9694
G01 X14.0253 Y4.9725
G01 X14.0314 Y4.9743
G01 X14.1051 Y4.9865
G01 X14.1162 Y4.9873
G01 X14.1225 Y4.9869
G01 X14.1288 Y4.9859
G01 X14.1394 Y4.9826
G01 X14.2064 Y4.9535
G01 X14.2148 Y4.9488
G01 X14.2223 Y4.9430
G01 X14.2279 Y4.9373
G01 X14.2576 Y4.9026
G01 X14.3079 Y4.8214
G01 X14.4214 Y4.7079
G01 X14.5579 Y4.6237
G01 X14.7107 Y4.5731
G01 X14.8033 Y4.5636
G01 X15.3967 Y4.5636
G01 X15.4893 Y4.5731
G01 X15.6421 Y4.6237
G01 X15.7786 Y4.7079
G01 X15.8921 Y4.8214
G01 X15.9167 Y4.8613
G01 X15.9203 Y4.8662
G01 X15.9243 Y4.8708
G01 X15.9795 Y4.9207
G01 X15.9845 Y4.9247
G01 X15.9898 Y4.9282
G01 X15.9954 Y4.9312
G01 X16.0028 Y4.9341
G01 X16.0090 Y4.9357
G01 X16.0826 Y4.9478
G01 X16.0890 Y4.9483
G01 X16.0954 Y4.9483
G01 X16.1064 Y4.9466
G01 X16.1154 Y4.9437
G01 X16.1824 Y4.9146
G01 X16.1894 Y4.9108
G01 X16.1959 Y4.9062
G01 X16.2018 Y4.9008
G01 X16.2078 Y4.8934
G01 X16.2476 Y4.8340
G01 X16.2529 Y4.8245
G01 X16.2560 Y4.8157
G01 X16.2577 Y4.8081
G01 X16.2634 Y4.7709
G01 X16.2641 Y4.7629
G01 X16.2641 Y4.2033
G01 X16.2735 Y4.1108
G01 X16.3241 Y3.9582
G01 X16.4083 Y3.8217
G01 X16.5217 Y3.7083
G01 X16.6581 Y3.6241
G01 X16.8108 Y3.5735
G01 X16.9033 Y3.5641
G01 X17.1859 Y3.5641
G01 X17.1859 Y3.9359
G01 X16.9500 Y3.9359
G01 X16.9208 Y3.9373
G01 X16.8887 Y3.9419
G01 X16.8619 Y3.9486
G01 X16.8327 Y3.9587
G01 X16.8269 Y3.9611
G01 X16.8019 Y3.9730
G01 X16.7782 Y3.9872
G01 X16.7532 Y4.0053
G01 X16.7484 Y4.0093
G01 X16.7279 Y4.0279
G01 X16.7072 Y4.0507
G01 X16.6906 Y4.0729
G01 X16.6872 Y4.0782
G01 X16.6730 Y4.1019
G01 X16.6611 Y4.1269
G01 X16.6587 Y4.1327
G01 X16.6494 Y4.1588
G01 X16.6416 Y4.1903
G01 X16.6374 Y4.2192
G01 X16.6359 Y4.2500
G01 X16.6359 Y6.7500
G01 X16.6372 Y6.7776
G01 X16.6378 Y6.7839
G01 X16.6419 Y6.8113
G01 X16.6486 Y6.8381
G01 X16.6504 Y6.8442
G01 X16.6598 Y6.8702
G01 X16.6716 Y6.8953
G01 X16.6745 Y6.9008
G01 X16.6888 Y6.9245
G01 X16.7053 Y6.9468
G01 X16.7093 Y6.9516
G01 X16.7279 Y6.9721
G01 X16.7484 Y6.9907
G01 X16.7532 Y6.9947
G01 X16.7755 Y7.0112
G01 X16.8006 Y7.0263
G01 X16.8298 Y7.0402
G01 X16.8588 Y7.0506
G01 X16.8887 Y7.0581
G01 X16.9192 Y7.0626
G01 X16.9500 Y7.0641
G01 X17.1859 Y7.0641
G01 X17.1859 Y7.4359
G01 X16.9033 Y7.4359
G01 X16.8108 Y7.4265
G01 X16.6582 Y7.3759
G01 X16.5217 Y7.2917
G01 X16.4083 Y7.1783
G01 X16.3838 Y7.1386
G01 X16.3792 Y7.1325
G01 X16.3751 Y7.1280
G01 X16.3173 Y7.0761
G01 X16.3107 Y7.0716
G01 X16.3051 Y7.0687
G01 X16.2992 Y7.0663
G01 X16.2915 Y7.0641
G01 X16.2178 Y7.0521
G01 X16.2099 Y7.0515
G01 X16.2020 Y7.0519
G01 X16.1941 Y7.0533
G01 X16.1850 Y7.0562
G01 X16.1180 Y7.0853
G01 X16.1124 Y7.0882
G01 X16.1058 Y7.0927
G01 X16.0999 Y7.0980
G01 X16.0946 Y7.1039
G01 X16.0521 Y7.1672
G01 X16.0490 Y7.1726
G01 X16.0464 Y7.1783
G01 X16.0445 Y7.1842
G01 X16.0431 Y7.1902
G01 X16.0369 Y7.2305
G01 X16.0364 Y7.2386
G01 X16.0364 Y10.2967
G01 X16.0268 Y10.3910
G01 X16.0246 Y10.4053
G01 X16.0249 Y10.4164
G01 X16.0229 Y10.4738
G01 X16.0237 Y10.4845
G01 X16.0263 Y10.4950
G01 X16.0306 Y10.5048
G01 X16.0645 Y10.5644
G01 X16.0689 Y10.5708
G01 X16.0741 Y10.5766
G01 X18.7303 Y13.2328
G01 X18.8191 Y13.3657
G01 X18.8802 Y13.5133
G01 X18.9114 Y13.6701
G01 X18.9114 Y21.7299
G01 X18.8802 Y21.8867
G01 X18.8191 Y22.0343
G01 X18.7303 Y22.1672
G01 X15.9085 Y24.9890
G01 X15.9044 Y24.9935
G01 X15.9007 Y24.9984
G01 X15.8976 Y25.0036
G01 X15.8619 Y25.0692
G01 X15.8591 Y25.0767
G01 X15.8575 Y25.0829
G01 X15.8566 Y25.0892
G01 X15.8562 Y25.0956
G01 X15.8576 Y25.1556
G01 X15.8583 Y25.1632
G01 X15.8598 Y25.1707
G01 X15.8927 Y25.2934
G01 X15.9239 Y25.5305
G01 X15.9239 Y25.7695
G01 X15.8927 Y26.0066
G01 X15.8308 Y26.2375
G01 X15.7393 Y26.4584
G01 X15.6198 Y26.6655
G01 X15.4742 Y26.8552
G01 X15.3052 Y27.0242
G01 X15.1155 Y27.1698
G01 X14.9084 Y27.2893
G01 X14.6875 Y27.3808
G01 X14.4566 Y27.4427
G01 X14.2196 Y27.4739
G01 X13.9805 Y27.4739
G01 X13.7434 Y27.4427
G01 X13.5125 Y27.3808
G01 X13.2916 Y27.2893
G01 X13.0845 Y27.1698
G01 X12.8948 Y27.0242
G01 X12.7258 Y26.8552
G01 X12.5802 Y26.6655
G01 X12.4607 Y26.4584
G01 X12.3692 Y26.2375
G01 X12.3073 Y26.0066
G01 X12.2761 Y25.7696
G01 X12.2761 Y25.5305
G01 X12.3073 Y25.2934
G01 X12.3692 Y25.0625
G01 X12.4607 Y24.8416
G01 X12.5802 Y24.6345
G01 X12.7258 Y24.4448
G01 X12.8948 Y24.2758
G01 X13.0845 Y24.1302
G01 X13.2916 Y24.0107
G01 X13.5125 Y23.9192
G01 X13.7434 Y23.8573
G01 X13.9805 Y23.8261
G01 X14.2195 Y23.8261
G01 X14.4566 Y23.8573
G01 X14.5808 Y23.8906
G01 X14.5883 Y23.8919
G01 X14.5959 Y23.8924
G01 X14.6689 Y23.8906
G01 X14.6752 Y23.8900
G01 X14.6830 Y23.8883
G01 X14.6906 Y23.8857
G01 X14.6977 Y23.8822
G01 X14.7516 Y23.8493
G01 X14.7565 Y23.8456
G01 X14.7610 Y23.8415
G01 X17.2335 Y21.3690
G01 X17.2395 Y21.3621
G01 X17.2437 Y21.3557
G01 X17.2800 Y21.2889
G01 X17.2828 Y21.2815
G01 X17.2850 Y21.2723
G01 X17.2882 Y21.2428
G01 X17.2886 Y21.2360
G01 X17.2886 Y14.1640
G01 X17.2879 Y14.1549
G01 X17.2860 Y14.1459
G01 X17.2663 Y14.0789
G01 X17.2636 Y14.0715
G01 X17.2609 Y14.0659
G01 X17.2566 Y14.0592
G01 X17.2381 Y14.0361
G01 X17.2335 Y14.0310
G01 X14.4697 Y11.2672
G01 X14.3809 Y11.1343
G01 X14.3198 Y10.9867
G01 X14.2886 Y10.8299
G01 X14.2886 Y10.6991
G01 X14.2873 Y10.6879
G01 X14.2841 Y10.6757
G01 X14.2842 Y10.6658
G01 X14.2834 Y10.6578
G01 X14.2821 Y10.6515
G01 X14.2795 Y10.6438
G01 X14.2628 Y10.6058
G01 X14.2566 Y10.5960
G01 X14.2495 Y10.5881
G01 X14.1952 Y10.5393
G01 X14.1888 Y10.5345
G01 X14.1820 Y10.5305
G01 X14.1731 Y10.5270
G01 X14.1638 Y10.5247
G01 X14.0933 Y10.5133
G01 X14.0854 Y10.5127
G01 X14.0790 Y10.5130
G01 X14.0696 Y10.5145
G01 X14.0605 Y10.5174
G01 X13.9935 Y10.5466
G01 X13.9879 Y10.5495
G01 X13.9826 Y10.5530
G01 X13.9742 Y10.5604
G01 X13.9442 Y10.5950
G01 X13.9399 Y10.6011
G01 X13.9363 Y10.6075
G01 X13.9333 Y10.6150
G01 X13.9307 Y10.6236
G01 X13.9244 Y10.6340
G01 X13.9203 Y10.6444
G01 X13.9180 Y10.6552
G01 X13.9174 Y10.6705
G01 X13.9134 Y10.6847
G01 X13.9121 Y10.6910
G01 X13.9114 Y10.7007
G01 X13.9114 Y11.8299
G01 X13.8802 Y11.9867
G01 X13.8191 Y12.1343
G01 X13.7303 Y12.2672
G01 X11.4665 Y14.5310
G01 X11.4614 Y14.5367
G01 X11.4563 Y14.5443
G01 X11.4206 Y14.6097
G01 X11.4172 Y14.6185
G01 X11.4153 Y14.6261
G01 X11.4118 Y14.6572
G01 X11.4114 Y14.6640
G01 X11.4114 Y17.3360
G01 X11.4121 Y17.3451
G01 X11.4136 Y17.3526
G01 X11.4341 Y17.4226
G01 X11.4384 Y17.4327
G01 X11.4443 Y17.4420
G01 X11.4619 Y17.4639
G01 X11.4665 Y17.4690
G01 X12.7271 Y18.7296
G01 X12.7333 Y18.7350
G01 X12.7386 Y18.7388
G01 X12.7956 Y18.7721
G01 X12.8030 Y18.7756
G01 X12.8092 Y18.7777
G01 X14.0274 Y19.1198
G01 X14.0667 Y19.1255
G01 X14.0739 Y19.1261
G01 X14.2195 Y19.1261
G01 X14.4566 Y19.1573
G01 X14.6875 Y19.2192
G01 X14.9084 Y19.3107
G01 X15.1155 Y19.4302
G01 X15.3052 Y19.5758
G01 X15.4742 Y19.7448
G01 X15.6198 Y19.9345
G01 X15.7393 Y20.1416
G01 X15.8308 Y20.3625
G01 X15.8927 Y20.5934
G01 X15.9239 Y20.8305
G01 X15.9239 Y21.0695
G01 X15.8927 Y21.3066
G01 X15.8308 Y21.5375
G01 X15.7393 Y21.7584
G01 X15.6198 Y21.9655
G01 X15.5736 Y22.0257
G01 X15.4742 Y22.1552
G01 X15.3052 Y22.3242
G01 X15.1155 Y22.4698
G01 X14.9084 Y22.5893
G01 X14.6875 Y22.6808
G01 X14.4566 Y22.7427
G01 X14.2196 Y22.7739
G01 X13.9805 Y22.7739
G01 X13.7434 Y22.7427
G01 X13.5125 Y22.6808
G01 X13.2916 Y22.5893
G01 X13.0845 Y22.4698
G01 X12.8948 Y22.3242
G01 X12.7258 Y22.1552
G01 X12.5802 Y21.9655
G01 X12.4607 Y21.7584
G01 X12.3692 Y21.5375
G01 X12.3073 Y21.3066
G01 X12.3027 Y21.2714
G01 X12.3012 Y21.2638
G01 X12.2881 Y21.2212
G01 X12.2848 Y21.2126
G01 X11.6551 Y19.9659
G01 X11.6508 Y19.9586
G01 X11.6268 Y19.9255
G01 X11.6202 Y19.9177
G01 X9.9697 Y18.2672
G01 X9.8809 Y18.1343
G01 X9.8198 Y17.9867
G01 X9.7886 Y17.8299
G01 X9.7886 Y14.1701
G01 X9.8198 Y14.0133
G01 X9.8809 Y13.8657
G01 X9.9697 Y13.7328
G01 X12.2346 Y11.4679
G01 X12.2395 Y11.4621
G01 X12.2437 Y11.4557
G01 X12.2779 Y11.3931
G01 X12.2807 Y11.3874
G01 X12.2833 Y11.3800
G01 X12.2850 Y11.3723
G01 X12.2884 Y11.3411
G01 X12.2886 Y10.7007
G01 X12.2881 Y10.6926
G01 X12.2862 Y10.6832
G01 X12.2662 Y10.6135
G01 X12.2614 Y10.6033
G01 X12.2237 Y10.5421
G01 X12.1731 Y10.3893
G01 X12.1636 Y10.2968
G01 X12.1636 Y7.2386
G01 X12.1629 Y7.2295
G01 X12.1614 Y7.2220
G01 X12.1409 Y7.1520
G01 X12.1380 Y7.1446
G01 X12.1342 Y7.1376
G01 X12.1295 Y7.1311
G01 X12.1241 Y7.1253
G01 X12.0678 Y7.0764
G01 X12.0627 Y7.0726
G01 X12.0558 Y7.0686
G01 X12.0470 Y7.0649
G01 X12.0377 Y7.0626
G01 X11.9654 Y7.0522
G01 X11.9543 Y7.0519
G01 X11.9479 Y7.0526
G01 X11.9417 Y7.0538
G01 X11.9312 Y7.0576
G01 X11.8677 Y7.0866
G01 X11.8608 Y7.0903
G01 X11.8544 Y7.0947
G01 X11.8465 Y7.1022
G01 X11.8191 Y7.1345
G01 X11.8154 Y7.1399
G01 X11.7917 Y7.1783
G01 X11.6783 Y7.2917
G01 X11.5418 Y7.3759
G01 X11.3892 Y7.4265
G01 X11.2967 Y7.4359
G01 X11.0141 Y7.4359
G01 X11.0141 Y7.0641
G01 X11.2500 Y7.0641
G01 X11.2792 Y7.0627
G01 X11.3113 Y7.0581
G01 X11.3381 Y7.0514
G01 X11.3673 Y7.0413
G01 X11.3731 Y7.0389
G01 X11.3981 Y7.0270
G01 X11.4218 Y7.0128
G01 X11.4468 Y6.9947
G01 X11.4516 Y6.9907
G01 X11.4721 Y6.9721
G01 X11.4928 Y6.9493
G01 X11.5094 Y6.9271
G01 X11.5128 Y6.9218
G01 X11.5270 Y6.8981
G01 X11.5389 Y6.8731
G01 X11.5413 Y6.8673
G01 X11.5506 Y6.8412
G01 X11.5584 Y6.8097
G01 X11.5626 Y6.7808
G01 X11.5641 Y6.7500
G01 X11.5641 Y4.2500
G01 X11.5628 Y4.2224
G01 X11.5622 Y4.2161
G01 X11.5581 Y4.1887
G01 X11.5514 Y4.1619
G01 X11.5496 Y4.1558
G01 X11.5402 Y4.1298
G01 X11.5284 Y4.1047
G01 X11.5255 Y4.0992
G01 X11.5112 Y4.0755
G01 X11.4947 Y4.0532
G01 X11.4907 Y4.0484
G01 X11.4721 Y4.0279
G01 X11.4516 Y4.0093
G01 X11.4468 Y4.0053
G01 X11.4245 Y3.9888
G01 X11.3994 Y3.9737
G01 X11.3702 Y3.9598
G01 X11.3412 Y3.9494
G01 X11.3113 Y3.9419
G01 X11.2808 Y3.9374
G01 X11.2500 Y3.9359
G01 X11.0141 Y3.9359
G00 Z2.0000
G00 X11.1102 Y3.8398
G01 F60.00
G01 Z-0.0499
G01 F100.00
G01 X11.1102 Y3.6603
G01 X11.2918 Y3.6603
G01 X11.3690 Y3.6681
G01 X11.5009 Y3.7119
G01 X11.6183 Y3.7842
G01 X11.7158 Y3.8817
G01 X11.7881 Y3.9991
G01 X11.8319 Y4.1311
G01 X11.8397 Y4.2082
G01 X11.8397 Y4.7612
G01 X11.8402 Y4.7727
G01 X11.8409 Y4.7803
G01 X11.8426 Y4.7916
G01 X11.8452 Y4.8027
G01 X11.8659 Y4.8734
G01 X11.8712 Y4.8884
G01 X11.8761 Y4.8993
G01 X11.8817 Y4.9098
G01 X11.8882 Y4.9199
G01 X11.8954 Y4.9294
G01 X11.9032 Y4.9384
G01 X11.9118 Y4.9467
G01 X11.9675 Y4.9951
G01 X11.9801 Y5.0050
G01 X11.9901 Y5.0115
G01 X12.0041 Y5.0190
G01 X12.0188 Y5.0250
G01 X12.0341 Y5.0296
G01 X12.0497 Y5.0326
G01 X12.1267 Y5.0435
G01 X12.1426 Y5.0442
G01 X12.1546 Y5.0437
G01 X12.1625 Y5.0429
G01 X12.1742 Y5.0409
G01 X12.1820 Y5.0391
G01 X12.1934 Y5.0356
G01 X12.2009 Y5.0329
G01 X12.2788 Y4.9973
G01 X12.2890 Y4.9916
G01 X12.3018 Y4.9828
G01 X12.3138 Y4.9728
G01 X12.3221 Y4.9646
G01 X12.3516 Y4.9301
G01 X12.3591 Y4.9206
G01 X12.3659 Y4.9105
G01 X12.3838 Y4.8814
G01 X12.4814 Y4.7838
G01 X12.5989 Y4.7114
G01 X12.7309 Y4.6676
G01 X12.8082 Y4.6597
G01 X13.3918 Y4.6598
G01 X13.4691 Y4.6676
G01 X13.6011 Y4.7114
G01 X13.7186 Y4.7838
G01 X13.8162 Y4.8814
G01 X13.8601 Y4.9526
G01 X13.8690 Y4.9650
G01 X13.8765 Y4.9737
G01 X13.8873 Y4.9844
G01 X13.9422 Y5.0337
G01 X13.9516 Y5.0412
G01 X13.9615 Y5.0479
G01 X13.9718 Y5.0538
G01 X13.9863 Y5.0605
G01 X13.9975 Y5.0646
G01 X14.0090 Y5.0678
G01 X14.0207 Y5.0701
G01 X14.0936 Y5.0820
G01 X14.1054 Y5.0831
G01 X14.1174 Y5.0834
G01 X14.1333 Y5.0824
G01 X14.1451 Y5.0807
G01 X14.1567 Y5.0780
G01 X14.1719 Y5.0732
G01 X14.2505 Y5.0390
G01 X14.2644 Y5.0312
G01 X14.2775 Y5.0221
G01 X14.2866 Y5.0145
G01 X14.2979 Y5.0033
G01 X14.3266 Y4.9702
G01 X14.3336 Y4.9616
G01 X14.3419 Y4.9494
G01 X14.3838 Y4.8814
G01 X14.4814 Y4.7838
G01 X14.5989 Y4.7114
G01 X14.7309 Y4.6676
G01 X14.8082 Y4.6597
G01 X15.3918 Y4.6598
G01 X15.4691 Y4.6676
G01 X15.6011 Y4.7114
G01 X15.7186 Y4.7838
G01 X15.8162 Y4.8814
G01 X15.8382 Y4.9169
G01 X15.8450 Y4.9261
G01 X15.8551 Y4.9375
G01 X15.8633 Y4.9455
G01 X15.9182 Y4.9948
G01 X15.9276 Y5.0022
G01 X15.9341 Y5.0068
G01 X15.9478 Y5.0149
G01 X15.9586 Y5.0200
G01 X15.9735 Y5.0257
G01 X15.9850 Y5.0289
G01 X15.9967 Y5.0312
G01 X16.0696 Y5.0430
G01 X16.0854 Y5.0444
G01 X16.0974 Y5.0444
G01 X16.1132 Y5.0430
G01 X16.1250 Y5.0410
G01 X16.1403 Y5.0369
G01 X16.1516 Y5.0328
G01 X16.2265 Y5.0001
G01 X16.2404 Y4.9923
G01 X16.2535 Y4.9832
G01 X16.2626 Y4.9756
G01 X16.2712 Y4.9673
G01 X16.2791 Y4.9583
G01 X16.2864 Y4.9488
G01 X16.3317 Y4.8809
G01 X16.3355 Y4.8741
G01 X16.3407 Y4.8636
G01 X16.3463 Y4.8491
G01 X16.3496 Y4.8379
G01 X16.3527 Y4.8226
G01 X16.3590 Y4.7815
G01 X16.3602 Y4.7653
G01 X16.3602 Y4.2082
G01 X16.3681 Y4.1310
G01 X16.4119 Y3.9991
G01 X16.4842 Y3.8817
G01 X16.5817 Y3.7842
G01 X16.6991 Y3.7119
G01 X16.8310 Y3.6681
G01 X16.9082 Y3.6603
G01 X17.0897 Y3.6603
G01 X17.0897 Y3.8398
G01 X16.9461 Y3.8398
G01 X16.9098 Y3.8417
G01 X16.8738 Y3.8469
G01 X16.8623 Y3.8494
G01 X16.8309 Y3.8574
G01 X16.7967 Y3.8695
G01 X16.7858 Y3.8742
G01 X16.7601 Y3.8864
G01 X16.7498 Y3.8921
G01 X16.7287 Y3.9047
G01 X16.7156 Y3.9134
G01 X16.6897 Y3.9329
G01 X16.6599 Y3.9599
G01 X16.6329 Y3.9897
G01 X16.6089 Y4.0221
G01 X16.5882 Y4.0566
G01 X16.5710 Y4.0930
G01 X16.5574 Y4.1309
G01 X16.5494 Y4.1623
G01 X16.5469 Y4.1738
G01 X16.5417 Y4.2098
G01 X16.5398 Y4.2500
G01 X16.5398 Y6.7500
G01 X16.5417 Y6.7902
G01 X16.5463 Y6.8223
G01 X16.5494 Y6.8377
G01 X16.5574 Y6.8691
G01 X16.5681 Y6.8997
G01 X16.5725 Y6.9106
G01 X16.5847 Y6.9364
G01 X16.5921 Y6.9502
G01 X16.6089 Y6.9779
G01 X16.6329 Y7.0103
G01 X16.6599 Y7.0401
G01 X16.6838 Y7.0620
G01 X16.6959 Y7.0720
G01 X16.7188 Y7.0889
G01 X16.7287 Y7.0953
G01 X16.7566 Y7.1118
G01 X16.7858 Y7.1258
G01 X16.7967 Y7.1305
G01 X16.8272 Y7.1414
G01 X16.8385 Y7.1447
G01 X16.8661 Y7.1516
G01 X16.8777 Y7.1537
G01 X16.9059 Y7.1578
G01 X16.9176 Y7.1589
G01 X16.9421 Y7.1601
G01 X17.0898 Y7.1602
G01 X17.0898 Y7.3398
G01 X16.9082 Y7.3398
G01 X16.8310 Y7.3319
G01 X16.6991 Y7.2881
G01 X16.5817 Y7.2158
G01 X16.4842 Y7.1183
G01 X16.4623 Y7.0830
G01 X16.4555 Y7.0738
G01 X16.4454 Y7.0623
G01 X16.4372 Y7.0544
G01 X16.3792 Y7.0025
G01 X16.3697 Y6.9953
G01 X16.3596 Y6.9888
G01 X16.3491 Y6.9832
G01 X16.3419 Y6.9798
G01 X16.3345 Y6.9768
G01 X16.3232 Y6.9730
G01 X16.3116 Y6.9701
G01 X16.3038 Y6.9686
G01 X16.2270 Y6.9563
G01 X16.2190 Y6.9556
G01 X16.2071 Y6.9553
G01 X16.1952 Y6.9559
G01 X16.1873 Y6.9568
G01 X16.1716 Y6.9598
G01 X16.1602 Y6.9630
G01 X16.1526 Y6.9656
G01 X16.0812 Y6.9964
G01 X16.0704 Y7.0016
G01 X16.0567 Y7.0097
G01 X16.0439 Y7.0191
G01 X16.0321 Y7.0298
G01 X16.0266 Y7.0355
G01 X16.0189 Y7.0446
G01 X16.0119 Y7.0543
G01 X15.9709 Y7.1156
G01 X15.9650 Y7.1257
G01 X15.9615 Y7.1327
G01 X15.9555 Y7.1471
G01 X15.9519 Y7.1582
G01 X15.9484 Y7.1734
G01 X15.9415 Y7.2184
G01 X15.9407 Y7.2264
G01 X15.9402 Y7.2386
G01 X15.9402 Y10.2918
G01 X15.9315 Y10.3770
G01 X15.9295 Y10.3902
G01 X15.9285 Y10.4017
G01 X15.9268 Y10.4745
G01 X15.9275 Y10.4903
G01 X15.9291 Y10.5020
G01 X15.9316 Y10.5136
G01 X15.9362 Y10.5287
G01 X15.9407 Y10.5397
G01 X15.9459 Y10.5504
G01 X15.9842 Y10.6173
G01 X15.9932 Y10.6300
G01 X16.0007 Y10.6390
G01 X16.0061 Y10.6446
G01 X18.6556 Y13.2941
G01 X18.7338 Y13.4112
G01 X18.7878 Y13.5414
G01 X18.8153 Y13.6796
G01 X18.8153 Y21.7204
G01 X18.7878 Y21.8586
G01 X18.7338 Y21.9888
G01 X18.6556 Y22.1059
G01 X15.8405 Y24.9210
G01 X15.8302 Y24.9323
G01 X15.8211 Y24.9445
G01 X15.8132 Y24.9575
G01 X15.7797 Y25.0188
G01 X15.7727 Y25.0332
G01 X15.7673 Y25.0482
G01 X15.7641 Y25.0598
G01 X15.7614 Y25.0755
G01 X15.7601 Y25.0915
G01 X15.7615 Y25.1579
G01 X15.7622 Y25.1693
G01 X15.7631 Y25.1769
G01 X15.7651 Y25.1882
G01 X15.7669 Y25.1956
G01 X15.7982 Y25.3122
G01 X15.8278 Y25.5368
G01 X15.8278 Y25.7632
G01 X15.7982 Y25.9878
G01 X15.7396 Y26.2066
G01 X15.6529 Y26.4158
G01 X15.5397 Y26.6119
G01 X15.4018 Y26.7916
G01 X15.2416 Y26.9518
G01 X15.0620 Y27.0896
G01 X14.8658 Y27.2029
G01 X14.6566 Y27.2896
G01 X14.4378 Y27.3482
G01 X14.2133 Y27.3777
G01 X13.9868 Y27.3778
G01 X13.7622 Y27.3482
G01 X13.5434 Y27.2896
G01 X13.3342 Y27.2029
G01 X13.1381 Y27.0897
G01 X12.9584 Y26.9518
G01 X12.7982 Y26.7916
G01 X12.6604 Y26.6120
G01 X12.5471 Y26.4158
G01 X12.4604 Y26.2066
G01 X12.4018 Y25.9878
G01 X12.3723 Y25.7633
G01 X12.3722 Y25.5368
G01 X12.4018 Y25.3122
G01 X12.4604 Y25.0934
G01 X12.5471 Y24.8842
G01 X12.6603 Y24.6881
G01 X12.7982 Y24.5084
G01 X12.9584 Y24.3482
G01 X13.1381 Y24.2103
G01 X13.3342 Y24.0971
G01 X13.5434 Y24.0104
G01 X13.7622 Y23.9518
G01 X13.9868 Y23.9222
G01 X14.2132 Y23.9222
G01 X14.4378 Y23.9518
G01 X14.5581 Y23.9840
G01 X14.5693 Y23.9863
G01 X14.5769 Y23.9874
G01 X14.5883 Y23.9883
G01 X14.5959 Y23.9885
G01 X14.6775 Y23.9864
G01 X14.6895 Y23.9851
G01 X14.6973 Y23.9837
G01 X14.7128 Y23.9798
G01 X14.7204 Y23.9773
G01 X14.7315 Y23.9728
G01 X14.7457 Y23.9655
G01 X14.8023 Y23.9310
G01 X14.8147 Y23.9221
G01 X14.8235 Y23.9148
G01 X14.8290 Y23.9095
G01 X17.3015 Y21.4370
G01 X17.3093 Y21.4286
G01 X17.3141 Y21.4227
G01 X17.3209 Y21.4135
G01 X17.3250 Y21.4071
G01 X17.3623 Y21.3392
G01 X17.3676 Y21.3286
G01 X17.3707 Y21.3214
G01 X17.3746 Y21.3102
G01 X17.3777 Y21.2989
G01 X17.3793 Y21.2912
G01 X17.3810 Y21.2795
G01 X17.3838 Y21.2531
G01 X17.3847 Y21.2360
G01 X17.3847 Y14.1640
G01 X17.3843 Y14.1526
G01 X17.3831 Y14.1412
G01 X17.3819 Y14.1337
G01 X17.3793 Y14.1225
G01 X17.3586 Y14.0518
G01 X17.3548 Y14.0406
G01 X17.3503 Y14.0297
G01 X17.3430 Y14.0158
G01 X17.3344 Y14.0027
G01 X17.3130 Y13.9758
G01 X17.3045 Y13.9661
G01 X14.5444 Y11.2059
G01 X14.4662 Y11.0888
G01 X14.4122 Y10.9586
G01 X14.3847 Y10.8205
G01 X14.3847 Y10.6966
G01 X14.3835 Y10.6806
G01 X14.3823 Y10.6726
G01 X14.3803 Y10.6631
G01 X14.3798 Y10.6547
G01 X14.3783 Y10.6426
G01 X14.3750 Y10.6269
G01 X14.3701 Y10.6115
G01 X14.3514 Y10.5681
G01 X14.3443 Y10.5546
G01 X14.3377 Y10.5442
G01 X14.3309 Y10.5350
G01 X14.3235 Y10.5263
G01 X14.3154 Y10.5181
G01 X14.2546 Y10.4637
G01 X14.2418 Y10.4542
G01 X14.2281 Y10.4462
G01 X14.2173 Y10.4410
G01 X14.2062 Y10.4367
G01 X14.1948 Y10.4332
G01 X14.1832 Y10.4305
G01 X14.1063 Y10.4180
G01 X14.0905 Y10.4167
G01 X14.0746 Y10.4169
G01 X14.0627 Y10.4181
G01 X14.0509 Y10.4201
G01 X14.0394 Y10.4231
G01 X14.0243 Y10.4283
G01 X13.9494 Y10.4611
G01 X13.9389 Y10.4668
G01 X13.9322 Y10.4710
G01 X13.9256 Y10.4755
G01 X13.9163 Y10.4829
G01 X13.9104 Y10.4883
G01 X13.9020 Y10.4968
G01 X13.8734 Y10.5298
G01 X13.8642 Y10.5413
G01 X13.8576 Y10.5514
G01 X13.8499 Y10.5655
G01 X13.8465 Y10.5728
G01 X13.8424 Y10.5834
G01 X13.8385 Y10.5909
G01 X13.8335 Y10.6017
G01 X13.8282 Y10.6167
G01 X13.8244 Y10.6322
G01 X13.8225 Y10.6440
G01 X13.8216 Y10.6561
G01 X13.8185 Y10.6687
G01 X13.8165 Y10.6806
G01 X13.8155 Y10.6926
G01 X13.8153 Y10.7007
G01 X13.8153 Y11.8204
G01 X13.7878 Y11.9586
G01 X13.7338 Y12.0888
G01 X13.6556 Y12.2059
G01 X11.3958 Y14.4657
G01 X11.3907 Y14.4714
G01 X11.3835 Y14.4803
G01 X11.3750 Y14.4929
G01 X11.3341 Y14.5678
G01 X11.3308 Y14.5750
G01 X11.3266 Y14.5860
G01 X11.3232 Y14.5973
G01 X11.3214 Y14.6050
G01 X11.3195 Y14.6166
G01 X11.3162 Y14.6469
G01 X11.3153 Y14.6640
G01 X11.3153 Y17.3360
G01 X11.3157 Y17.3474
G01 X11.3164 Y17.3550
G01 X11.3175 Y17.3626
G01 X11.3198 Y17.3738
G01 X11.3426 Y17.4519
G01 X11.3466 Y17.4630
G01 X11.3532 Y17.4773
G01 X11.3590 Y17.4876
G01 X11.3656 Y17.4973
G01 X11.3898 Y17.5275
G01 X11.3985 Y17.5370
G01 X12.6591 Y18.7976
G01 X12.6713 Y18.8086
G01 X12.6845 Y18.8183
G01 X12.7492 Y18.8563
G01 X12.7639 Y18.8635
G01 X12.7754 Y18.8678
G01 X12.7832 Y18.8703
G01 X14.0056 Y19.2135
G01 X14.0200 Y19.2161
G01 X14.0572 Y19.2212
G01 X14.0681 Y19.2221
G01 X14.2132 Y19.2222
G01 X14.4378 Y19.2518
G01 X14.6566 Y19.3104
G01 X14.8658 Y19.3971
G01 X15.0619 Y19.5103
G01 X15.2416 Y19.6482
G01 X15.4018 Y19.8084
G01 X15.5397 Y19.9881
G01 X15.6529 Y20.1842
G01 X15.7396 Y20.3934
G01 X15.7982 Y20.6122
G01 X15.8278 Y20.8368
G01 X15.8278 Y21.0632
G01 X15.7982 Y21.2878
G01 X15.7396 Y21.5066
G01 X15.6529 Y21.7158
G01 X15.5397 Y21.9119
G01 X15.4973 Y21.9672
G01 X15.4018 Y22.0916
G01 X15.2416 Y22.2518
G01 X15.0620 Y22.3896
G01 X14.8658 Y22.5029
G01 X14.6566 Y22.5896
G01 X14.4378 Y22.6482
G01 X14.2133 Y22.6777
G01 X13.9868 Y22.6778
G01 X13.7622 Y22.6482
G01 X13.5434 Y22.5896
G01 X13.3342 Y22.5029
G01 X13.1381 Y22.3897
G01 X12.9584 Y22.2518
G01 X12.7982 Y22.0916
G01 X12.6604 Y21.9120
G01 X12.5471 Y21.7158
G01 X12.4604 Y21.5066
G01 X12.4018 Y21.2878
G01 X12.3975 Y21.2550
G01 X12.3943 Y21.2399
G01 X12.3788 Y21.1891
G01 X12.3747 Y21.1783
G01 X12.3716 Y21.1713
G01 X11.7410 Y19.9226
G01 X11.7369 Y19.9151
G01 X11.7302 Y19.9044
G01 X11.7047 Y19.8691
G01 X11.6969 Y19.8591
G01 X11.6882 Y19.8498
G01 X10.0444 Y18.2059
G01 X9.9662 Y18.0888
G01 X9.9122 Y17.9586
G01 X9.8847 Y17.8205
G01 X9.8847 Y14.1796
G01 X9.9122 Y14.0414
G01 X9.9662 Y13.9112
G01 X10.0444 Y13.7941
G01 X12.3042 Y11.5343
G01 X12.3093 Y11.5286
G01 X12.3165 Y11.5197
G01 X12.3250 Y11.5071
G01 X12.3623 Y11.4392
G01 X12.3692 Y11.4250
G01 X12.3746 Y11.4102
G01 X12.3786 Y11.3950
G01 X12.3805 Y11.3834
G01 X12.3842 Y11.3489
G01 X12.3847 Y11.3360
G01 X12.3847 Y10.7007
G01 X12.3843 Y10.6886
G01 X12.3835 Y10.6806
G01 X12.3823 Y10.6726
G01 X12.3797 Y10.6608
G01 X12.3602 Y10.5918
G01 X12.3565 Y10.5804
G01 X12.3502 Y10.5655
G01 X12.3445 Y10.5549
G01 X12.3114 Y10.5012
G01 X12.2676 Y10.3690
G01 X12.2597 Y10.2919
G01 X12.2597 Y7.2386
G01 X12.2596 Y7.2310
G01 X12.2586 Y7.2196
G01 X12.2575 Y7.2120
G01 X12.2552 Y7.2008
G01 X12.2324 Y7.1226
G01 X12.2268 Y7.1077
G01 X12.2216 Y7.0970
G01 X12.2178 Y7.0900
G01 X12.2090 Y7.0767
G01 X12.2016 Y7.0674
G01 X12.1962 Y7.0615
G01 X12.1848 Y7.0505
G01 X12.1289 Y7.0022
G01 X12.1161 Y6.9927
G01 X12.1025 Y6.9845
G01 X12.0918 Y6.9792
G01 X12.0769 Y6.9735
G01 X12.0654 Y6.9703
G01 X12.0498 Y6.9672
G01 X11.9807 Y6.9573
G01 X11.9688 Y6.9560
G01 X11.9569 Y6.9556
G01 X11.9489 Y6.9559
G01 X11.9370 Y6.9570
G01 X11.9292 Y6.9582
G01 X11.9175 Y6.9608
G01 X11.9098 Y6.9630
G01 X11.9023 Y6.9656
G01 X11.8913 Y6.9701
G01 X11.8207 Y7.0025
G01 X11.8105 Y7.0083
G01 X11.7977 Y7.0171
G01 X11.7857 Y7.0271
G01 X11.7774 Y7.0353
G01 X11.7453 Y7.0728
G01 X11.7357 Y7.0860
G01 X11.7158 Y7.1183
G01 X11.6183 Y7.2158
G01 X11.5009 Y7.2881
G01 X11.3689 Y7.3319
G01 X11.2918 Y7.3398
G01 X11.1102 Y7.3398
G01 X11.1102 Y7.1602
G01 X11.2539 Y7.1602
G01 X11.2902 Y7.1583
G01 X11.3262 Y7.1531
G01 X11.3377 Y7.1506
G01 X11.3691 Y7.1426
G01 X11.4033 Y7.1305
G01 X11.4142 Y7.1258
G01 X11.4399 Y7.1136
G01 X11.4502 Y7.1079
G01 X11.4713 Y7.0953
G01 X11.4844 Y7.0866
G01 X11.5103 Y7.0671
G01 X11.5401 Y7.0401
G01 X11.5671 Y7.0103
G01 X11.5911 Y6.9779
G01 X11.6118 Y6.9434
G01 X11.6290 Y6.9070
G01 X11.6426 Y6.8691
G01 X11.6506 Y6.8377
G01 X11.6531 Y6.8262
G01 X11.6583 Y6.7902
G01 X11.6602 Y6.7500
G01 X11.6602 Y4.2500
G01 X11.6583 Y4.2098
G01 X11.6537 Y4.1777
G01 X11.6506 Y4.1623
G01 X11.6426 Y4.1309
G01 X11.6319 Y4.1003
G01 X11.6275 Y4.0894
G01 X11.6153 Y4.0636
G01 X11.6079 Y4.0498
G01 X11.5911 Y4.0221
G01 X11.5671 Y3.9897
G01 X11.5401 Y3.9599
G01 X11.5162 Y3.9380
G01 X11.5041 Y3.9280
G01 X11.4812 Y3.9111
G01 X11.4713 Y3.9047
G01 X11.4434 Y3.8882
G01 X11.4142 Y3.8742
G01 X11.4033 Y3.8695
G01 X11.3728 Y3.8586
G01 X11.3615 Y3.8553
G01 X11.3339 Y3.8484
G01 X11.3223 Y3.8463
G01 X11.2941 Y3.8422
G01 X11.2824 Y3.8411
G01 X11.2579 Y3.8399
G01 X11.1102 Y3.8398
G00 Z2.0000
G00 X12.3960 Y5.0262
G01 F60.00
G01 Z-0.0499
G01 F100.00
G01 X12.3821 Y5.0562
G01 X12.3694 Y5.0911
G01 X12.3637 Y5.1090
G01 X12.3561 Y5.1389
G01 X12.3522 Y5.1574
G01 X12.3467 Y5.1941
G01 X12.3455 Y5.2066
G01 X12.3437 Y5.2437
G01 X12.3436 Y7.1599
G01 X12.3240 Y7.0933
G01 X12.3198 Y7.0812
G01 X12.3150 Y7.0694
G01 X12.3067 Y7.0522
G01 X12.2972 Y7.0357
G01 X12.2865 Y7.0198
G01 X12.2746 Y7.0049
G01 X12.2617 Y6.9908
G01 X12.2477 Y6.9778
G01 X12.1901 Y6.9279
G01 X12.1749 Y6.9164
G01 X12.1589 Y6.9059
G01 X12.1421 Y6.8967
G01 X12.1306 Y6.8913
G01 X12.1188 Y6.8864
G01 X12.1008 Y6.8803
G01 X12.0823 Y6.8755
G01 X12.0698 Y6.8730
G01 X11.9943 Y6.8621
G01 X11.9754 Y6.8601
G01 X11.9563 Y6.8595
G01 X11.9372 Y6.8603
G01 X11.9182 Y6.8626
G01 X11.8995 Y6.8662
G01 X11.8810 Y6.8713
G01 X11.8690 Y6.8754
G01 X11.8572 Y6.8801
G01 X11.7878 Y6.9117
G01 X11.7711 Y6.9201
G01 X11.7603 Y6.9263
G01 X11.7498 Y6.9331
G01 X11.7348 Y6.9442
G01 X11.7206 Y6.9563
G01 X11.7116 Y6.9650
G01 X11.7047 Y6.9723
G01 X11.7179 Y6.9438
G01 X11.7306 Y6.9089
G01 X11.7363 Y6.8910
G01 X11.7439 Y6.8611
G01 X11.7478 Y6.8426
G01 X11.7533 Y6.8059
G01 X11.7545 Y6.7934
G01 X11.7563 Y6.7563
G01 X11.7564 Y4.8417
G01 X11.7755 Y4.9066
G01 X11.7797 Y4.9186
G01 X11.7845 Y4.9304
G01 X11.7928 Y4.9476
G01 X11.8023 Y4.9642
G01 X11.8130 Y4.9800
G01 X11.8249 Y4.9950
G01 X11.8378 Y5.0090
G01 X11.8518 Y5.0220
G01 X11.9094 Y5.0719
G01 X11.9246 Y5.0835
G01 X11.9352 Y5.0906
G01 X11.9461 Y5.0971
G01 X11.9631 Y5.1059
G01 X11.9807 Y5.1134
G01 X11.9987 Y5.1196
G01 X12.0110 Y5.1230
G01 X12.0297 Y5.1268
G01 X12.1052 Y5.1378
G01 X12.1241 Y5.1398
G01 X12.1432 Y5.1404
G01 X12.1623 Y5.1395
G01 X12.1813 Y5.1373
G01 X12.2000 Y5.1336
G01 X12.2124 Y5.1304
G01 X12.2245 Y5.1266
G01 X12.2423 Y5.1198
G01 X12.3117 Y5.0882
G01 X12.3284 Y5.0798
G01 X12.3445 Y5.0702
G01 X12.3548 Y5.0632
G01 X12.3647 Y5.0557
G01 X12.3789 Y5.0435
G01 X12.3879 Y5.0348
G01 X12.3960 Y5.0262
G00 Z2.0000
G00 X9.5602 Y6.7918
G01 F60.00
G01 Z-0.0499
G01 F100.00
G01 X9.5602 Y5.9102
G01 X9.7398 Y5.9102
G01 X9.7398 Y6.7539
G01 X9.7417 Y6.7902
G01 X9.7476 Y6.8300
G01 X9.7574 Y6.8691
G01 X9.7695 Y6.9033
G01 X9.7742 Y6.9142
G01 X9.7882 Y6.9434
G01 X9.8067 Y6.9746
G01 X9.8134 Y6.9844
G01 X9.8304 Y7.0072
G01 X9.8380 Y7.0162
G01 X9.8545 Y7.0344
G01 X9.8656 Y7.0455
G01 X9.8867 Y7.0646
G01 X9.8959 Y7.0720
G01 X9.9156 Y7.0866
G01 X9.9254 Y7.0933
G01 X9.9498 Y7.1079
G01 X9.9601 Y7.1136
G01 X9.9930 Y7.1290
G01 X10.0309 Y7.1426
G01 X10.0700 Y7.1524
G01 X10.1020 Y7.1573
G01 X10.1137 Y7.1586
G01 X10.1461 Y7.1602
G01 X10.2898 Y7.1602
G01 X10.2898 Y7.3398
G01 X10.1082 Y7.3398
G01 X10.0310 Y7.3319
G01 X9.8991 Y7.2881
G01 X9.7817 Y7.2158
G01 X9.6842 Y7.1183
G01 X9.6119 Y7.0009
G01 X9.5681 Y6.8690
G01 X9.5602 Y6.7918
G00 Z2.0000
G00 X9.4641 Y6.7967
G01 F60.00
G01 Z-0.0499
G01 F100.00
G01 X9.4641 Y5.8141
G01 X9.8359 Y5.8141
G01 X9.8359 Y6.7516
G01 X9.8374 Y6.7808
G01 X9.8414 Y6.8082
G01 X9.8426 Y6.8143
G01 X9.8499 Y6.8427
G01 X9.8598 Y6.8702
G01 X9.8716 Y6.8953
G01 X9.8745 Y6.9008
G01 X9.8888 Y6.9245
G01 X9.9053 Y6.9468
G01 X9.9257 Y6.9698
G01 X9.9302 Y6.9743
G01 X9.9507 Y6.9928
G01 X9.9755 Y7.0112
G01 X10.0019 Y7.0270
G01 X10.0298 Y7.0402
G01 X10.0588 Y7.0506
G01 X10.0857 Y7.0574
G01 X10.0918 Y7.0586
G01 X10.1208 Y7.0627
G01 X10.1500 Y7.0641
G01 X10.3859 Y7.0641
G01 X10.3859 Y7.4359
G01 X10.1033 Y7.4359
G01 X10.0108 Y7.4265
G01 X9.8582 Y7.3759
G01 X9.7217 Y7.2917
G01 X9.6083 Y7.1783
G01 X9.5241 Y7.0419
G01 X9.4735 Y6.8892
G01 X9.4641 Y6.7967
G00 Z2.0000
G00 X12.4518 Y10.5627
G01 F60.00
G01 Z-0.0499
G01 F100.00
G01 X12.4585 Y10.5713
G01 X12.4684 Y10.5826
G01 X12.4684 Y10.6210
G01 X12.4518 Y10.5627
G00 Z2.0000
G00 X12.4684 Y11.4320
G01 F60.00
G01 Z-0.0499
G01 F100.00
G01 X12.4684 Y11.4884
G01 X12.4168 Y11.5400
G01 X12.4467 Y11.4852
G01 X12.4525 Y11.4740
G01 X12.4577 Y11.4626
G01 X12.4623 Y11.4509
G01 X12.4684 Y11.4320
G00 Z2.0000
G00 X13.7316 Y10.6063
G01 F60.00
G01 Z-0.0499
G01 F100.00
G01 X13.7316 Y10.5826
G01 X13.7429 Y10.5695
G01 X13.7361 Y10.5891
G01 X13.7316 Y10.6063
G00 Z2.0000
G00 X13.8151 Y10.4502
G01 F60.00
G01 Z-0.0499
G01 F100.00
G01 X13.8224 Y10.4320
G01 X13.8346 Y10.3970
G01 X13.8439 Y10.3611
G01 X13.8467 Y10.3488
G01 X13.8488 Y10.3364
G01 X13.8540 Y10.2996
G01 X13.8561 Y10.2626
G01 X13.8564 Y10.2500
G01 X13.8564 Y5.2500
G01 X13.8561 Y5.2374
G01 X13.8540 Y5.2004
G01 X13.8488 Y5.1636
G01 X13.8467 Y5.1512
G01 X13.8439 Y5.1389
G01 X13.8346 Y5.1030
G01 X13.8224 Y5.0680
G01 X13.8140 Y5.0473
G01 X13.8230 Y5.0559
G01 X13.8749 Y5.1026
G01 X13.8896 Y5.1148
G01 X13.8999 Y5.1224
G01 X13.9159 Y5.1327
G01 X13.9271 Y5.1389
G01 X13.9443 Y5.1472
G01 X13.9561 Y5.1519
G01 X13.9681 Y5.1561
G01 X13.9865 Y5.1613
G01 X13.9990 Y5.1639
G01 X14.0805 Y5.1772
G01 X14.0931 Y5.1786
G01 X14.1122 Y5.1796
G01 X14.1313 Y5.1791
G01 X14.1503 Y5.1772
G01 X14.1691 Y5.1739
G01 X14.1876 Y5.1692
G01 X14.1998 Y5.1653
G01 X14.2117 Y5.1608
G01 X14.2874 Y5.1279
G01 X14.2988 Y5.1223
G01 X14.3154 Y5.1127
G01 X14.3312 Y5.1020
G01 X14.3413 Y5.0942
G01 X14.3556 Y5.0816
G01 X14.3647 Y5.0727
G01 X14.3849 Y5.0497
G01 X14.3776 Y5.0680
G01 X14.3654 Y5.1030
G01 X14.3561 Y5.1389
G01 X14.3533 Y5.1512
G01 X14.3512 Y5.1636
G01 X14.3460 Y5.2004
G01 X14.3439 Y5.2374
G01 X14.3436 Y5.2500
G01 X14.3436 Y10.2500
G01 X14.3439 Y10.2626
G01 X14.3460 Y10.2996
G01 X14.3512 Y10.3364
G01 X14.3533 Y10.3488
G01 X14.3561 Y10.3611
G01 X14.3654 Y10.3970
G01 X14.3776 Y10.4320
G01 X14.3860 Y10.4526
G01 X14.3769 Y10.4440
G01 X14.3250 Y10.3973
G01 X14.3103 Y10.3851
G01 X14.3000 Y10.3776
G01 X14.2839 Y10.3672
G01 X14.2671 Y10.3582
G01 X14.2556 Y10.3528
G01 X14.2438 Y10.3480
G01 X14.2318 Y10.3438
G01 X14.2195 Y10.3403
G01 X14.2009 Y10.3360
G01 X14.1194 Y10.3228
G01 X14.1004 Y10.3209
G01 X14.0877 Y10.3204
G01 X14.0686 Y10.3209
G01 X14.0496 Y10.3228
G01 X14.0307 Y10.3261
G01 X14.0122 Y10.3308
G01 X14.0001 Y10.3347
G01 X13.9882 Y10.3392
G01 X13.9125 Y10.3722
G01 X13.9011 Y10.3778
G01 X13.8845 Y10.3873
G01 X13.8687 Y10.3980
G01 X13.8587 Y10.4058
G01 X13.8490 Y10.4141
G01 X13.8353 Y10.4274
G01 X13.8151 Y10.4502
G00 Z2.0000
G00 X14.4684 Y10.6041
G01 F60.00
G01 Z-0.0499
G01 F100.00
G01 X14.4623 Y10.5837
G01 X14.4565 Y10.5687
G01 X14.4684 Y10.5826
G01 X14.4684 Y10.6041
G00 Z2.0000
G00 X15.8322 Y10.4044
G01 F60.00
G01 Z-0.0499
G01 F100.00
G01 X15.8307 Y10.4682
G01 X15.8309 Y10.4872
G01 X15.8319 Y10.4998
G01 X15.8334 Y10.5123
G01 X15.8356 Y10.5248
G01 X15.8384 Y10.5371
G01 X15.8418 Y10.5493
G01 X15.8458 Y10.5613
G01 X15.8503 Y10.5731
G01 X15.8555 Y10.5846
G01 X15.8643 Y10.6015
G01 X15.8903 Y10.6471
G01 X15.7724 Y10.5292
G01 X15.7936 Y10.4942
G01 X15.8023 Y10.4775
G01 X15.8179 Y10.4438
G01 X15.8322 Y10.4044
G00 Z2.0000
G00 X17.9102 Y7.1602
G01 F60.00
G01 Z-0.0499
G01 F100.00
G01 X18.0500 Y7.1602
G01 X18.0902 Y7.1583
G01 X18.1300 Y7.1524
G01 X18.1615 Y7.1447
G01 X18.1766 Y7.1401
G01 X18.2070 Y7.1290
G01 X18.2434 Y7.1118
G01 X18.2713 Y7.0953
G01 X18.2844 Y7.0866
G01 X18.3072 Y7.0696
G01 X18.3162 Y7.0620
G01 X18.3401 Y7.0401
G01 X18.3671 Y7.0103
G01 X18.3911 Y6.9779
G01 X18.4079 Y6.9502
G01 X18.4153 Y6.9364
G01 X18.4290 Y6.9070
G01 X18.4426 Y6.8691
G01 X18.4524 Y6.8300
G01 X18.4573 Y6.7980
G01 X18.4589 Y6.7824
G01 X18.4602 Y6.7500
G01 X18.4602 Y5.9102
G01 X18.6397 Y5.9102
G01 X18.6397 Y6.7918
G01 X18.6319 Y6.8690
G01 X18.5881 Y7.0009
G01 X18.5158 Y7.1183
G01 X18.4183 Y7.2158
G01 X18.3009 Y7.2881
G01 X18.1689 Y7.3319
G01 X18.0918 Y7.3398
G01 X17.9102 Y7.3398
G01 X17.9102 Y7.1602
G00 Z2.0000
G00 X17.8141 Y7.0641
G01 F60.00
G01 Z-0.0499
G01 F100.00
G01 X18.0531 Y7.0640
G01 X18.0808 Y7.0626
G01 X18.1082 Y7.0586
G01 X18.1143 Y7.0574
G01 X18.1397 Y7.0510
G01 X18.1702 Y7.0402
G01 X18.1953 Y7.0284
G01 X18.2218 Y7.0128
G01 X18.2271 Y7.0094
G01 X18.2493 Y6.9928
G01 X18.2721 Y6.9721
G01 X18.2928 Y6.9493
G01 X18.3094 Y6.9271
G01 X18.3128 Y6.9218
G01 X18.3284 Y6.8953
G01 X18.3402 Y6.8702
G01 X18.3496 Y6.8442
G01 X18.3514 Y6.8381
G01 X18.3581 Y6.8113
G01 X18.3622 Y6.7839
G01 X18.3628 Y6.7776
G01 X18.3641 Y6.7500
G01 X18.3641 Y5.8141
G01 X18.7359 Y5.8141
G01 X18.7359 Y6.7967
G01 X18.7265 Y6.8892
G01 X18.6759 Y7.0418
G01 X18.5917 Y7.1783
G01 X18.4783 Y7.2917
G01 X18.3418 Y7.3759
G01 X18.1892 Y7.4265
G01 X18.0967 Y7.4359
G01 X17.8141 Y7.4359
G01 X17.8141 Y7.0641
G00 Z2.0000
G00 X15.8000 Y5.0179
G01 F60.00
G01 Z-0.0499
G01 F100.00
G01 X15.8557 Y5.0679
G01 X15.8656 Y5.0759
G01 X15.8759 Y5.0835
G01 X15.8919 Y5.0938
G01 X15.9087 Y5.1029
G01 X15.9262 Y5.1107
G01 X15.9441 Y5.1172
G01 X15.9563 Y5.1208
G01 X15.9750 Y5.1250
G01 X16.0502 Y5.1374
G01 X16.0691 Y5.1397
G01 X16.0882 Y5.1407
G01 X16.1073 Y5.1402
G01 X16.1200 Y5.1391
G01 X16.1326 Y5.1373
G01 X16.1513 Y5.1336
G01 X16.1697 Y5.1284
G01 X16.1877 Y5.1219
G01 X16.2576 Y5.0916
G01 X16.2692 Y5.0862
G01 X16.2860 Y5.0771
G01 X16.3020 Y5.0668
G01 X16.3173 Y5.0553
G01 X16.3316 Y5.0427
G01 X16.3407 Y5.0337
G01 X16.3492 Y5.0243
G01 X16.3612 Y5.0094
G01 X16.3685 Y4.9990
G01 X16.4074 Y4.9410
G01 X16.4141 Y4.9304
G01 X16.4231 Y4.9141
G01 X16.4309 Y4.8971
G01 X16.4375 Y4.8796
G01 X16.4436 Y4.8582
G01 X16.4437 Y6.7563
G01 X16.4455 Y6.7934
G01 X16.4467 Y6.8059
G01 X16.4522 Y6.8426
G01 X16.4561 Y6.8611
G01 X16.4654 Y6.8970
G01 X16.4776 Y6.9320
G01 X16.4846 Y6.9496
G01 X16.4995 Y6.9811
G01 X16.4448 Y6.9320
G01 X16.4349 Y6.9239
G01 X16.4246 Y6.9164
G01 X16.4086 Y6.9061
G01 X16.3918 Y6.8970
G01 X16.3743 Y6.8892
G01 X16.3564 Y6.8826
G01 X16.3442 Y6.8791
G01 X16.3255 Y6.8748
G01 X16.2503 Y6.8625
G01 X16.2314 Y6.8601
G01 X16.2123 Y6.8592
G01 X16.1995 Y6.8594
G01 X16.1868 Y6.8601
G01 X16.1679 Y6.8625
G01 X16.1492 Y6.8663
G01 X16.1308 Y6.8714
G01 X16.1128 Y6.8780
G01 X16.0429 Y6.9083
G01 X16.0313 Y6.9136
G01 X16.0145 Y6.9227
G01 X15.9985 Y6.9331
G01 X15.9832 Y6.9446
G01 X15.9689 Y6.9571
G01 X15.9598 Y6.9661
G01 X15.9512 Y6.9755
G01 X15.9393 Y6.9904
G01 X15.9319 Y7.0008
G01 X15.8931 Y7.0589
G01 X15.8864 Y7.0694
G01 X15.8774 Y7.0858
G01 X15.8696 Y7.1028
G01 X15.8630 Y7.1203
G01 X15.8593 Y7.1322
G01 X15.8564 Y7.1437
G01 X15.8563 Y5.2437
G01 X15.8545 Y5.2066
G01 X15.8533 Y5.1941
G01 X15.8478 Y5.1574
G01 X15.8439 Y5.1389
G01 X15.8346 Y5.1030
G01 X15.8224 Y5.0680
G01 X15.8154 Y5.0504
G01 X15.8000 Y5.0179
G00 Z2.0000
G00 X18.1442 Y3.9504
G01 F60.00
G01 Z-0.0499
G01 F100.00
G01 X18.1381 Y3.9486
G01 X18.1082 Y3.9414
G01 X18.0808 Y3.9374
G01 X18.0531 Y3.9360
G01 X17.8141 Y3.9359
G01 X17.8141 Y3.5641
G01 X18.0967 Y3.5641
G01 X18.1892 Y3.5735
G01 X18.3418 Y3.6241
G01 X18.4783 Y3.7083
G01 X18.5917 Y3.8217
G01 X18.6759 Y3.9582
G01 X18.7265 Y4.1108
G01 X18.7359 Y4.2033
G01 X18.7359 Y5.1859
G01 X18.3641 Y5.1859
G01 X18.3641 Y4.2500
G01 X18.3626 Y4.2192
G01 X18.3584 Y4.1903
G01 X18.3514 Y4.1619
G01 X18.3496 Y4.1558
G01 X18.3402 Y4.1298
G01 X18.3284 Y4.1047
G01 X18.3255 Y4.0992
G01 X18.3112 Y4.0755
G01 X18.2947 Y4.0532
G01 X18.2907 Y4.0484
G01 X18.2721 Y4.0279
G01 X18.2516 Y4.0093
G01 X18.2468 Y4.0053
G01 X18.2245 Y3.9888
G01 X18.2008 Y3.9745
G01 X18.1953 Y3.9716
G01 X18.1702 Y3.9598
G01 X18.1442 Y3.9504
G00 Z2.0000
G00 X18.1766 Y3.8599
G01 F60.00
G01 Z-0.0499
G01 F100.00
G01 X18.1615 Y3.8553
G01 X18.1300 Y3.8476
G01 X18.0980 Y3.8427
G01 X18.0863 Y3.8414
G01 X18.0500 Y3.8398
G01 X17.9102 Y3.8398
G01 X17.9102 Y3.6603
G01 X18.0918 Y3.6603
G01 X18.1690 Y3.6681
G01 X18.3009 Y3.7119
G01 X18.4183 Y3.7842
G01 X18.5158 Y3.8817
G01 X18.5881 Y3.9991
G01 X18.6319 Y4.1311
G01 X18.6397 Y4.2082
G01 X18.6397 Y5.0898
G01 X18.4602 Y5.0898
G01 X18.4602 Y4.2500
G01 X18.4583 Y4.2098
G01 X18.4537 Y4.1777
G01 X18.4516 Y4.1661
G01 X18.4426 Y4.1309
G01 X18.4319 Y4.1003
G01 X18.4275 Y4.0894
G01 X18.4136 Y4.0601
G01 X18.4079 Y4.0498
G01 X18.3911 Y4.0221
G01 X18.3720 Y3.9959
G01 X18.3620 Y3.9838
G01 X18.3401 Y3.9599
G01 X18.3162 Y3.9380
G01 X18.3041 Y3.9280
G01 X18.2779 Y3.9089
G01 X18.2502 Y3.8921
G01 X18.2364 Y3.8847
G01 X18.2070 Y3.8710
G01 X18.1766 Y3.8599
G00 Z2.0000
G00 X17.4684 Y14.0846
G01 F60.00
G01 Z-0.0499
G01 F100.00
G01 X17.4508 Y14.0247
G01 X17.4470 Y14.0127
G01 X17.4426 Y14.0010
G01 X17.4376 Y13.9894
G01 X17.4285 Y13.9717
G01 X17.4684 Y14.0116
G01 X17.4684 Y14.0846
G00 Z2.0000
G00 X13.5474 Y14.9078
G01 F60.00
G01 Z-0.0499
G01 F100.00
G01 X13.6786 Y14.8609
G01 X13.8168 Y14.8263
G01 X13.9577 Y14.8054
G01 X14.1000 Y14.7984
G01 X14.2423 Y14.8054
G01 X14.3832 Y14.8263
G01 X14.5214 Y14.8609
G01 X14.6555 Y14.9089
G01 X14.7843 Y14.9698
G01 X14.9065 Y15.0430
G01 X15.0209 Y15.1279
G01 X15.1264 Y15.2236
G01 X15.2221 Y15.3291
G01 X15.3070 Y15.4435
G01 X15.3802 Y15.5657
G01 X15.4411 Y15.6945
G01 X15.4891 Y15.8286
G01 X15.5237 Y15.9668
G01 X15.5446 Y16.1077
G01 X15.5516 Y16.2500
G01 X15.5446 Y16.3923
G01 X15.5237 Y16.5332
G01 X15.4891 Y16.6714
G01 X15.4411 Y16.8055
G01 X15.3802 Y16.9343
G01 X15.3070 Y17.0565
G01 X15.2221 Y17.1709
G01 X15.1264 Y17.2764
G01 X15.0209 Y17.3721
G01 X14.9065 Y17.4570
G01 X14.7843 Y17.5302
G01 X14.6555 Y17.5911
G01 X14.5214 Y17.6391
G01 X14.3832 Y17.6737
G01 X14.2423 Y17.6946
G01 X14.1000 Y17.7016
G01 X13.9577 Y17.6946
G01 X13.8168 Y17.6737
G01 X13.6786 Y17.6391
G01 X13.5445 Y17.5911
G01 X13.4157 Y17.5302
G01 X13.2935 Y17.4570
G01 X13.1791 Y17.3721
G01 X13.0736 Y17.2764
G01 X12.9779 Y17.1709
G01 X12.8930 Y17.0565
G01 X12.8198 Y16.9343
G01 X12.7589 Y16.8055
G01 X12.7109 Y16.6714
G01 X12.6763 Y16.5332
G01 X12.6554 Y16.3923
G01 X12.6484 Y16.2500
G01 X12.6554 Y16.1077
G01 X12.6763 Y15.9668
G01 X12.7109 Y15.8286
G01 X12.7589 Y15.6945
G01 X12.8198 Y15.5657
G01 X12.8930 Y15.4435
G01 X12.9779 Y15.3291
G01 X13.0736 Y15.2236
G01 X13.1791 Y15.1279
G01 X13.2935 Y15.0430
G01 X13.4157 Y14.9698
G01 X13.5416 Y14.9102
G01 X13.5474 Y14.9078
G00 Z2.0000
G00 X13.5150 Y14.8172
G01 F60.00
G01 Z-0.0499
G01 F100.00
G01 X13.6507 Y14.7689
G01 X13.7980 Y14.7320
G01 X13.9483 Y14.7097
G01 X14.1000 Y14.7023
G01 X14.2517 Y14.7097
G01 X14.4020 Y14.7320
G01 X14.5493 Y14.7689
G01 X14.6923 Y14.8201
G01 X14.8296 Y14.8850
G01 X14.9599 Y14.9631
G01 X15.0819 Y15.0536
G01 X15.1944 Y15.1556
G01 X15.2964 Y15.2681
G01 X15.3869 Y15.3901
G01 X15.4650 Y15.5204
G01 X15.5299 Y15.6577
G01 X15.5811 Y15.8007
G01 X15.6180 Y15.9480
G01 X15.6403 Y16.0983
G01 X15.6477 Y16.2500
G01 X15.6403 Y16.4017
G01 X15.6180 Y16.5520
G01 X15.5811 Y16.6993
G01 X15.5299 Y16.8423
G01 X15.4650 Y16.9796
G01 X15.3869 Y17.1099
G01 X15.2964 Y17.2319
G01 X15.1944 Y17.3444
G01 X15.0819 Y17.4464
G01 X14.9599 Y17.5369
G01 X14.8296 Y17.6150
G01 X14.6923 Y17.6799
G01 X14.5493 Y17.7311
G01 X14.4020 Y17.7680
G01 X14.2517 Y17.7903
G01 X14.1000 Y17.7977
G01 X13.9483 Y17.7903
G01 X13.7980 Y17.7680
G01 X13.6507 Y17.7311
G01 X13.5077 Y17.6799
G01 X13.3704 Y17.6150
G01 X13.2401 Y17.5369
G01 X13.1181 Y17.4464
G01 X13.0056 Y17.3444
G01 X12.9036 Y17.2319
G01 X12.8131 Y17.1099
G01 X12.7350 Y16.9796
G01 X12.6701 Y16.8423
G01 X12.6189 Y16.6993
G01 X12.5820 Y16.5520
G01 X12.5597 Y16.4017
G01 X12.5523 Y16.2500
G01 X12.5597 Y16.0983
G01 X12.5820 Y15.9480
G01 X12.6189 Y15.8007
G01 X12.6701 Y15.6577
G01 X12.7350 Y15.5204
G01 X12.8131 Y15.3901
G01 X12.9036 Y15.2681
G01 X13.0056 Y15.1556
G01 X13.1181 Y15.0536
G01 X13.2401 Y14.9631
G01 X13.3704 Y14.8850
G01 X13.5005 Y14.8233
G01 X13.5150 Y14.8172
G00 Z2.0000
G00 X12.3722 Y16.3632
G01 F60.00
G01 Z-0.0499
G01 F100.00
G01 X12.3722 Y16.1368
G01 X12.4018 Y15.9122
G01 X12.4604 Y15.6934
G01 X12.5471 Y15.4842
G01 X12.6603 Y15.2881
G01 X12.7982 Y15.1084
G01 X12.9584 Y14.9482
G01 X13.1381 Y14.8103
G01 X13.3342 Y14.6971
G01 X13.5434 Y14.6104
G01 X13.7622 Y14.5518
G01 X13.9868 Y14.5222
G01 X14.2132 Y14.5222
G01 X14.4378 Y14.5518
G01 X14.6566 Y14.6104
G01 X14.8658 Y14.6971
G01 X15.0619 Y14.8103
G01 X15.2416 Y14.9482
G01 X15.4018 Y15.1084
G01 X15.5397 Y15.2881
G01 X15.6529 Y15.4842
G01 X15.7396 Y15.6934
G01 X15.7982 Y15.9122
G01 X15.8278 Y16.1368
G01 X15.8278 Y16.3632
G01 X15.7982 Y16.5878
G01 X15.7396 Y16.8066
G01 X15.6529 Y17.0158
G01 X15.5397 Y17.2119
G01 X15.4018 Y17.3916
G01 X15.2416 Y17.5518
G01 X15.0620 Y17.6896
G01 X14.8658 Y17.8029
G01 X14.6566 Y17.8896
G01 X14.4378 Y17.9482
G01 X14.2133 Y17.9777
G01 X13.9868 Y17.9778
G01 X13.7622 Y17.9482
G01 X13.5434 Y17.8896
G01 X13.3342 Y17.8029
G01 X13.1381 Y17.6897
G01 X12.9584 Y17.5518
G01 X12.7982 Y17.3916
G01 X12.6604 Y17.2120
G01 X12.5471 Y17.0158
G01 X12.4604 Y16.8066
G01 X12.4018 Y16.5878
G01 X12.3722 Y16.3632
G00 Z2.0000
G00 X12.2761 Y16.3695
G01 F60.00
G01 Z-0.0499
G01 F100.00
G01 X12.2761 Y16.1305
G01 X12.3073 Y15.8934
G01 X12.3692 Y15.6625
G01 X12.4607 Y15.4416
G01 X12.5802 Y15.2345
G01 X12.7258 Y15.0448
G01 X12.8948 Y14.8758
G01 X13.0845 Y14.7302
G01 X13.2916 Y14.6107
G01 X13.5125 Y14.5192
G01 X13.7434 Y14.4573
G01 X13.9805 Y14.4261
G01 X14.2195 Y14.4261
G01 X14.4566 Y14.4573
G01 X14.6875 Y14.5192
G01 X14.9084 Y14.6107
G01 X15.1155 Y14.7302
G01 X15.3052 Y14.8758
G01 X15.4742 Y15.0448
G01 X15.6198 Y15.2345
G01 X15.7393 Y15.4416
G01 X15.8308 Y15.6625
G01 X15.8927 Y15.8934
G01 X15.9239 Y16.1305
G01 X15.9239 Y16.3695
G01 X15.8927 Y16.6066
G01 X15.8308 Y16.8375
G01 X15.7393 Y17.0584
G01 X15.6198 Y17.2655
G01 X15.4742 Y17.4552
G01 X15.3052 Y17.6242
G01 X15.1155 Y17.7698
G01 X14.9084 Y17.8893
G01 X14.6875 Y17.9808
G01 X14.4566 Y18.0427
G01 X14.2196 Y18.0739
G01 X13.9805 Y18.0739
G01 X13.7434 Y18.0427
G01 X13.5125 Y17.9808
G01 X13.2916 Y17.8893
G01 X13.0845 Y17.7698
G01 X12.8948 Y17.6242
G01 X12.7258 Y17.4552
G01 X12.5802 Y17.2655
G01 X12.4607 Y17.0584
G01 X12.3692 Y16.8375
G01 X12.3073 Y16.6066
G01 X12.2761 Y16.3695
G00 Z2.0000
G00 X11.2715 Y17.5283
G01 F60.00
G01 Z-0.0499
G01 F100.00
G01 X11.2316 Y17.4884
G01 X11.2316 Y17.4154
G01 X11.2492 Y17.4753
G01 X11.2530 Y17.4873
G01 X11.2574 Y17.4990
G01 X11.2624 Y17.5106
G01 X11.2715 Y17.5283
G00 Z2.0000
G00 X10.1607 Y17.7500
G01 F60.00
G01 Z-0.0499
G01 F100.00
G01 X10.1607 Y14.2500
G01 X10.1628 Y14.2069
G01 X10.1692 Y14.1643
G01 X10.1796 Y14.1225
G01 X10.1942 Y14.0819
G01 X10.2126 Y14.0429
G01 X10.2347 Y14.0059
G01 X10.2604 Y13.9713
G01 X10.2894 Y13.9394
G01 X12.6607 Y11.5680
G01 X12.6607 Y10.5003
G01 X12.6495 Y10.4918
G01 X12.6290 Y10.4732
G01 X12.6082 Y10.4505
G01 X12.5888 Y10.4245
G01 X12.5723 Y10.3967
G01 X12.5611 Y10.3731
G01 X12.5587 Y10.3673
G01 X12.5494 Y10.3412
G01 X12.5426 Y10.3143
G01 X12.5414 Y10.3082
G01 X12.5374 Y10.2808
G01 X12.5359 Y10.2516
G01 X12.5359 Y5.2500
G01 X12.5376 Y5.2176
G01 X12.5419 Y5.1887
G01 X12.5486 Y5.1619
G01 X12.5504 Y5.1558
G01 X12.5598 Y5.1298
G01 X12.5730 Y5.1019
G01 X12.5872 Y5.0782
G01 X12.5906 Y5.0729
G01 X12.6072 Y5.0507
G01 X12.6257 Y5.0302
G01 X12.6302 Y5.0257
G01 X12.6507 Y5.0072
G01 X12.6755 Y4.9888
G01 X12.6992 Y4.9745
G01 X12.7047 Y4.9716
G01 X12.7298 Y4.9598
G01 X12.7588 Y4.9494
G01 X12.7887 Y4.9419
G01 X12.8161 Y4.9378
G01 X12.8224 Y4.9372
G01 X12.8500 Y4.9359
G01 X13.3516 Y4.9359
G01 X13.3776 Y4.9372
G01 X13.3839 Y4.9378
G01 X13.4113 Y4.9419
G01 X13.4381 Y4.9486
G01 X13.4442 Y4.9504
G01 X13.4731 Y4.9611
G01 X13.4981 Y4.9730
G01 X13.5245 Y4.9888
G01 X13.5493 Y5.0072
G01 X13.5698 Y5.0257
G01 X13.5743 Y5.0302
G01 X13.5947 Y5.0532
G01 X13.6112 Y5.0755
G01 X13.6270 Y5.1019
G01 X13.6402 Y5.1298
G01 X13.6496 Y5.1558
G01 X13.6574 Y5.1857
G01 X13.6586 Y5.1918
G01 X13.6626 Y5.2192
G01 X13.6641 Y5.2484
G01 X13.6641 Y10.2516
G01 X13.6626 Y10.2808
G01 X13.6586 Y10.3082
G01 X13.6574 Y10.3143
G01 X13.6506 Y10.3412
G01 X13.6413 Y10.3673
G01 X13.6389 Y10.3731
G01 X13.6277 Y10.3967
G01 X13.6112 Y10.4245
G01 X13.5918 Y10.4505
G01 X13.5710 Y10.4732
G01 X13.5505 Y10.4918
G01 X13.5393 Y10.5003
G01 X13.5393 Y11.7500
G01 X13.5372 Y11.7931
G01 X13.5308 Y11.8357
G01 X13.5204 Y11.8775
G01 X13.5070 Y11.9152
G01 X13.5046 Y11.9210
G01 X13.4874 Y11.9571
G01 X13.4669 Y11.9914
G01 X13.4634 Y11.9966
G01 X13.4396 Y12.0287
G01 X13.4117 Y12.0595
G01 X11.0393 Y14.4320
G01 X11.0393 Y17.5680
G01 X12.5751 Y19.1038
G01 X13.9974 Y19.5034
G01 X14.1000 Y19.4984
G01 X14.2423 Y19.5054
G01 X14.3832 Y19.5263
G01 X14.5229 Y19.5614
G01 X14.6526 Y19.6078
G01 X14.6584 Y19.6102
G01 X14.7843 Y19.6698
G01 X14.9038 Y19.7414
G01 X14.9090 Y19.7449
G01 X15.0209 Y19.8279
G01 X15.1275 Y19.9247
G01 X15.2221 Y20.0291
G01 X15.3070 Y20.1435
G01 X15.3802 Y20.2657
G01 X15.4411 Y20.3945
G01 X15.4891 Y20.5286
G01 X15.5237 Y20.6668
G01 X15.5446 Y20.8077
G01 X15.5515 Y20.9469
G01 X15.5515 Y20.9531
G01 X15.5448 Y21.0891
G01 X15.5442 Y21.0954
G01 X15.5237 Y21.2332
G01 X15.4899 Y21.3683
G01 X15.4881 Y21.3744
G01 X15.4411 Y21.5055
G01 X15.3802 Y21.6343
G01 X15.3070 Y21.7565
G01 X15.2221 Y21.8709
G01 X15.1264 Y21.9764
G01 X15.0209 Y22.0721
G01 X14.9065 Y22.1570
G01 X14.7843 Y22.2302
G01 X14.6555 Y22.2911
G01 X14.5214 Y22.3391
G01 X14.3832 Y22.3737
G01 X14.2423 Y22.3946
G01 X14.1000 Y22.4016
G01 X13.9577 Y22.3946
G01 X13.8168 Y22.3737
G01 X13.6786 Y22.3391
G01 X13.5445 Y22.2911
G01 X13.4157 Y22.2302
G01 X13.2935 Y22.1570
G01 X13.1791 Y22.0721
G01 X13.0736 Y21.9764
G01 X12.9779 Y21.8709
G01 X12.8930 Y21.7565
G01 X12.8198 Y21.6343
G01 X12.7589 Y21.5055
G01 X12.7109 Y21.3714
G01 X12.6763 Y21.2332
G01 X12.6588 Y21.1162
G01 X11.9586 Y19.7298
G01 X10.2872 Y18.0583
G01 X10.2604 Y18.0287
G01 X10.2347 Y17.9941
G01 X10.2126 Y17.9571
G01 X10.1942 Y17.9181
G01 X10.1796 Y17.8775
G01 X10.1692 Y17.8357
G01 X10.1628 Y17.7931
G01 X10.1607 Y17.7500
G00 Z2.0000
G00 X10.0646 Y17.7500
G01 F60.00
G01 Z-0.0499
G01 F100.00
G01 X10.0646 Y14.2500
G01 X10.0666 Y14.2054
G01 X10.0681 Y14.1897
G01 X10.0749 Y14.1455
G01 X10.0865 Y14.0983
G01 X10.0901 Y14.0871
G01 X10.1053 Y14.0451
G01 X10.1242 Y14.0046
G01 X10.1317 Y13.9908
G01 X10.1548 Y13.9525
G01 X10.1813 Y13.9165
G01 X10.1886 Y13.9073
G01 X10.2186 Y13.8742
G01 X12.5646 Y11.5282
G01 X12.5646 Y10.5445
G01 X12.5572 Y10.5373
G01 X12.5354 Y10.5133
G01 X12.5280 Y10.5041
G01 X12.5111 Y10.4812
G01 X12.5047 Y10.4713
G01 X12.4882 Y10.4434
G01 X12.4725 Y10.4106
G01 X12.4681 Y10.3997
G01 X12.4574 Y10.3691
G01 X12.4476 Y10.3300
G01 X12.4417 Y10.2902
G01 X12.4398 Y10.2539
G01 X12.4398 Y5.2500
G01 X12.4411 Y5.2176
G01 X12.4422 Y5.2059
G01 X12.4476 Y5.1700
G01 X12.4553 Y5.1385
G01 X12.4599 Y5.1234
G01 X12.4710 Y5.0930
G01 X12.4882 Y5.0566
G01 X12.5047 Y5.0287
G01 X12.5134 Y5.0156
G01 X12.5329 Y4.9897
G01 X12.5545 Y4.9656
G01 X12.5656 Y4.9545
G01 X12.5897 Y4.9329
G01 X12.6221 Y4.9089
G01 X12.6498 Y4.8921
G01 X12.6636 Y4.8847
G01 X12.6930 Y4.8710
G01 X12.7272 Y4.8586
G01 X12.7385 Y4.8553
G01 X12.7623 Y4.8494
G01 X12.7777 Y4.8463
G01 X12.8098 Y4.8417
G01 X12.8500 Y4.8398
G01 X13.3539 Y4.8398
G01 X13.3863 Y4.8414
G01 X13.3980 Y4.8427
G01 X13.4300 Y4.8476
G01 X13.4653 Y4.8563
G01 X13.4766 Y4.8599
G01 X13.4997 Y4.8681
G01 X13.5142 Y4.8742
G01 X13.5434 Y4.8882
G01 X13.5779 Y4.9089
G01 X13.6103 Y4.9329
G01 X13.6344 Y4.9545
G01 X13.6455 Y4.9656
G01 X13.6646 Y4.9867
G01 X13.6720 Y4.9959
G01 X13.6911 Y5.0221
G01 X13.7118 Y5.0566
G01 X13.7290 Y5.0930
G01 X13.7401 Y5.1234
G01 X13.7447 Y5.1385
G01 X13.7506 Y5.1623
G01 X13.7531 Y5.1738
G01 X13.7583 Y5.2098
G01 X13.7602 Y5.2461
G01 X13.7602 Y10.2539
G01 X13.7583 Y10.2902
G01 X13.7524 Y10.3300
G01 X13.7426 Y10.3691
G01 X13.7319 Y10.3997
G01 X13.7275 Y10.4106
G01 X13.7118 Y10.4434
G01 X13.6953 Y10.4713
G01 X13.6889 Y10.4812
G01 X13.6720 Y10.5041
G01 X13.6646 Y10.5133
G01 X13.6428 Y10.5373
G01 X13.6354 Y10.5445
G01 X13.6354 Y11.7500
G01 X13.6329 Y11.8025
G01 X13.6259 Y11.8506
G01 X13.6234 Y11.8621
G01 X13.6145 Y11.8978
G01 X13.6099 Y11.9129
G01 X13.5947 Y11.9549
G01 X13.5722 Y12.0024
G01 X13.5494 Y12.0408
G01 X13.5407 Y12.0539
G01 X13.5139 Y12.0897
G01 X13.4814 Y12.1258
G01 X11.1354 Y14.4718
G01 X11.1354 Y17.5282
G01 X12.6253 Y19.0181
G01 X14.0083 Y19.4066
G01 X14.0921 Y19.4024
G01 X14.1039 Y19.4023
G01 X14.2439 Y19.4091
G01 X14.2556 Y19.4101
G01 X14.4020 Y19.4320
G01 X14.5417 Y19.4668
G01 X14.5530 Y19.4701
G01 X14.6850 Y19.5172
G01 X14.6995 Y19.5233
G01 X14.8296 Y19.5850
G01 X14.9532 Y19.6589
G01 X14.9663 Y19.6676
G01 X15.0819 Y19.7536
G01 X15.1887 Y19.8502
G01 X15.1972 Y19.8584
G01 X15.2964 Y19.9681
G01 X15.3869 Y20.0901
G01 X15.4650 Y20.2204
G01 X15.5299 Y20.3577
G01 X15.5811 Y20.5007
G01 X15.6180 Y20.6480
G01 X15.6403 Y20.7983
G01 X15.6476 Y20.9421
G01 X15.6476 Y20.9579
G01 X15.6409 Y21.0939
G01 X15.6393 Y21.1095
G01 X15.6180 Y21.2520
G01 X15.5832 Y21.3917
G01 X15.5786 Y21.4068
G01 X15.5299 Y21.5423
G01 X15.4650 Y21.6796
G01 X15.3869 Y21.8099
G01 X15.2989 Y21.9288
G01 X15.2913 Y21.9378
G01 X15.1944 Y22.0444
G01 X15.0819 Y22.1464
G01 X14.9599 Y22.2369
G01 X14.8296 Y22.3150
G01 X14.6923 Y22.3799
G01 X14.5493 Y22.4311
G01 X14.4020 Y22.4680
G01 X14.2517 Y22.4903
G01 X14.1000 Y22.4977
G01 X13.9483 Y22.4903
G01 X13.7980 Y22.4680
G01 X13.6507 Y22.4311
G01 X13.5077 Y22.3799
G01 X13.3704 Y22.3150
G01 X13.2401 Y22.2369
G01 X13.1212 Y22.1489
G01 X13.1122 Y22.1413
G01 X13.0056 Y22.0444
G01 X12.9036 Y21.9319
G01 X12.8131 Y21.8099
G01 X12.7350 Y21.6796
G01 X12.6701 Y21.5423
G01 X12.6189 Y21.3993
G01 X12.5820 Y21.2520
G01 X12.5660 Y21.1457
G01 X11.8797 Y19.7869
G01 X10.2214 Y18.1286
G01 X10.1912 Y18.0956
G01 X10.1836 Y18.0866
G01 X10.1570 Y18.0507
G01 X10.1506 Y18.0408
G01 X10.1317 Y18.0092
G01 X10.1242 Y17.9954
G01 X10.1069 Y17.9585
G01 X10.1025 Y17.9476
G01 X10.0876 Y17.9054
G01 X10.0749 Y17.8545
G01 X10.0671 Y17.8025
G01 X10.0646 Y17.7500
G00 Z2.0000
G00 X12.7008 Y18.9394
G01 F60.00
G01 Z-0.0499
G01 F100.00
G01 X12.6755 Y18.9323
G01 X12.6570 Y18.9138
G01 X12.6970 Y18.9373
G01 X12.7008 Y18.9394
G00 Z2.0000
G00 X11.2316 Y14.5680
G01 F60.00
G01 Z-0.0499
G01 F100.00
G01 X11.2316 Y14.5116
G01 X11.2832 Y14.4600
G01 X11.2533 Y14.5148
G01 X11.2475 Y14.5260
G01 X11.2423 Y14.5374
G01 X11.2377 Y14.5491
G01 X11.2316 Y14.5680
G00 Z2.0000
G00 X17.4168 Y21.4400
G01 F60.00
G01 Z-0.0499
G01 F100.00
G01 X17.4467 Y21.3852
G01 X17.4525 Y21.3740
G01 X17.4577 Y21.3626
G01 X17.4623 Y21.3509
G01 X17.4684 Y21.3320
G01 X17.4684 Y21.3884
G01 X17.4168 Y21.4400
G00 Z2.0000
G00 X14.5998 Y24.0846
G01 F60.00
G01 Z-0.0499
G01 F100.00
G01 X14.6719 Y24.0829
G01 X14.6846 Y24.0823
G01 X14.6973 Y24.0811
G01 X14.7100 Y24.0792
G01 X14.7287 Y24.0752
G01 X14.7410 Y24.0717
G01 X14.7532 Y24.0676
G01 X14.7651 Y24.0630
G01 X14.7767 Y24.0577
G01 X14.7937 Y24.0488
G01 X14.8301 Y24.0267
G01 X14.7266 Y24.1302
G01 X14.5998 Y24.0846
G00 Z2.0000
G00 X13.5474 Y24.3078
G01 F60.00
G01 Z-0.0499
G01 F100.00
G01 X13.6786 Y24.2609
G01 X13.8168 Y24.2263
G01 X13.9577 Y24.2054
G01 X14.0969 Y24.1985
G01 X14.1031 Y24.1985
G01 X14.2423 Y24.2054
G01 X14.3801 Y24.2258
G01 X14.3863 Y24.2270
G01 X14.5183 Y24.2601
G01 X14.5244 Y24.2619
G01 X14.6555 Y24.3089
G01 X14.7671 Y24.3616
G01 X17.6607 Y21.4680
G01 X17.6607 Y13.9320
G01 X14.7894 Y11.0606
G01 X14.7614 Y11.0299
G01 X14.7347 Y10.9941
G01 X14.7141 Y10.9598
G01 X14.7112 Y10.9543
G01 X14.6942 Y10.9181
G01 X14.6806 Y10.8805
G01 X14.6788 Y10.8745
G01 X14.6692 Y10.8357
G01 X14.6628 Y10.7931
G01 X14.6607 Y10.7516
G01 X14.6607 Y10.5003
G01 X14.6495 Y10.4918
G01 X14.6290 Y10.4732
G01 X14.6082 Y10.4505
G01 X14.5888 Y10.4245
G01 X14.5737 Y10.3994
G01 X14.5598 Y10.3702
G01 X14.5494 Y10.3412
G01 X14.5419 Y10.3113
G01 X14.5378 Y10.2839
G01 X14.5372 Y10.2776
G01 X14.5359 Y10.2500
G01 X14.5359 Y5.2500
G01 X14.5374 Y5.2192
G01 X14.5414 Y5.1918
G01 X14.5426 Y5.1857
G01 X14.5494 Y5.1588
G01 X14.5587 Y5.1327
G01 X14.5611 Y5.1269
G01 X14.5730 Y5.1019
G01 X14.5872 Y5.0782
G01 X14.5906 Y5.0729
G01 X14.6093 Y5.0484
G01 X14.6279 Y5.0279
G01 X14.6484 Y5.0093
G01 X14.6532 Y5.0053
G01 X14.6755 Y4.9888
G01 X14.6992 Y4.9745
G01 X14.7047 Y4.9716
G01 X14.7298 Y4.9598
G01 X14.7588 Y4.9494
G01 X14.7857 Y4.9426
G01 X14.7918 Y4.9414
G01 X14.8192 Y4.9374
G01 X14.8484 Y4.9359
G01 X15.3500 Y4.9359
G01 X15.3808 Y4.9374
G01 X15.4113 Y4.9419
G01 X15.4412 Y4.9494
G01 X15.4702 Y4.9598
G01 X15.4953 Y4.9716
G01 X15.5218 Y4.9872
G01 X15.5271 Y4.9906
G01 X15.5493 Y5.0072
G01 X15.5698 Y5.0257
G01 X15.5743 Y5.0302
G01 X15.5928 Y5.0507
G01 X15.6112 Y5.0755
G01 X15.6270 Y5.1019
G01 X15.6402 Y5.1298
G01 X15.6506 Y5.1588
G01 X15.6581 Y5.1887
G01 X15.6626 Y5.2192
G01 X15.6641 Y5.2484
G01 X15.6641 Y10.2516
G01 X15.6626 Y10.2808
G01 X15.6586 Y10.3082
G01 X15.6574 Y10.3143
G01 X15.6506 Y10.3412
G01 X15.6413 Y10.3673
G01 X15.6389 Y10.3731
G01 X15.6277 Y10.3967
G01 X15.6112 Y10.4245
G01 X15.5918 Y10.4505
G01 X15.5710 Y10.4732
G01 X15.5505 Y10.4918
G01 X15.5393 Y10.5003
G01 X15.5393 Y10.5680
G01 X18.4117 Y13.4405
G01 X18.4396 Y13.4713
G01 X18.4634 Y13.5034
G01 X18.4669 Y13.5086
G01 X18.4874 Y13.5429
G01 X18.5046 Y13.5790
G01 X18.5070 Y13.5848
G01 X18.5204 Y13.6225
G01 X18.5308 Y13.6643
G01 X18.5372 Y13.7069
G01 X18.5393 Y13.7500
G01 X18.5393 Y21.6500
G01 X18.5372 Y21.6931
G01 X18.5308 Y21.7357
G01 X18.5212 Y21.7745
G01 X18.5194 Y21.7805
G01 X18.5070 Y21.8152
G01 X18.5046 Y21.8210
G01 X18.4874 Y21.8571
G01 X18.4653 Y21.8941
G01 X18.4396 Y21.9287
G01 X18.4117 Y21.9595
G01 X15.3884 Y24.9829
G01 X15.4411 Y25.0945
G01 X15.4881 Y25.2256
G01 X15.4899 Y25.2317
G01 X15.5230 Y25.3637
G01 X15.5242 Y25.3699
G01 X15.5446 Y25.5077
G01 X15.5515 Y25.6469
G01 X15.5515 Y25.6531
G01 X15.5446 Y25.7923
G01 X15.5237 Y25.9332
G01 X15.4891 Y26.0714
G01 X15.4422 Y26.2026
G01 X15.4398 Y26.2084
G01 X15.3802 Y26.3343
G01 X15.3070 Y26.4565
G01 X15.2221 Y26.5709
G01 X15.1264 Y26.6764
G01 X15.0209 Y26.7721
G01 X14.9065 Y26.8570
G01 X14.7843 Y26.9302
G01 X14.6555 Y26.9911
G01 X14.5214 Y27.0391
G01 X14.3832 Y27.0737
G01 X14.2423 Y27.0946
G01 X14.1000 Y27.1016
G01 X13.9577 Y27.0946
G01 X13.8168 Y27.0737
G01 X13.6786 Y27.0391
G01 X13.5445 Y26.9911
G01 X13.4157 Y26.9302
G01 X13.2935 Y26.8570
G01 X13.1791 Y26.7721
G01 X13.0736 Y26.6764
G01 X12.9779 Y26.5709
G01 X12.8930 Y26.4565
G01 X12.8198 Y26.3343
G01 X12.7589 Y26.2055
G01 X12.7109 Y26.0714
G01 X12.6763 Y25.9332
G01 X12.6554 Y25.7923
G01 X12.6484 Y25.6500
G01 X12.6554 Y25.5077
G01 X12.6763 Y25.3668
G01 X12.7109 Y25.2286
G01 X12.7589 Y25.0945
G01 X12.8198 Y24.9657
G01 X12.8930 Y24.8435
G01 X12.9779 Y24.7291
G01 X13.0736 Y24.6236
G01 X13.1791 Y24.5279
G01 X13.2935 Y24.4430
G01 X13.4157 Y24.3698
G01 X13.5416 Y24.3102
G01 X13.5474 Y24.3078
G00 Z2.0000
G00 X13.5150 Y24.2172
G01 F60.00
G01 Z-0.0499
G01 F100.00
G01 X13.6507 Y24.1689
G01 X13.7980 Y24.1320
G01 X13.9483 Y24.1097
G01 X14.0921 Y24.1024
G01 X14.1039 Y24.1023
G01 X14.2517 Y24.1097
G01 X14.3942 Y24.1306
G01 X14.4058 Y24.1328
G01 X14.5417 Y24.1668
G01 X14.5530 Y24.1701
G01 X14.6886 Y24.2186
G01 X14.6995 Y24.2233
G01 X14.7470 Y24.2457
G01 X17.5646 Y21.4282
G01 X17.5646 Y13.9718
G01 X14.7214 Y11.1286
G01 X14.6886 Y11.0927
G01 X14.6813 Y11.0835
G01 X14.6548 Y11.0475
G01 X14.6317 Y11.0092
G01 X14.6242 Y10.9954
G01 X14.6053 Y10.9549
G01 X14.5901 Y10.9129
G01 X14.5865 Y10.9017
G01 X14.5757 Y10.8583
G01 X14.5735 Y10.8467
G01 X14.5671 Y10.8025
G01 X14.5646 Y10.7539
G01 X14.5646 Y10.5445
G01 X14.5572 Y10.5373
G01 X14.5380 Y10.5162
G01 X14.5280 Y10.5041
G01 X14.5134 Y10.4844
G01 X14.5067 Y10.4746
G01 X14.4921 Y10.4502
G01 X14.4864 Y10.4399
G01 X14.4710 Y10.4070
G01 X14.4574 Y10.3691
G01 X14.4476 Y10.3300
G01 X14.4422 Y10.2941
G01 X14.4411 Y10.2824
G01 X14.4398 Y10.2500
G01 X14.4398 Y5.2500
G01 X14.4417 Y5.2098
G01 X14.4469 Y5.1738
G01 X14.4494 Y5.1623
G01 X14.4574 Y5.1309
G01 X14.4681 Y5.1003
G01 X14.4742 Y5.0858
G01 X14.4882 Y5.0566
G01 X14.5067 Y5.0254
G01 X14.5134 Y5.0156
G01 X14.5280 Y4.9959
G01 X14.5354 Y4.9867
G01 X14.5599 Y4.9599
G01 X14.5838 Y4.9380
G01 X14.5959 Y4.9280
G01 X14.6221 Y4.9089
G01 X14.6498 Y4.8921
G01 X14.6636 Y4.8847
G01 X14.6930 Y4.8710
G01 X14.7234 Y4.8599
G01 X14.7385 Y4.8553
G01 X14.7623 Y4.8494
G01 X14.7738 Y4.8469
G01 X14.8098 Y4.8417
G01 X14.8461 Y4.8398
G01 X15.3500 Y4.8398
G01 X15.3902 Y4.8417
G01 X15.4300 Y4.8476
G01 X15.4691 Y4.8574
G01 X15.5070 Y4.8710
G01 X15.5364 Y4.8847
G01 X15.5502 Y4.8921
G01 X15.5746 Y4.9067
G01 X15.5844 Y4.9134
G01 X15.6041 Y4.9280
G01 X15.6133 Y4.9354
G01 X15.6373 Y4.9572
G01 X15.6455 Y4.9656
G01 X15.6671 Y4.9897
G01 X15.6911 Y5.0221
G01 X15.7118 Y5.0566
G01 X15.7290 Y5.0930
G01 X15.7426 Y5.1309
G01 X15.7524 Y5.1700
G01 X15.7583 Y5.2098
G01 X15.7601 Y5.2421
G01 X15.7602 Y10.2539
G01 X15.7583 Y10.2902
G01 X15.7524 Y10.3300
G01 X15.7426 Y10.3691
G01 X15.7290 Y10.4070
G01 X15.7118 Y10.4434
G01 X15.6911 Y10.4779
G01 X15.6671 Y10.5103
G01 X15.6436 Y10.5364
G01 X18.4814 Y13.3742
G01 X18.5139 Y13.4103
G01 X18.5407 Y13.4461
G01 X18.5494 Y13.4592
G01 X18.5722 Y13.4976
G01 X18.5915 Y13.5379
G01 X18.5975 Y13.5524
G01 X18.6124 Y13.5946
G01 X18.6251 Y13.6455
G01 X18.6329 Y13.6975
G01 X18.6354 Y13.7500
G01 X18.6354 Y21.6500
G01 X18.6329 Y21.7025
G01 X18.6251 Y21.7545
G01 X18.6145 Y21.7978
G01 X18.6112 Y21.8092
G01 X18.5975 Y21.8476
G01 X18.5915 Y21.8621
G01 X18.5722 Y21.9024
G01 X18.5452 Y21.9475
G01 X18.5139 Y21.9897
G01 X18.4814 Y22.0258
G01 X15.5043 Y25.0030
G01 X15.5267 Y25.0505
G01 X15.5314 Y25.0614
G01 X15.5799 Y25.1970
G01 X15.5832 Y25.2083
G01 X15.6172 Y25.3442
G01 X15.6194 Y25.3558
G01 X15.6403 Y25.4983
G01 X15.6477 Y25.6461
G01 X15.6476 Y25.6579
G01 X15.6403 Y25.8017
G01 X15.6180 Y25.9520
G01 X15.5811 Y26.0993
G01 X15.5314 Y26.2386
G01 X15.5267 Y26.2495
G01 X15.4650 Y26.3796
G01 X15.3869 Y26.5099
G01 X15.2964 Y26.6319
G01 X15.1944 Y26.7444
G01 X15.0819 Y26.8464
G01 X14.9599 Y26.9369
G01 X14.8296 Y27.0150
G01 X14.6923 Y27.0799
G01 X14.5493 Y27.1311
G01 X14.4020 Y27.1680
G01 X14.2517 Y27.1903
G01 X14.1000 Y27.1977
G01 X13.9483 Y27.1903
G01 X13.7980 Y27.1680
G01 X13.6507 Y27.1311
G01 X13.5077 Y27.0799
G01 X13.3704 Y27.0150
G01 X13.2401 Y26.9369
G01 X13.1181 Y26.8464
G01 X13.0056 Y26.7444
G01 X12.9036 Y26.6319
G01 X12.8131 Y26.5099
G01 X12.7350 Y26.3796
G01 X12.6701 Y26.2423
G01 X12.6189 Y26.0993
G01 X12.5820 Y25.9520
G01 X12.5597 Y25.8017
G01 X12.5523 Y25.6500
G01 X12.5597 Y25.4983
G01 X12.5820 Y25.3480
G01 X12.6189 Y25.2007
G01 X12.6701 Y25.0577
G01 X12.7350 Y24.9204
G01 X12.8131 Y24.7901
G01 X12.9036 Y24.6681
G01 X13.0056 Y24.5556
G01 X13.1181 Y24.4536
G01 X13.2401 Y24.3631
G01 X13.3704 Y24.2850
G01 X13.5005 Y24.2233
G01 X13.5150 Y24.2172
G00 Z2.0000
G00 X15.7252 Y24.9180
G01 F60.00
G01 Z-0.0499
G01 F100.00
G01 X15.6953 Y24.9728
G01 X15.6867 Y24.9899
G01 X15.6795 Y25.0077
G01 X15.6754 Y25.0198
G01 X15.6719 Y25.0321
G01 X15.6691 Y25.0446
G01 X15.6668 Y25.0571
G01 X15.6652 Y25.0698
G01 X15.6643 Y25.0826
G01 X15.6640 Y25.1017
G01 X15.6651 Y25.1496
G01 X15.6198 Y25.0234
G01 X15.7252 Y24.9180
G00 Z2.0000
G00 X0.7293 Y29.3755
G01 F60.00
G01 Z-0.0499
G01 F100.00
G01 X0.7293 Y1.1245
G01 X0.7295 Y1.1184
G01 X0.7304 Y1.1124
G01 X0.7423 Y1.0578
G01 X0.7459 Y1.0472
G01 X0.7513 Y1.0374
G01 X0.7561 Y1.0310
G01 X0.8029 Y0.9770
G01 X0.8099 Y0.9705
G01 X0.8177 Y0.9650
G01 X0.8248 Y0.9614
G01 X0.8307 Y0.9591
G01 X0.8993 Y0.9390
G01 X0.9082 Y0.9371
G01 X0.9174 Y0.9364
G01 X19.6684 Y0.9364
G01 X19.6744 Y0.9367
G01 X19.6805 Y0.9376
G01 X19.7351 Y0.9494
G01 X19.7457 Y0.9530
G01 X19.7555 Y0.9584
G01 X19.7618 Y0.9633
G01 X19.8158 Y1.0101
G01 X19.8224 Y1.0170
G01 X19.8278 Y1.0248
G01 X19.8315 Y1.0319
G01 X19.8337 Y1.0379
G01 X19.8539 Y1.1064
G01 X19.8558 Y1.1154
G01 X19.8565 Y1.1245
G01 X19.8565 Y29.3755
G01 X19.8562 Y29.3816
G01 X19.8553 Y29.3876
G01 X19.8434 Y29.4422
G01 X19.8398 Y29.4528
G01 X19.8344 Y29.4626
G01 X19.8296 Y29.4690
G01 X19.7828 Y29.5230
G01 X19.7758 Y29.5295
G01 X19.7680 Y29.5350
G01 X19.7624 Y29.5380
G01 X19.7550 Y29.5409
G01 X19.6864 Y29.5610
G01 X19.6775 Y29.5629
G01 X19.6684 Y29.5636
G01 X0.9174 Y29.5636
G01 X0.9113 Y29.5633
G01 X0.9052 Y29.5624
G01 X0.8522 Y29.5509
G01 X0.8445 Y29.5487
G01 X0.8372 Y29.5456
G01 X0.8316 Y29.5425
G01 X0.8251 Y29.5378
G01 X0.7676 Y29.4877
G01 X0.7633 Y29.4830
G01 X0.7587 Y29.4765
G01 X0.7556 Y29.4710
G01 X0.7525 Y29.4636
G01 X0.7314 Y29.3921
G01 X0.7299 Y29.3846
G01 X0.7293 Y29.3755
G00 Z2.0000
G00 X0.6331 Y29.3755
G01 F60.00
G01 Z-0.0499
G01 F100.00
G01 X0.6331 Y1.1245
G01 X0.6335 Y1.1131
G01 X0.6353 Y1.0979
G01 X0.6499 Y1.0311
G01 X0.6534 Y1.0197
G01 X0.6595 Y1.0049
G01 X0.6650 Y0.9942
G01 X0.6713 Y0.9840
G01 X0.6759 Y0.9774
G01 X0.6835 Y0.9680
G01 X0.7346 Y0.9094
G01 X0.7431 Y0.9011
G01 X0.7523 Y0.8934
G01 X0.7587 Y0.8887
G01 X0.7688 Y0.8822
G01 X0.7828 Y0.8748
G01 X0.7976 Y0.8689
G01 X0.8722 Y0.8467
G01 X0.8833 Y0.8439
G01 X0.8945 Y0.8419
G01 X0.9059 Y0.8407
G01 X0.9174 Y0.8403
G01 X19.6684 Y0.8403
G01 X19.6798 Y0.8407
G01 X19.6949 Y0.8425
G01 X19.7617 Y0.8570
G01 X19.7732 Y0.8606
G01 X19.7843 Y0.8650
G01 X19.7952 Y0.8702
G01 X19.8089 Y0.8785
G01 X19.8154 Y0.8831
G01 X19.8248 Y0.8906
G01 X19.8835 Y0.9417
G01 X19.8918 Y0.9503
G01 X19.8970 Y0.9563
G01 X19.9042 Y0.9659
G01 X19.9106 Y0.9759
G01 X19.9180 Y0.9900
G01 X19.9240 Y1.0047
G01 X19.9461 Y1.0794
G01 X19.9489 Y1.0904
G01 X19.9510 Y1.1017
G01 X19.9522 Y1.1131
G01 X19.9526 Y1.1245
G01 X19.9526 Y29.3755
G01 X19.9519 Y29.3907
G01 X19.9504 Y29.4021
G01 X19.9358 Y29.4689
G01 X19.9323 Y29.4803
G01 X19.9262 Y29.4951
G01 X19.9207 Y29.5058
G01 X19.9144 Y29.5160
G01 X19.9098 Y29.5226
G01 X19.9023 Y29.5320
G01 X19.8511 Y29.5906
G01 X19.8426 Y29.5989
G01 X19.8334 Y29.6066
G01 X19.8237 Y29.6135
G01 X19.8170 Y29.6178
G01 X19.8029 Y29.6252
G01 X19.7881 Y29.6311
G01 X19.7135 Y29.6533
G01 X19.7024 Y29.6561
G01 X19.6912 Y29.6581
G01 X19.6798 Y29.6593
G01 X19.6684 Y29.6597
G01 X0.9174 Y29.6597
G01 X0.9021 Y29.6590
G01 X0.8908 Y29.6575
G01 X0.8318 Y29.6449
G01 X0.8240 Y29.6430
G01 X0.8125 Y29.6394
G01 X0.7977 Y29.6333
G01 X0.7870 Y29.6278
G01 X0.7802 Y29.6237
G01 X0.7671 Y29.6145
G01 X0.7081 Y29.5636
G01 X0.6994 Y29.5555
G01 X0.6887 Y29.5437
G01 X0.6793 Y29.5308
G01 X0.6731 Y29.5206
G01 X0.6694 Y29.5136
G01 X0.6631 Y29.4990
G01 X0.6593 Y29.4877
G01 X0.6376 Y29.4133
G01 X0.6353 Y29.4021
G01 X0.6342 Y29.3945
G01 X0.6333 Y29.3831
G01 X0.6331 Y29.3755
G00 Z2.0000
G00 X0.5370 Y29.3755
G01 F60.00
G01 Z-0.0499
G01 F100.00
G01 X0.5370 Y1.1245
G01 X0.5372 Y1.1123
G01 X0.5381 Y1.1001
G01 X0.5405 Y1.0820
G01 X0.5540 Y1.0185
G01 X0.5571 Y1.0060
G01 X0.5628 Y0.9877
G01 X0.5698 Y0.9698
G01 X0.5753 Y0.9582
G01 X0.5813 Y0.9469
G01 X0.5914 Y0.9305
G01 X0.5988 Y0.9201
G01 X0.6108 Y0.9051
G01 X0.6565 Y0.8523
G01 X0.6696 Y0.8383
G01 X0.6836 Y0.8254
G01 X0.6986 Y0.8135
G01 X0.7090 Y0.8062
G01 X0.7253 Y0.7963
G01 X0.7424 Y0.7876
G01 X0.7540 Y0.7825
G01 X0.7660 Y0.7781
G01 X0.7781 Y0.7742
G01 X0.8510 Y0.7528
G01 X0.8688 Y0.7487
G01 X0.8869 Y0.7459
G01 X0.8991 Y0.7448
G01 X0.9174 Y0.7441
G01 X19.6684 Y0.7441
G01 X19.6806 Y0.7444
G01 X19.6927 Y0.7453
G01 X19.7109 Y0.7477
G01 X19.7744 Y0.7612
G01 X19.7868 Y0.7642
G01 X19.7991 Y0.7679
G01 X19.8112 Y0.7721
G01 X19.8289 Y0.7796
G01 X19.8459 Y0.7884
G01 X19.8623 Y0.7985
G01 X19.8779 Y0.8098
G01 X19.8878 Y0.8179
G01 X19.9406 Y0.8637
G01 X19.9545 Y0.8767
G01 X19.9675 Y0.8908
G01 X19.9794 Y0.9057
G01 X19.9901 Y0.9215
G01 X19.9966 Y0.9325
G01 X20.0052 Y0.9495
G01 X20.0103 Y0.9612
G01 X20.0148 Y0.9731
G01 X20.0187 Y0.9852
G01 X20.0400 Y1.0581
G01 X20.0441 Y1.0760
G01 X20.0461 Y1.0880
G01 X20.0481 Y1.1062
G01 X20.0488 Y1.1245
G01 X20.0488 Y29.3755
G01 X20.0485 Y29.3877
G01 X20.0476 Y29.3999
G01 X20.0452 Y29.4180
G01 X20.0317 Y29.4815
G01 X20.0287 Y29.4940
G01 X20.0229 Y29.5123
G01 X20.0159 Y29.5302
G01 X20.0075 Y29.5475
G01 X20.0012 Y29.5586
G01 X19.9943 Y29.5695
G01 X19.9831 Y29.5850
G01 X19.9749 Y29.5949
G01 X19.9292 Y29.6477
G01 X19.9161 Y29.6617
G01 X19.9021 Y29.6746
G01 X19.8922 Y29.6827
G01 X19.8767 Y29.6938
G01 X19.8604 Y29.7037
G01 X19.8434 Y29.7124
G01 X19.8317 Y29.7175
G01 X19.8198 Y29.7219
G01 X19.8076 Y29.7258
G01 X19.7347 Y29.7472
G01 X19.7169 Y29.7513
G01 X19.7048 Y29.7533
G01 X19.6866 Y29.7552
G01 X19.6684 Y29.7559
G01 X0.9174 Y29.7559
G01 X0.8991 Y29.7552
G01 X0.8869 Y29.7541
G01 X0.8748 Y29.7523
G01 X0.8113 Y29.7388
G01 X0.7927 Y29.7340
G01 X0.7805 Y29.7301
G01 X0.7686 Y29.7255
G01 X0.7568 Y29.7204
G01 X0.7454 Y29.7146
G01 X0.7342 Y29.7083
G01 X0.7234 Y29.7015
G01 X0.7078 Y29.6902
G01 X0.6979 Y29.6821
G01 X0.6451 Y29.6363
G01 X0.6312 Y29.6233
G01 X0.6224 Y29.6140
G01 X0.6141 Y29.6044
G01 X0.6027 Y29.5891
G01 X0.5956 Y29.5785
G01 X0.5892 Y29.5675
G01 X0.5832 Y29.5562
G01 X0.5779 Y29.5447
G01 X0.5731 Y29.5329
G01 X0.5670 Y29.5148
G01 X0.5473 Y29.4477
G01 X0.5428 Y29.4300
G01 X0.5405 Y29.4180
G01 X0.5381 Y29.3999
G01 X0.5372 Y29.3877
G01 X0.5370 Y29.3755
G00 Z2.0000
M05
G00 Z2.0000
G00 Z20.00


